P3
256 256
255
0 0 255 0 0 254 1 0 254 2 0 253 3 0 253 4 0 252 5 0 252 6 0 251 7 0 251 8 0 250 9 0 250 10 0 249 11 0 249 12 0 248 13 0 248 14 0 247 15 0 247 16 0 246 17 0 246 18 0 245 19 0 245 20 0 244 21 0 244 22 0 243 23 0 243 24 0 242 25 0 242 26 0 241 27 0 241 28 0 240 29 0 240 30 0 239 31 0 239 32 0 238 33 0 238 34 0 237 35 0 237 36 0 236 37 0 236 38 0 235 39 0 235 40 0 234 41 0 234 42 0 233 43 0 233 44 0 232 45 0 232 46 0 231 47 0 231 48 0 230 49 0 230 50 0 229 51 0 229 52 0 228 53 0 228 54 0 227 55 0 227 56 0 226 57 0 226 58 0 225 59 0 225 60 0 224 61 0 224 62 0 223 63 0 223 64 0 222 65 0 222 66 0 221 67 0 221 68 0 220 69 0 220 70 0 219 71 0 219 72 0 218 73 0 218 74 0 217 75 0 217 76 0 216 77 0 216 78 0 215 79 0 215 80 0 214 81 0 214 82 0 213 83 0 213 84 0 212 85 0 212 86 0 211 87 0 211 88 0 210 89 0 210 90 0 209 91 0 209 92 0 208 93 0 208 94 0 207 95 0 207 96 0 206 97 0 206 98 0 205 99 0 205 100 0 204 101 0 204 102 0 203 103 0 203 104 0 202 105 0 202 106 0 201 107 0 201 108 0 200 109 0 200 110 0 199 111 0 199 112 0 198 113 0 198 114 0 197 115 0 197 116 0 196 117 0 196 118 0 195 119 0 195 120 0 194 121 0 194 122 0 193 123 0 193 124 0 192 125 0 192 126 0 191 127 0 191 128 0 190 129 0 190 130 0 189 131 0 189 132 0 188 133 0 188 134 0 187 135 0 187 136 0 186 137 0 186 138 0 185 139 0 185 140 0 184 141 0 184 142 0 183 143 0 183 144 0 182 145 0 182 146 0 181 147 0 181 148 0 180 149 0 180 150 0 179 151 0 179 152 0 178 153 0 178 154 0 177 155 0 177 156 0 176 157 0 176 158 0 175 159 0 175 160 0 174 161 0 174 162 0 173 163 0 173 164 0 172 165 0 172 166 0 171 167 0 171 168 0 170 169 0 170 170 0 169 171 0 169 172 0 168 173 0 168 174 0 167 175 0 167 176 0 166 177 0 166 178 0 165 179 0 165 180 0 164 181 0 164 182 0 163 183 0 163 184 0 162 185 0 162 186 0 161 187 0 161 188 0 160 189 0 160 190 0 159 191 0 159 192 0 158 193 0 158 194 0 157 195 0 157 196 0 156 197 0 156 198 0 155 199 0 155 200 0 154 201 0 154 202 0 153 203 0 153 204 0 152 205 0 152 206 0 151 207 0 151 208 0 150 209 0 150 210 0 149 211 0 149 212 0 148 213 0 148 214 0 147 215 0 147 216 0 146 217 0 146 218 0 145 219 0 145 220 0 144 221 0 144 222 0 143 223 0 143 224 0 142 225 0 142 226 0 141 227 0 141 228 0 140 229 0 140 230 0 139 231 0 139 232 0 138 233 0 138 234 0 137 235 0 137 236 0 136 237 0 136 238 0 135 239 0 135 240 0 134 241 0 134 242 0 133 243 0 133 244 0 132 245 0 132 246 0 131 247 0 131 248 0 130 249 0 130 250 0 129 251 0 129 252 0 128 253 0 128 254 0 127 
0 0 254 0 0 254 1 0 253 2 0 253 3 0 252 4 0 252 5 0 251 6 0 251 7 0 250 8 0 250 9 0 249 10 0 249 11 0 248 12 0 248 13 0 247 14 0 247 15 0 246 16 0 246 17 0 245 18 0 245 19 0 244 20 0 244 21 0 243 22 0 243 23 0 242 24 0 242 25 0 241 26 0 241 27 0 240 28 0 240 29 0 239 30 0 239 31 0 238 32 0 238 33 0 237 34 0 237 35 0 236 36 0 236 37 0 235 38 0 235 39 0 234 40 0 234 41 0 233 42 0 233 43 0 232 44 0 232 45 0 231 46 0 231 47 0 230 48 0 230 49 0 229 50 0 229 51 0 228 52 0 228 53 0 227 54 0 227 55 0 226 56 0 226 57 0 225 58 0 225 59 0 224 60 0 224 61 0 223 62 0 223 63 0 222 64 0 222 65 0 221 66 0 221 67 0 220 68 0 220 69 0 219 70 0 219 71 0 218 72 0 218 73 0 217 74 0 217 75 0 216 76 0 216 77 0 215 78 0 215 79 0 214 80 0 214 81 0 213 82 0 213 83 0 212 84 0 212 85 0 211 86 0 211 87 0 210 88 0 210 89 0 209 90 0 209 91 0 208 92 0 208 93 0 207 94 0 207 95 0 206 96 0 206 97 0 205 98 0 205 99 0 204 100 0 204 101 0 203 102 0 203 103 0 202 104 0 202 105 0 201 106 0 201 107 0 200 108 0 200 109 0 199 110 0 199 111 0 198 112 0 198 113 0 197 114 0 197 115 0 196 116 0 196 117 0 195 118 0 195 119 0 194 120 0 194 121 0 193 122 0 193 123 0 192 124 0 192 125 0 191 126 0 191 127 0 190 128 0 190 129 0 189 130 0 189 131 0 188 132 0 188 133 0 187 134 0 187 135 0 186 136 0 186 137 0 185 138 0 185 139 0 184 140 0 184 141 0 183 142 0 183 143 0 182 144 0 182 145 0 181 146 0 181 147 0 180 148 0 180 149 0 179 150 0 179 151 0 178 152 0 178 153 0 177 154 0 177 155 0 176 156 0 176 157 0 175 158 0 175 159 0 174 160 0 174 161 0 173 162 0 173 163 0 172 164 0 172 165 0 171 166 0 171 167 0 170 168 0 170 169 0 169 170 0 169 171 0 168 172 0 168 173 0 167 174 0 167 175 0 166 176 0 166 177 0 165 178 0 165 179 0 164 180 0 164 181 0 163 182 0 163 183 0 162 184 0 162 185 0 161 186 0 161 187 0 160 188 0 160 189 0 159 190 0 159 191 0 158 192 0 158 193 0 157 194 0 157 195 0 156 196 0 156 197 0 155 198 0 155 199 0 154 200 0 154 201 0 153 202 0 153 203 0 152 204 0 152 205 0 151 206 0 151 207 0 150 208 0 150 209 0 149 210 0 149 211 0 148 212 0 148 213 0 147 214 0 147 215 0 146 216 0 146 217 0 145 218 0 145 219 0 144 220 0 144 221 0 143 222 0 143 223 0 142 224 0 142 225 0 141 226 0 141 227 0 140 228 0 140 229 0 139 230 0 139 231 0 138 232 0 138 233 0 137 234 0 137 235 0 136 236 0 136 237 0 135 238 0 135 239 0 134 240 0 134 241 0 133 242 0 133 243 0 132 244 0 132 245 0 131 246 0 131 247 0 130 248 0 130 249 0 129 250 0 129 251 0 128 252 0 128 253 0 127 254 0 127 
0 1 254 0 1 253 1 1 253 2 1 252 3 1 252 4 1 251 5 1 251 6 1 250 7 1 250 8 1 249 9 1 249 10 1 248 11 1 248 12 1 247 13 1 247 14 1 246 15 1 246 16 1 245 17 1 245 18 1 244 19 1 244 20 1 243 21 1 243 22 1 242 23 1 242 24 1 241 25 1 241 26 1 240 27 1 240 28 1 239 29 1 239 30 1 238 31 1 238 32 1 237 33 1 237 34 1 236 35 1 236 36 1 235 37 1 235 38 1 234 39 1 234 40 1 233 41 1 233 42 1 232 43 1 232 44 1 231 45 1 231 46 1 230 47 1 230 48 1 229 49 1 229 50 1 228 51 1 228 52 1 227 53 1 227 54 1 226 55 1 226 56 1 225 57 1 225 58 1 224 59 1 224 60 1 223 61 1 223 62 1 222 63 1 222 64 1 221 65 1 221 66 1 220 67 1 220 68 1 219 69 1 219 70 1 218 71 1 218 72 1 217 73 1 217 74 1 216 75 1 216 76 1 215 77 1 215 78 1 214 79 1 214 80 1 213 81 1 213 82 1 212 83 1 212 84 1 211 85 1 211 86 1 210 87 1 210 88 1 209 89 1 209 90 1 208 91 1 208 92 1 207 93 1 207 94 1 206 95 1 206 96 1 205 97 1 205 98 1 204 99 1 204 100 1 203 101 1 203 102 1 202 103 1 202 104 1 201 105 1 201 106 1 200 107 1 200 108 1 199 109 1 199 110 1 198 111 1 198 112 1 197 113 1 197 114 1 196 115 1 196 116 1 195 117 1 195 118 1 194 119 1 194 120 1 193 121 1 193 122 1 192 123 1 192 124 1 191 125 1 191 126 1 190 127 1 190 128 1 189 129 1 189 130 1 188 131 1 188 132 1 187 133 1 187 134 1 186 135 1 186 136 1 185 137 1 185 138 1 184 139 1 184 140 1 183 141 1 183 142 1 182 143 1 182 144 1 181 145 1 181 146 1 180 147 1 180 148 1 179 149 1 179 150 1 178 151 1 178 152 1 177 153 1 177 154 1 176 155 1 176 156 1 175 157 1 175 158 1 174 159 1 174 160 1 173 161 1 173 162 1 172 163 1 172 164 1 171 165 1 171 166 1 170 167 1 170 168 1 169 169 1 169 170 1 168 171 1 168 172 1 167 173 1 167 174 1 166 175 1 166 176 1 165 177 1 165 178 1 164 179 1 164 180 1 163 181 1 163 182 1 162 183 1 162 184 1 161 185 1 161 186 1 160 187 1 160 188 1 159 189 1 159 190 1 158 191 1 158 192 1 157 193 1 157 194 1 156 195 1 156 196 1 155 197 1 155 198 1 154 199 1 154 200 1 153 201 1 153 202 1 152 203 1 152 204 1 151 205 1 151 206 1 150 207 1 150 208 1 149 209 1 149 210 1 148 211 1 148 212 1 147 213 1 147 214 1 146 215 1 146 216 1 145 217 1 145 218 1 144 219 1 144 220 1 143 221 1 143 222 1 142 223 1 142 224 1 141 225 1 141 226 1 140 227 1 140 228 1 139 229 1 139 230 1 138 231 1 138 232 1 137 233 1 137 234 1 136 235 1 136 236 1 135 237 1 135 238 1 134 239 1 134 240 1 133 241 1 133 242 1 132 243 1 132 244 1 131 245 1 131 246 1 130 247 1 130 248 1 129 249 1 129 250 1 128 251 1 128 252 1 127 253 1 127 254 1 127 
0 2 253 0 2 253 1 2 252 2 2 252 3 2 251 4 2 251 5 2 250 6 2 250 7 2 249 8 2 249 9 2 248 10 2 248 11 2 247 12 2 247 13 2 246 14 2 246 15 2 245 16 2 245 17 2 244 18 2 244 19 2 243 20 2 243 21 2 242 22 2 242 23 2 241 24 2 241 25 2 240 26 2 240 27 2 239 28 2 239 29 2 238 30 2 238 31 2 237 32 2 237 33 2 236 34 2 236 35 2 235 36 2 235 37 2 234 38 2 234 39 2 233 40 2 233 41 2 232 42 2 232 43 2 231 44 2 231 45 2 230 46 2 230 47 2 229 48 2 229 49 2 228 50 2 228 51 2 227 52 2 227 53 2 226 54 2 226 55 2 225 56 2 225 57 2 224 58 2 224 59 2 223 60 2 223 61 2 222 62 2 222 63 2 221 64 2 221 65 2 220 66 2 220 67 2 219 68 2 219 69 2 218 70 2 218 71 2 217 72 2 217 73 2 216 74 2 216 75 2 215 76 2 215 77 2 214 78 2 214 79 2 213 80 2 213 81 2 212 82 2 212 83 2 211 84 2 211 85 2 210 86 2 210 87 2 209 88 2 209 89 2 208 90 2 208 91 2 207 92 2 207 93 2 206 94 2 206 95 2 205 96 2 205 97 2 204 98 2 204 99 2 203 100 2 203 101 2 202 102 2 202 103 2 201 104 2 201 105 2 200 106 2 200 107 2 199 108 2 199 109 2 198 110 2 198 111 2 197 112 2 197 113 2 196 114 2 196 115 2 195 116 2 195 117 2 194 118 2 194 119 2 193 120 2 193 121 2 192 122 2 192 123 2 191 124 2 191 125 2 190 126 2 190 127 2 189 128 2 189 129 2 188 130 2 188 131 2 187 132 2 187 133 2 186 134 2 186 135 2 185 136 2 185 137 2 184 138 2 184 139 2 183 140 2 183 141 2 182 142 2 182 143 2 181 144 2 181 145 2 180 146 2 180 147 2 179 148 2 179 149 2 178 150 2 178 151 2 177 152 2 177 153 2 176 154 2 176 155 2 175 156 2 175 157 2 174 158 2 174 159 2 173 160 2 173 161 2 172 162 2 172 163 2 171 164 2 171 165 2 170 166 2 170 167 2 169 168 2 169 169 2 168 170 2 168 171 2 167 172 2 167 173 2 166 174 2 166 175 2 165 176 2 165 177 2 164 178 2 164 179 2 163 180 2 163 181 2 162 182 2 162 183 2 161 184 2 161 185 2 160 186 2 160 187 2 159 188 2 159 189 2 158 190 2 158 191 2 157 192 2 157 193 2 156 194 2 156 195 2 155 196 2 155 197 2 154 198 2 154 199 2 153 200 2 153 201 2 152 202 2 152 203 2 151 204 2 151 205 2 150 206 2 150 207 2 149 208 2 149 209 2 148 210 2 148 211 2 147 212 2 147 213 2 146 214 2 146 215 2 145 216 2 145 217 2 144 218 2 144 219 2 143 220 2 143 221 2 142 222 2 142 223 2 141 224 2 141 225 2 140 226 2 140 227 2 139 228 2 139 229 2 138 230 2 138 231 2 137 232 2 137 233 2 136 234 2 136 235 2 135 236 2 135 237 2 134 238 2 134 239 2 133 240 2 133 241 2 132 242 2 132 243 2 131 244 2 131 245 2 130 246 2 130 247 2 129 248 2 129 249 2 128 250 2 128 251 2 127 252 2 127 253 2 127 254 2 126 
0 3 253 0 3 252 1 3 252 2 3 251 3 3 251 4 3 250 5 3 250 6 3 249 7 3 249 8 3 248 9 3 248 10 3 247 11 3 247 12 3 246 13 3 246 14 3 245 15 3 245 16 3 244 17 3 244 18 3 243 19 3 243 20 3 242 21 3 242 22 3 241 23 3 241 24 3 240 25 3 240 26 3 239 27 3 239 28 3 238 29 3 238 30 3 237 31 3 237 32 3 236 33 3 236 34 3 235 35 3 235 36 3 234 37 3 234 38 3 233 39 3 233 40 3 232 41 3 232 42 3 231 43 3 231 44 3 230 45 3 230 46 3 229 47 3 229 48 3 228 49 3 228 50 3 227 51 3 227 52 3 226 53 3 226 54 3 225 55 3 225 56 3 224 57 3 224 58 3 223 59 3 223 60 3 222 61 3 222 62 3 221 63 3 221 64 3 220 65 3 220 66 3 219 67 3 219 68 3 218 69 3 218 70 3 217 71 3 217 72 3 216 73 3 216 74 3 215 75 3 215 76 3 214 77 3 214 78 3 213 79 3 213 80 3 212 81 3 212 82 3 211 83 3 211 84 3 210 85 3 210 86 3 209 87 3 209 88 3 208 89 3 208 90 3 207 91 3 207 92 3 206 93 3 206 94 3 205 95 3 205 96 3 204 97 3 204 98 3 203 99 3 203 100 3 202 101 3 202 102 3 201 103 3 201 104 3 200 105 3 200 106 3 199 107 3 199 108 3 198 109 3 198 110 3 197 111 3 197 112 3 196 113 3 196 114 3 195 115 3 195 116 3 194 117 3 194 118 3 193 119 3 193 120 3 192 121 3 192 122 3 191 123 3 191 124 3 190 125 3 190 126 3 189 127 3 189 128 3 188 129 3 188 130 3 187 131 3 187 132 3 186 133 3 186 134 3 185 135 3 185 136 3 184 137 3 184 138 3 183 139 3 183 140 3 182 141 3 182 142 3 181 143 3 181 144 3 180 145 3 180 146 3 179 147 3 179 148 3 178 149 3 178 150 3 177 151 3 177 152 3 176 153 3 176 154 3 175 155 3 175 156 3 174 157 3 174 158 3 173 159 3 173 160 3 172 161 3 172 162 3 171 163 3 171 164 3 170 165 3 170 166 3 169 167 3 169 168 3 168 169 3 168 170 3 167 171 3 167 172 3 166 173 3 166 174 3 165 175 3 165 176 3 164 177 3 164 178 3 163 179 3 163 180 3 162 181 3 162 182 3 161 183 3 161 184 3 160 185 3 160 186 3 159 187 3 159 188 3 158 189 3 158 190 3 157 191 3 157 192 3 156 193 3 156 194 3 155 195 3 155 196 3 154 197 3 154 198 3 153 199 3 153 200 3 152 201 3 152 202 3 151 203 3 151 204 3 150 205 3 150 206 3 149 207 3 149 208 3 148 209 3 148 210 3 147 211 3 147 212 3 146 213 3 146 214 3 145 215 3 145 216 3 144 217 3 144 218 3 143 219 3 143 220 3 142 221 3 142 222 3 141 223 3 141 224 3 140 225 3 140 226 3 139 227 3 139 228 3 138 229 3 138 230 3 137 231 3 137 232 3 136 233 3 136 234 3 135 235 3 135 236 3 134 237 3 134 238 3 133 239 3 133 240 3 132 241 3 132 242 3 131 243 3 131 244 3 130 245 3 130 246 3 129 247 3 129 248 3 128 249 3 128 250 3 127 251 3 127 252 3 127 253 3 126 254 3 126 
0 4 252 0 4 252 1 4 251 2 4 251 3 4 250 4 4 250 5 4 249 6 4 249 7 4 248 8 4 248 9 4 247 10 4 247 11 4 246 12 4 246 13 4 245 14 4 245 15 4 244 16 4 244 17 4 243 18 4 243 19 4 242 20 4 242 21 4 241 22 4 241 23 4 240 24 4 240 25 4 239 26 4 239 27 4 238 28 4 238 29 4 237 30 4 237 31 4 236 32 4 236 33 4 235 34 4 235 35 4 234 36 4 234 37 4 233 38 4 233 39 4 232 40 4 232 41 4 231 42 4 231 43 4 230 44 4 230 45 4 229 46 4 229 47 4 228 48 4 228 49 4 227 50 4 227 51 4 226 52 4 226 53 4 225 54 4 225 55 4 224 56 4 224 57 4 223 58 4 223 59 4 222 60 4 222 61 4 221 62 4 221 63 4 220 64 4 220 65 4 219 66 4 219 67 4 218 68 4 218 69 4 217 70 4 217 71 4 216 72 4 216 73 4 215 74 4 215 75 4 214 76 4 214 77 4 213 78 4 213 79 4 212 80 4 212 81 4 211 82 4 211 83 4 210 84 4 210 85 4 209 86 4 209 87 4 208 88 4 208 89 4 207 90 4 207 91 4 206 92 4 206 93 4 205 94 4 205 95 4 204 96 4 204 97 4 203 98 4 203 99 4 202 100 4 202 101 4 201 102 4 201 103 4 200 104 4 200 105 4 199 106 4 199 107 4 198 108 4 198 109 4 197 110 4 197 111 4 196 112 4 196 113 4 195 114 4 195 115 4 194 116 4 194 117 4 193 118 4 193 119 4 192 120 4 192 121 4 191 122 4 191 123 4 190 124 4 190 125 4 189 126 4 189 127 4 188 128 4 188 129 4 187 130 4 187 131 4 186 132 4 186 133 4 185 134 4 185 135 4 184 136 4 184 137 4 183 138 4 183 139 4 182 140 4 182 141 4 181 142 4 181 143 4 180 144 4 180 145 4 179 146 4 179 147 4 178 148 4 178 149 4 177 150 4 177 151 4 176 152 4 176 153 4 175 154 4 175 155 4 174 156 4 174 157 4 173 158 4 173 159 4 172 160 4 172 161 4 171 162 4 171 163 4 170 164 4 170 165 4 169 166 4 169 167 4 168 168 4 168 169 4 167 170 4 167 171 4 166 172 4 166 173 4 165 174 4 165 175 4 164 176 4 164 177 4 163 178 4 163 179 4 162 180 4 162 181 4 161 182 4 161 183 4 160 184 4 160 185 4 159 186 4 159 187 4 158 188 4 158 189 4 157 190 4 157 191 4 156 192 4 156 193 4 155 194 4 155 195 4 154 196 4 154 197 4 153 198 4 153 199 4 152 200 4 152 201 4 151 202 4 151 203 4 150 204 4 150 205 4 149 206 4 149 207 4 148 208 4 148 209 4 147 210 4 147 211 4 146 212 4 146 213 4 145 214 4 145 215 4 144 216 4 144 217 4 143 218 4 143 219 4 142 220 4 142 221 4 141 222 4 141 223 4 140 224 4 140 225 4 139 226 4 139 227 4 138 228 4 138 229 4 137 230 4 137 231 4 136 232 4 136 233 4 135 234 4 135 235 4 134 236 4 134 237 4 133 238 4 133 239 4 132 240 4 132 241 4 131 242 4 131 243 4 130 244 4 130 245 4 129 246 4 129 247 4 128 248 4 128 249 4 127 250 4 127 251 4 127 252 4 126 253 4 126 254 4 125 
0 5 252 0 5 251 1 5 251 2 5 250 3 5 250 4 5 249 5 5 249 6 5 248 7 5 248 8 5 247 9 5 247 10 5 246 11 5 246 12 5 245 13 5 245 14 5 244 15 5 244 16 5 243 17 5 243 18 5 242 19 5 242 20 5 241 21 5 241 22 5 240 23 5 240 24 5 239 25 5 239 26 5 238 27 5 238 28 5 237 29 5 237 30 5 236 31 5 236 32 5 235 33 5 235 34 5 234 35 5 234 36 5 233 37 5 233 38 5 232 39 5 232 40 5 231 41 5 231 42 5 230 43 5 230 44 5 229 45 5 229 46 5 228 47 5 228 48 5 227 49 5 227 50 5 226 51 5 226 52 5 225 53 5 225 54 5 224 55 5 224 56 5 223 57 5 223 58 5 222 59 5 222 60 5 221 61 5 221 62 5 220 63 5 220 64 5 219 65 5 219 66 5 218 67 5 218 68 5 217 69 5 217 70 5 216 71 5 216 72 5 215 73 5 215 74 5 214 75 5 214 76 5 213 77 5 213 78 5 212 79 5 212 80 5 211 81 5 211 82 5 210 83 5 210 84 5 209 85 5 209 86 5 208 87 5 208 88 5 207 89 5 207 90 5 206 91 5 206 92 5 205 93 5 205 94 5 204 95 5 204 96 5 203 97 5 203 98 5 202 99 5 202 100 5 201 101 5 201 102 5 200 103 5 200 104 5 199 105 5 199 106 5 198 107 5 198 108 5 197 109 5 197 110 5 196 111 5 196 112 5 195 113 5 195 114 5 194 115 5 194 116 5 193 117 5 193 118 5 192 119 5 192 120 5 191 121 5 191 122 5 190 123 5 190 124 5 189 125 5 189 126 5 188 127 5 188 128 5 187 129 5 187 130 5 186 131 5 186 132 5 185 133 5 185 134 5 184 135 5 184 136 5 183 137 5 183 138 5 182 139 5 182 140 5 181 141 5 181 142 5 180 143 5 180 144 5 179 145 5 179 146 5 178 147 5 178 148 5 177 149 5 177 150 5 176 151 5 176 152 5 175 153 5 175 154 5 174 155 5 174 156 5 173 157 5 173 158 5 172 159 5 172 160 5 171 161 5 171 162 5 170 163 5 170 164 5 169 165 5 169 166 5 168 167 5 168 168 5 167 169 5 167 170 5 166 171 5 166 172 5 165 173 5 165 174 5 164 175 5 164 176 5 163 177 5 163 178 5 162 179 5 162 180 5 161 181 5 161 182 5 160 183 5 160 184 5 159 185 5 159 186 5 158 187 5 158 188 5 157 189 5 157 190 5 156 191 5 156 192 5 155 193 5 155 194 5 154 195 5 154 196 5 153 197 5 153 198 5 152 199 5 152 200 5 151 201 5 151 202 5 150 203 5 150 204 5 149 205 5 149 206 5 148 207 5 148 208 5 147 209 5 147 210 5 146 211 5 146 212 5 145 213 5 145 214 5 144 215 5 144 216 5 143 217 5 143 218 5 142 219 5 142 220 5 141 221 5 141 222 5 140 223 5 140 224 5 139 225 5 139 226 5 138 227 5 138 228 5 137 229 5 137 230 5 136 231 5 136 232 5 135 233 5 135 234 5 134 235 5 134 236 5 133 237 5 133 238 5 132 239 5 132 240 5 131 241 5 131 242 5 130 243 5 130 244 5 129 245 5 129 246 5 128 247 5 128 248 5 127 249 5 127 250 5 127 251 5 126 252 5 126 253 5 125 254 5 125 
0 6 251 0 6 251 1 6 250 2 6 250 3 6 249 4 6 249 5 6 248 6 6 248 7 6 247 8 6 247 9 6 246 10 6 246 11 6 245 12 6 245 13 6 244 14 6 244 15 6 243 16 6 243 17 6 242 18 6 242 19 6 241 20 6 241 21 6 240 22 6 240 23 6 239 24 6 239 25 6 238 26 6 238 27 6 237 28 6 237 29 6 236 30 6 236 31 6 235 32 6 235 33 6 234 34 6 234 35 6 233 36 6 233 37 6 232 38 6 232 39 6 231 40 6 231 41 6 230 42 6 230 43 6 229 44 6 229 45 6 228 46 6 228 47 6 227 48 6 227 49 6 226 50 6 226 51 6 225 52 6 225 53 6 224 54 6 224 55 6 223 56 6 223 57 6 222 58 6 222 59 6 221 60 6 221 61 6 220 62 6 220 63 6 219 64 6 219 65 6 218 66 6 218 67 6 217 68 6 217 69 6 216 70 6 216 71 6 215 72 6 215 73 6 214 74 6 214 75 6 213 76 6 213 77 6 212 78 6 212 79 6 211 80 6 211 81 6 210 82 6 210 83 6 209 84 6 209 85 6 208 86 6 208 87 6 207 88 6 207 89 6 206 90 6 206 91 6 205 92 6 205 93 6 204 94 6 204 95 6 203 96 6 203 97 6 202 98 6 202 99 6 201 100 6 201 101 6 200 102 6 200 103 6 199 104 6 199 105 6 198 106 6 198 107 6 197 108 6 197 109 6 196 110 6 196 111 6 195 112 6 195 113 6 194 114 6 194 115 6 193 116 6 193 117 6 192 118 6 192 119 6 191 120 6 191 121 6 190 122 6 190 123 6 189 124 6 189 125 6 188 126 6 188 127 6 187 128 6 187 129 6 186 130 6 186 131 6 185 132 6 185 133 6 184 134 6 184 135 6 183 136 6 183 137 6 182 138 6 182 139 6 181 140 6 181 141 6 180 142 6 180 143 6 179 144 6 179 145 6 178 146 6 178 147 6 177 148 6 177 149 6 176 150 6 176 151 6 175 152 6 175 153 6 174 154 6 174 155 6 173 156 6 173 157 6 172 158 6 172 159 6 171 160 6 171 161 6 170 162 6 170 163 6 169 164 6 169 165 6 168 166 6 168 167 6 167 168 6 167 169 6 166 170 6 166 171 6 165 172 6 165 173 6 164 174 6 164 175 6 163 176 6 163 177 6 162 178 6 162 179 6 161 180 6 161 181 6 160 182 6 160 183 6 159 184 6 159 185 6 158 186 6 158 187 6 157 188 6 157 189 6 156 190 6 156 191 6 155 192 6 155 193 6 154 194 6 154 195 6 153 196 6 153 197 6 152 198 6 152 199 6 151 200 6 151 201 6 150 202 6 150 203 6 149 204 6 149 205 6 148 206 6 148 207 6 147 208 6 147 209 6 146 210 6 146 211 6 145 212 6 145 213 6 144 214 6 144 215 6 143 216 6 143 217 6 142 218 6 142 219 6 141 220 6 141 221 6 140 222 6 140 223 6 139 224 6 139 225 6 138 226 6 138 227 6 137 228 6 137 229 6 136 230 6 136 231 6 135 232 6 135 233 6 134 234 6 134 235 6 133 236 6 133 237 6 132 238 6 132 239 6 131 240 6 131 241 6 130 242 6 130 243 6 129 244 6 129 245 6 128 246 6 128 247 6 127 248 6 127 249 6 127 250 6 126 251 6 126 252 6 125 253 6 125 254 6 124 
0 7 251 0 7 250 1 7 250 2 7 249 3 7 249 4 7 248 5 7 248 6 7 247 7 7 247 8 7 246 9 7 246 10 7 245 11 7 245 12 7 244 13 7 244 14 7 243 15 7 243 16 7 242 17 7 242 18 7 241 19 7 241 20 7 240 21 7 240 22 7 239 23 7 239 24 7 238 25 7 238 26 7 237 27 7 237 28 7 236 29 7 236 30 7 235 31 7 235 32 7 234 33 7 234 34 7 233 35 7 233 36 7 232 37 7 232 38 7 231 39 7 231 40 7 230 41 7 230 42 7 229 43 7 229 44 7 228 45 7 228 46 7 227 47 7 227 48 7 226 49 7 226 50 7 225 51 7 225 52 7 224 53 7 224 54 7 223 55 7 223 56 7 222 57 7 222 58 7 221 59 7 221 60 7 220 61 7 220 62 7 219 63 7 219 64 7 218 65 7 218 66 7 217 67 7 217 68 7 216 69 7 216 70 7 215 71 7 215 72 7 214 73 7 214 74 7 213 75 7 213 76 7 212 77 7 212 78 7 211 79 7 211 80 7 210 81 7 210 82 7 209 83 7 209 84 7 208 85 7 208 86 7 207 87 7 207 88 7 206 89 7 206 90 7 205 91 7 205 92 7 204 93 7 204 94 7 203 95 7 203 96 7 202 97 7 202 98 7 201 99 7 201 100 7 200 101 7 200 102 7 199 103 7 199 104 7 198 105 7 198 106 7 197 107 7 197 108 7 196 109 7 196 110 7 195 111 7 195 112 7 194 113 7 194 114 7 193 115 7 193 116 7 192 117 7 192 118 7 191 119 7 191 120 7 190 121 7 190 122 7 189 123 7 189 124 7 188 125 7 188 126 7 187 127 7 187 128 7 186 129 7 186 130 7 185 131 7 185 132 7 184 133 7 184 134 7 183 135 7 183 136 7 182 137 7 182 138 7 181 139 7 181 140 7 180 141 7 180 142 7 179 143 7 179 144 7 178 145 7 178 146 7 177 147 7 177 148 7 176 149 7 176 150 7 175 151 7 175 152 7 174 153 7 174 154 7 173 155 7 173 156 7 172 157 7 172 158 7 171 159 7 171 160 7 170 161 7 170 162 7 169 163 7 169 164 7 168 165 7 168 166 7 167 167 7 167 168 7 166 169 7 166 170 7 165 171 7 165 172 7 164 173 7 164 174 7 163 175 7 163 176 7 162 177 7 162 178 7 161 179 7 161 180 7 160 181 7 160 182 7 159 183 7 159 184 7 158 185 7 158 186 7 157 187 7 157 188 7 156 189 7 156 190 7 155 191 7 155 192 7 154 193 7 154 194 7 153 195 7 153 196 7 152 197 7 152 198 7 151 199 7 151 200 7 150 201 7 150 202 7 149 203 7 149 204 7 148 205 7 148 206 7 147 207 7 147 208 7 146 209 7 146 210 7 145 211 7 145 212 7 144 213 7 144 214 7 143 215 7 143 216 7 142 217 7 142 218 7 141 219 7 141 220 7 140 221 7 140 222 7 139 223 7 139 224 7 138 225 7 138 226 7 137 227 7 137 228 7 136 229 7 136 230 7 135 231 7 135 232 7 134 233 7 134 234 7 133 235 7 133 236 7 132 237 7 132 238 7 131 239 7 131 240 7 130 241 7 130 242 7 129 243 7 129 244 7 128 245 7 128 246 7 127 247 7 127 248 7 127 249 7 126 250 7 126 251 7 125 252 7 125 253 7 124 254 7 124 
0 8 250 0 8 250 1 8 249 2 8 249 3 8 248 4 8 248 5 8 247 6 8 247 7 8 246 8 8 246 9 8 245 10 8 245 11 8 244 12 8 244 13 8 243 14 8 243 15 8 242 16 8 242 17 8 241 18 8 241 19 8 240 20 8 240 21 8 239 22 8 239 23 8 238 24 8 238 25 8 237 26 8 237 27 8 236 28 8 236 29 8 235 30 8 235 31 8 234 32 8 234 33 8 233 34 8 233 35 8 232 36 8 232 37 8 231 38 8 231 39 8 230 40 8 230 41 8 229 42 8 229 43 8 228 44 8 228 45 8 227 46 8 227 47 8 226 48 8 226 49 8 225 50 8 225 51 8 224 52 8 224 53 8 223 54 8 223 55 8 222 56 8 222 57 8 221 58 8 221 59 8 220 60 8 220 61 8 219 62 8 219 63 8 218 64 8 218 65 8 217 66 8 217 67 8 216 68 8 216 69 8 215 70 8 215 71 8 214 72 8 214 73 8 213 74 8 213 75 8 212 76 8 212 77 8 211 78 8 211 79 8 210 80 8 210 81 8 209 82 8 209 83 8 208 84 8 208 85 8 207 86 8 207 87 8 206 88 8 206 89 8 205 90 8 205 91 8 204 92 8 204 93 8 203 94 8 203 95 8 202 96 8 202 97 8 201 98 8 201 99 8 200 100 8 200 101 8 199 102 8 199 103 8 198 104 8 198 105 8 197 106 8 197 107 8 196 108 8 196 109 8 195 110 8 195 111 8 194 112 8 194 113 8 193 114 8 193 115 8 192 116 8 192 117 8 191 118 8 191 119 8 190 120 8 190 121 8 189 122 8 189 123 8 188 124 8 188 125 8 187 126 8 187 127 8 186 128 8 186 129 8 185 130 8 185 131 8 184 132 8 184 133 8 183 134 8 183 135 8 182 136 8 182 137 8 181 138 8 181 139 8 180 140 8 180 141 8 179 142 8 179 143 8 178 144 8 178 145 8 177 146 8 177 147 8 176 148 8 176 149 8 175 150 8 175 151 8 174 152 8 174 153 8 173 154 8 173 155 8 172 156 8 172 157 8 171 158 8 171 159 8 170 160 8 170 161 8 169 162 8 169 163 8 168 164 8 168 165 8 167 166 8 167 167 8 166 168 8 166 169 8 165 170 8 165 171 8 164 172 8 164 173 8 163 174 8 163 175 8 162 176 8 162 177 8 161 178 8 161 179 8 160 180 8 160 181 8 159 182 8 159 183 8 158 184 8 158 185 8 157 186 8 157 187 8 156 188 8 156 189 8 155 190 8 155 191 8 154 192 8 154 193 8 153 194 8 153 195 8 152 196 8 152 197 8 151 198 8 151 199 8 150 200 8 150 201 8 149 202 8 149 203 8 148 204 8 148 205 8 147 206 8 147 207 8 146 208 8 146 209 8 145 210 8 145 211 8 144 212 8 144 213 8 143 214 8 143 215 8 142 216 8 142 217 8 141 218 8 141 219 8 140 220 8 140 221 8 139 222 8 139 223 8 138 224 8 138 225 8 137 226 8 137 227 8 136 228 8 136 229 8 135 230 8 135 231 8 134 232 8 134 233 8 133 234 8 133 235 8 132 236 8 132 237 8 131 238 8 131 239 8 130 240 8 130 241 8 129 242 8 129 243 8 128 244 8 128 245 8 127 246 8 127 247 8 127 248 8 126 249 8 126 250 8 125 251 8 125 252 8 124 253 8 124 254 8 123 
0 9 250 0 9 249 1 9 249 2 9 248 3 9 248 4 9 247 5 9 247 6 9 246 7 9 246 8 9 245 9 9 245 10 9 244 11 9 244 12 9 243 13 9 243 14 9 242 15 9 242 16 9 241 17 9 241 18 9 240 19 9 240 20 9 239 21 9 239 22 9 238 23 9 238 24 9 237 25 9 237 26 9 236 27 9 236 28 9 235 29 9 235 30 9 234 31 9 234 32 9 233 33 9 233 34 9 232 35 9 232 36 9 231 37 9 231 38 9 230 39 9 230 40 9 229 41 9 229 42 9 228 43 9 228 44 9 227 45 9 227 46 9 226 47 9 226 48 9 225 49 9 225 50 9 224 51 9 224 52 9 223 53 9 223 54 9 222 55 9 222 56 9 221 57 9 221 58 9 220 59 9 220 60 9 219 61 9 219 62 9 218 63 9 218 64 9 217 65 9 217 66 9 216 67 9 216 68 9 215 69 9 215 70 9 214 71 9 214 72 9 213 73 9 213 74 9 212 75 9 212 76 9 211 77 9 211 78 9 210 79 9 210 80 9 209 81 9 209 82 9 208 83 9 208 84 9 207 85 9 207 86 9 206 87 9 206 88 9 205 89 9 205 90 9 204 91 9 204 92 9 203 93 9 203 94 9 202 95 9 202 96 9 201 97 9 201 98 9 200 99 9 200 100 9 199 101 9 199 102 9 198 103 9 198 104 9 197 105 9 197 106 9 196 107 9 196 108 9 195 109 9 195 110 9 194 111 9 194 112 9 193 113 9 193 114 9 192 115 9 192 116 9 191 117 9 191 118 9 190 119 9 190 120 9 189 121 9 189 122 9 188 123 9 188 124 9 187 125 9 187 126 9 186 127 9 186 128 9 185 129 9 185 130 9 184 131 9 184 132 9 183 133 9 183 134 9 182 135 9 182 136 9 181 137 9 181 138 9 180 139 9 180 140 9 179 141 9 179 142 9 178 143 9 178 144 9 177 145 9 177 146 9 176 147 9 176 148 9 175 149 9 175 150 9 174 151 9 174 152 9 173 153 9 173 154 9 172 155 9 172 156 9 171 157 9 171 158 9 170 159 9 170 160 9 169 161 9 169 162 9 168 163 9 168 164 9 167 165 9 167 166 9 166 167 9 166 168 9 165 169 9 165 170 9 164 171 9 164 172 9 163 173 9 163 174 9 162 175 9 162 176 9 161 177 9 161 178 9 160 179 9 160 180 9 159 181 9 159 182 9 158 183 9 158 184 9 157 185 9 157 186 9 156 187 9 156 188 9 155 189 9 155 190 9 154 191 9 154 192 9 153 193 9 153 194 9 152 195 9 152 196 9 151 197 9 151 198 9 150 199 9 150 200 9 149 201 9 149 202 9 148 203 9 148 204 9 147 205 9 147 206 9 146 207 9 146 208 9 145 209 9 145 210 9 144 211 9 144 212 9 143 213 9 143 214 9 142 215 9 142 216 9 141 217 9 141 218 9 140 219 9 140 220 9 139 221 9 139 222 9 138 223 9 138 224 9 137 225 9 137 226 9 136 227 9 136 228 9 135 229 9 135 230 9 134 231 9 134 232 9 133 233 9 133 234 9 132 235 9 132 236 9 131 237 9 131 238 9 130 239 9 130 240 9 129 241 9 129 242 9 128 243 9 128 244 9 127 245 9 127 246 9 127 247 9 126 248 9 126 249 9 125 250 9 125 251 9 124 252 9 124 253 9 123 254 9 123 
0 10 249 0 10 249 1 10 248 2 10 248 3 10 247 4 10 247 5 10 246 6 10 246 7 10 245 8 10 245 9 10 244 10 10 244 11 10 243 12 10 243 13 10 242 14 10 242 15 10 241 16 10 241 17 10 240 18 10 240 19 10 239 20 10 239 21 10 238 22 10 238 23 10 237 24 10 237 25 10 236 26 10 236 27 10 235 28 10 235 29 10 234 30 10 234 31 10 233 32 10 233 33 10 232 34 10 232 35 10 231 36 10 231 37 10 230 38 10 230 39 10 229 40 10 229 41 10 228 42 10 228 43 10 227 44 10 227 45 10 226 46 10 226 47 10 225 48 10 225 49 10 224 50 10 224 51 10 223 52 10 223 53 10 222 54 10 222 55 10 221 56 10 221 57 10 220 58 10 220 59 10 219 60 10 219 61 10 218 62 10 218 63 10 217 64 10 217 65 10 216 66 10 216 67 10 215 68 10 215 69 10 214 70 10 214 71 10 213 72 10 213 73 10 212 74 10 212 75 10 211 76 10 211 77 10 210 78 10 210 79 10 209 80 10 209 81 10 208 82 10 208 83 10 207 84 10 207 85 10 206 86 10 206 87 10 205 88 10 205 89 10 204 90 10 204 91 10 203 92 10 203 93 10 202 94 10 202 95 10 201 96 10 201 97 10 200 98 10 200 99 10 199 100 10 199 101 10 198 102 10 198 103 10 197 104 10 197 105 10 196 106 10 196 107 10 195 108 10 195 109 10 194 110 10 194 111 10 193 112 10 193 113 10 192 114 10 192 115 10 191 116 10 191 117 10 190 118 10 190 119 10 189 120 10 189 121 10 188 122 10 188 123 10 187 124 10 187 125 10 186 126 10 186 127 10 185 128 10 185 129 10 184 130 10 184 131 10 183 132 10 183 133 10 182 134 10 182 135 10 181 136 10 181 137 10 180 138 10 180 139 10 179 140 10 179 141 10 178 142 10 178 143 10 177 144 10 177 145 10 176 146 10 176 147 10 175 148 10 175 149 10 174 150 10 174 151 10 173 152 10 173 153 10 172 154 10 172 155 10 171 156 10 171 157 10 170 158 10 170 159 10 169 160 10 169 161 10 168 162 10 168 163 10 167 164 10 167 165 10 166 166 10 166 167 10 165 168 10 165 169 10 164 170 10 164 171 10 163 172 10 163 173 10 162 174 10 162 175 10 161 176 10 161 177 10 160 178 10 160 179 10 159 180 10 159 181 10 158 182 10 158 183 10 157 184 10 157 185 10 156 186 10 156 187 10 155 188 10 155 189 10 154 190 10 154 191 10 153 192 10 153 193 10 152 194 10 152 195 10 151 196 10 151 197 10 150 198 10 150 199 10 149 200 10 149 201 10 148 202 10 148 203 10 147 204 10 147 205 10 146 206 10 146 207 10 145 208 10 145 209 10 144 210 10 144 211 10 143 212 10 143 213 10 142 214 10 142 215 10 141 216 10 141 217 10 140 218 10 140 219 10 139 220 10 139 221 10 138 222 10 138 223 10 137 224 10 137 225 10 136 226 10 136 227 10 135 228 10 135 229 10 134 230 10 134 231 10 133 232 10 133 233 10 132 234 10 132 235 10 131 236 10 131 237 10 130 238 10 130 239 10 129 240 10 129 241 10 128 242 10 128 243 10 127 244 10 127 245 10 127 246 10 126 247 10 126 248 10 125 249 10 125 250 10 124 251 10 124 252 10 123 253 10 123 254 10 122 
0 11 249 0 11 248 1 11 248 2 11 247 3 11 247 4 11 246 5 11 246 6 11 245 7 11 245 8 11 244 9 11 244 10 11 243 11 11 243 12 11 242 13 11 242 14 11 241 15 11 241 16 11 240 17 11 240 18 11 239 19 11 239 20 11 238 21 11 238 22 11 237 23 11 237 24 11 236 25 11 236 26 11 235 27 11 235 28 11 234 29 11 234 30 11 233 31 11 233 32 11 232 33 11 232 34 11 231 35 11 231 36 11 230 37 11 230 38 11 229 39 11 229 40 11 228 41 11 228 42 11 227 43 11 227 44 11 226 45 11 226 46 11 225 47 11 225 48 11 224 49 11 224 50 11 223 51 11 223 52 11 222 53 11 222 54 11 221 55 11 221 56 11 220 57 11 220 58 11 219 59 11 219 60 11 218 61 11 218 62 11 217 63 11 217 64 11 216 65 11 216 66 11 215 67 11 215 68 11 214 69 11 214 70 11 213 71 11 213 72 11 212 73 11 212 74 11 211 75 11 211 76 11 210 77 11 210 78 11 209 79 11 209 80 11 208 81 11 208 82 11 207 83 11 207 84 11 206 85 11 206 86 11 205 87 11 205 88 11 204 89 11 204 90 11 203 91 11 203 92 11 202 93 11 202 94 11 201 95 11 201 96 11 200 97 11 200 98 11 199 99 11 199 100 11 198 101 11 198 102 11 197 103 11 197 104 11 196 105 11 196 106 11 195 107 11 195 108 11 194 109 11 194 110 11 193 111 11 193 112 11 192 113 11 192 114 11 191 115 11 191 116 11 190 117 11 190 118 11 189 119 11 189 120 11 188 121 11 188 122 11 187 123 11 187 124 11 186 125 11 186 126 11 185 127 11 185 128 11 184 129 11 184 130 11 183 131 11 183 132 11 182 133 11 182 134 11 181 135 11 181 136 11 180 137 11 180 138 11 179 139 11 179 140 11 178 141 11 178 142 11 177 143 11 177 144 11 176 145 11 176 146 11 175 147 11 175 148 11 174 149 11 174 150 11 173 151 11 173 152 11 172 153 11 172 154 11 171 155 11 171 156 11 170 157 11 170 158 11 169 159 11 169 160 11 168 161 11 168 162 11 167 163 11 167 164 11 166 165 11 166 166 11 165 167 11 165 168 11 164 169 11 164 170 11 163 171 11 163 172 11 162 173 11 162 174 11 161 175 11 161 176 11 160 177 11 160 178 11 159 179 11 159 180 11 158 181 11 158 182 11 157 183 11 157 184 11 156 185 11 156 186 11 155 187 11 155 188 11 154 189 11 154 190 11 153 191 11 153 192 11 152 193 11 152 194 11 151 195 11 151 196 11 150 197 11 150 198 11 149 199 11 149 200 11 148 201 11 148 202 11 147 203 11 147 204 11 146 205 11 146 206 11 145 207 11 145 208 11 144 209 11 144 210 11 143 211 11 143 212 11 142 213 11 142 214 11 141 215 11 141 216 11 140 217 11 140 218 11 139 219 11 139 220 11 138 221 11 138 222 11 137 223 11 137 224 11 136 225 11 136 226 11 135 227 11 135 228 11 134 229 11 134 230 11 133 231 11 133 232 11 132 233 11 132 234 11 131 235 11 131 236 11 130 237 11 130 238 11 129 239 11 129 240 11 128 241 11 128 242 11 127 243 11 127 244 11 127 245 11 126 246 11 126 247 11 125 248 11 125 249 11 124 250 11 124 251 11 123 252 11 123 253 11 122 254 11 122 
0 12 248 0 12 248 1 12 247 2 12 247 3 12 246 4 12 246 5 12 245 6 12 245 7 12 244 8 12 244 9 12 243 10 12 243 11 12 242 12 12 242 13 12 241 14 12 241 15 12 240 16 12 240 17 12 239 18 12 239 19 12 238 20 12 238 21 12 237 22 12 237 23 12 236 24 12 236 25 12 235 26 12 235 27 12 234 28 12 234 29 12 233 30 12 233 31 12 232 32 12 232 33 12 231 34 12 231 35 12 230 36 12 230 37 12 229 38 12 229 39 12 228 40 12 228 41 12 227 42 12 227 43 12 226 44 12 226 45 12 225 46 12 225 47 12 224 48 12 224 49 12 223 50 12 223 51 12 222 52 12 222 53 12 221 54 12 221 55 12 220 56 12 220 57 12 219 58 12 219 59 12 218 60 12 218 61 12 217 62 12 217 63 12 216 64 12 216 65 12 215 66 12 215 67 12 214 68 12 214 69 12 213 70 12 213 71 12 212 72 12 212 73 12 211 74 12 211 75 12 210 76 12 210 77 12 209 78 12 209 79 12 208 80 12 208 81 12 207 82 12 207 83 12 206 84 12 206 85 12 205 86 12 205 87 12 204 88 12 204 89 12 203 90 12 203 91 12 202 92 12 202 93 12 201 94 12 201 95 12 200 96 12 200 97 12 199 98 12 199 99 12 198 100 12 198 101 12 197 102 12 197 103 12 196 104 12 196 105 12 195 106 12 195 107 12 194 108 12 194 109 12 193 110 12 193 111 12 192 112 12 192 113 12 191 114 12 191 115 12 190 116 12 190 117 12 189 118 12 189 119 12 188 120 12 188 121 12 187 122 12 187 123 12 186 124 12 186 125 12 185 126 12 185 127 12 184 128 12 184 129 12 183 130 12 183 131 12 182 132 12 182 133 12 181 134 12 181 135 12 180 136 12 180 137 12 179 138 12 179 139 12 178 140 12 178 141 12 177 142 12 177 143 12 176 144 12 176 145 12 175 146 12 175 147 12 174 148 12 174 149 12 173 150 12 173 151 12 172 152 12 172 153 12 171 154 12 171 155 12 170 156 12 170 157 12 169 158 12 169 159 12 168 160 12 168 161 12 167 162 12 167 163 12 166 164 12 166 165 12 165 166 12 165 167 12 164 168 12 164 169 12 163 170 12 163 171 12 162 172 12 162 173 12 161 174 12 161 175 12 160 176 12 160 177 12 159 178 12 159 179 12 158 180 12 158 181 12 157 182 12 157 183 12 156 184 12 156 185 12 155 186 12 155 187 12 154 188 12 154 189 12 153 190 12 153 191 12 152 192 12 152 193 12 151 194 12 151 195 12 150 196 12 150 197 12 149 198 12 149 199 12 148 200 12 148 201 12 147 202 12 147 203 12 146 204 12 146 205 12 145 206 12 145 207 12 144 208 12 144 209 12 143 210 12 143 211 12 142 212 12 142 213 12 141 214 12 141 215 12 140 216 12 140 217 12 139 218 12 139 219 12 138 220 12 138 221 12 137 222 12 137 223 12 136 224 12 136 225 12 135 226 12 135 227 12 134 228 12 134 229 12 133 230 12 133 231 12 132 232 12 132 233 12 131 234 12 131 235 12 130 236 12 130 237 12 129 238 12 129 239 12 128 240 12 128 241 12 127 242 12 127 243 12 127 244 12 126 245 12 126 246 12 125 247 12 125 248 12 124 249 12 124 250 12 123 251 12 123 252 12 122 253 12 122 254 12 121 
0 13 248 0 13 247 1 13 247 2 13 246 3 13 246 4 13 245 5 13 245 6 13 244 7 13 244 8 13 243 9 13 243 10 13 242 11 13 242 12 13 241 13 13 241 14 13 240 15 13 240 16 13 239 17 13 239 18 13 238 19 13 238 20 13 237 21 13 237 22 13 236 23 13 236 24 13 235 25 13 235 26 13 234 27 13 234 28 13 233 29 13 233 30 13 232 31 13 232 32 13 231 33 13 231 34 13 230 35 13 230 36 13 229 37 13 229 38 13 228 39 13 228 40 13 227 41 13 227 42 13 226 43 13 226 44 13 225 45 13 225 46 13 224 47 13 224 48 13 223 49 13 223 50 13 222 51 13 222 52 13 221 53 13 221 54 13 220 55 13 220 56 13 219 57 13 219 58 13 218 59 13 218 60 13 217 61 13 217 62 13 216 63 13 216 64 13 215 65 13 215 66 13 214 67 13 214 68 13 213 69 13 213 70 13 212 71 13 212 72 13 211 73 13 211 74 13 210 75 13 210 76 13 209 77 13 209 78 13 208 79 13 208 80 13 207 81 13 207 82 13 206 83 13 206 84 13 205 85 13 205 86 13 204 87 13 204 88 13 203 89 13 203 90 13 202 91 13 202 92 13 201 93 13 201 94 13 200 95 13 200 96 13 199 97 13 199 98 13 198 99 13 198 100 13 197 101 13 197 102 13 196 103 13 196 104 13 195 105 13 195 106 13 194 107 13 194 108 13 193 109 13 193 110 13 192 111 13 192 112 13 191 113 13 191 114 13 190 115 13 190 116 13 189 117 13 189 118 13 188 119 13 188 120 13 187 121 13 187 122 13 186 123 13 186 124 13 185 125 13 185 126 13 184 127 13 184 128 13 183 129 13 183 130 13 182 131 13 182 132 13 181 133 13 181 134 13 180 135 13 180 136 13 179 137 13 179 138 13 178 139 13 178 140 13 177 141 13 177 142 13 176 143 13 176 144 13 175 145 13 175 146 13 174 147 13 174 148 13 173 149 13 173 150 13 172 151 13 172 152 13 171 153 13 171 154 13 170 155 13 170 156 13 169 157 13 169 158 13 168 159 13 168 160 13 167 161 13 167 162 13 166 163 13 166 164 13 165 165 13 165 166 13 164 167 13 164 168 13 163 169 13 163 170 13 162 171 13 162 172 13 161 173 13 161 174 13 160 175 13 160 176 13 159 177 13 159 178 13 158 179 13 158 180 13 157 181 13 157 182 13 156 183 13 156 184 13 155 185 13 155 186 13 154 187 13 154 188 13 153 189 13 153 190 13 152 191 13 152 192 13 151 193 13 151 194 13 150 195 13 150 196 13 149 197 13 149 198 13 148 199 13 148 200 13 147 201 13 147 202 13 146 203 13 146 204 13 145 205 13 145 206 13 144 207 13 144 208 13 143 209 13 143 210 13 142 211 13 142 212 13 141 213 13 141 214 13 140 215 13 140 216 13 139 217 13 139 218 13 138 219 13 138 220 13 137 221 13 137 222 13 136 223 13 136 224 13 135 225 13 135 226 13 134 227 13 134 228 13 133 229 13 133 230 13 132 231 13 132 232 13 131 233 13 131 234 13 130 235 13 130 236 13 129 237 13 129 238 13 128 239 13 128 240 13 127 241 13 127 242 13 127 243 13 126 244 13 126 245 13 125 246 13 125 247 13 124 248 13 124 249 13 123 250 13 123 251 13 122 252 13 122 253 13 121 254 13 121 
0 14 247 0 14 247 1 14 246 2 14 246 3 14 245 4 14 245 5 14 244 6 14 244 7 14 243 8 14 243 9 14 242 10 14 242 11 14 241 12 14 241 13 14 240 14 14 240 15 14 239 16 14 239 17 14 238 18 14 238 19 14 237 20 14 237 21 14 236 22 14 236 23 14 235 24 14 235 25 14 234 26 14 234 27 14 233 28 14 233 29 14 232 30 14 232 31 14 231 32 14 231 33 14 230 34 14 230 35 14 229 36 14 229 37 14 228 38 14 228 39 14 227 40 14 227 41 14 226 42 14 226 43 14 225 44 14 225 45 14 224 46 14 224 47 14 223 48 14 223 49 14 222 50 14 222 51 14 221 52 14 221 53 14 220 54 14 220 55 14 219 56 14 219 57 14 218 58 14 218 59 14 217 60 14 217 61 14 216 62 14 216 63 14 215 64 14 215 65 14 214 66 14 214 67 14 213 68 14 213 69 14 212 70 14 212 71 14 211 72 14 211 73 14 210 74 14 210 75 14 209 76 14 209 77 14 208 78 14 208 79 14 207 80 14 207 81 14 206 82 14 206 83 14 205 84 14 205 85 14 204 86 14 204 87 14 203 88 14 203 89 14 202 90 14 202 91 14 201 92 14 201 93 14 200 94 14 200 95 14 199 96 14 199 97 14 198 98 14 198 99 14 197 100 14 197 101 14 196 102 14 196 103 14 195 104 14 195 105 14 194 106 14 194 107 14 193 108 14 193 109 14 192 110 14 192 111 14 191 112 14 191 113 14 190 114 14 190 115 14 189 116 14 189 117 14 188 118 14 188 119 14 187 120 14 187 121 14 186 122 14 186 123 14 185 124 14 185 125 14 184 126 14 184 127 14 183 128 14 183 129 14 182 130 14 182 131 14 181 132 14 181 133 14 180 134 14 180 135 14 179 136 14 179 137 14 178 138 14 178 139 14 177 140 14 177 141 14 176 142 14 176 143 14 175 144 14 175 145 14 174 146 14 174 147 14 173 148 14 173 149 14 172 150 14 172 151 14 171 152 14 171 153 14 170 154 14 170 155 14 169 156 14 169 157 14 168 158 14 168 159 14 167 160 14 167 161 14 166 162 14 166 163 14 165 164 14 165 165 14 164 166 14 164 167 14 163 168 14 163 169 14 162 170 14 162 171 14 161 172 14 161 173 14 160 174 14 160 175 14 159 176 14 159 177 14 158 178 14 158 179 14 157 180 14 157 181 14 156 182 14 156 183 14 155 184 14 155 185 14 154 186 14 154 187 14 153 188 14 153 189 14 152 190 14 152 191 14 151 192 14 151 193 14 150 194 14 150 195 14 149 196 14 149 197 14 148 198 14 148 199 14 147 200 14 147 201 14 146 202 14 146 203 14 145 204 14 145 205 14 144 206 14 144 207 14 143 208 14 143 209 14 142 210 14 142 211 14 141 212 14 141 213 14 140 214 14 140 215 14 139 216 14 139 217 14 138 218 14 138 219 14 137 220 14 137 221 14 136 222 14 136 223 14 135 224 14 135 225 14 134 226 14 134 227 14 133 228 14 133 229 14 132 230 14 132 231 14 131 232 14 131 233 14 130 234 14 130 235 14 129 236 14 129 237 14 128 238 14 128 239 14 127 240 14 127 241 14 127 242 14 126 243 14 126 244 14 125 245 14 125 246 14 124 247 14 124 248 14 123 249 14 123 250 14 122 251 14 122 252 14 121 253 14 121 254 14 120 
0 15 247 0 15 246 1 15 246 2 15 245 3 15 245 4 15 244 5 15 244 6 15 243 7 15 243 8 15 242 9 15 242 10 15 241 11 15 241 12 15 240 13 15 240 14 15 239 15 15 239 16 15 238 17 15 238 18 15 237 19 15 237 20 15 236 21 15 236 22 15 235 23 15 235 24 15 234 25 15 234 26 15 233 27 15 233 28 15 232 29 15 232 30 15 231 31 15 231 32 15 230 33 15 230 34 15 229 35 15 229 36 15 228 37 15 228 38 15 227 39 15 227 40 15 226 41 15 226 42 15 225 43 15 225 44 15 224 45 15 224 46 15 223 47 15 223 48 15 222 49 15 222 50 15 221 51 15 221 52 15 220 53 15 220 54 15 219 55 15 219 56 15 218 57 15 218 58 15 217 59 15 217 60 15 216 61 15 216 62 15 215 63 15 215 64 15 214 65 15 214 66 15 213 67 15 213 68 15 212 69 15 212 70 15 211 71 15 211 72 15 210 73 15 210 74 15 209 75 15 209 76 15 208 77 15 208 78 15 207 79 15 207 80 15 206 81 15 206 82 15 205 83 15 205 84 15 204 85 15 204 86 15 203 87 15 203 88 15 202 89 15 202 90 15 201 91 15 201 92 15 200 93 15 200 94 15 199 95 15 199 96 15 198 97 15 198 98 15 197 99 15 197 100 15 196 101 15 196 102 15 195 103 15 195 104 15 194 105 15 194 106 15 193 107 15 193 108 15 192 109 15 192 110 15 191 111 15 191 112 15 190 113 15 190 114 15 189 115 15 189 116 15 188 117 15 188 118 15 187 119 15 187 120 15 186 121 15 186 122 15 185 123 15 185 124 15 184 125 15 184 126 15 183 127 15 183 128 15 182 129 15 182 130 15 181 131 15 181 132 15 180 133 15 180 134 15 179 135 15 179 136 15 178 137 15 178 138 15 177 139 15 177 140 15 176 141 15 176 142 15 175 143 15 175 144 15 174 145 15 174 146 15 173 147 15 173 148 15 172 149 15 172 150 15 171 151 15 171 152 15 170 153 15 170 154 15 169 155 15 169 156 15 168 157 15 168 158 15 167 159 15 167 160 15 166 161 15 166 162 15 165 163 15 165 164 15 164 165 15 164 166 15 163 167 15 163 168 15 162 169 15 162 170 15 161 171 15 161 172 15 160 173 15 160 174 15 159 175 15 159 176 15 158 177 15 158 178 15 157 179 15 157 180 15 156 181 15 156 182 15 155 183 15 155 184 15 154 185 15 154 186 15 153 187 15 153 188 15 152 189 15 152 190 15 151 191 15 151 192 15 150 193 15 150 194 15 149 195 15 149 196 15 148 197 15 148 198 15 147 199 15 147 200 15 146 201 15 146 202 15 145 203 15 145 204 15 144 205 15 144 206 15 143 207 15 143 208 15 142 209 15 142 210 15 141 211 15 141 212 15 140 213 15 140 214 15 139 215 15 139 216 15 138 217 15 138 218 15 137 219 15 137 220 15 136 221 15 136 222 15 135 223 15 135 224 15 134 225 15 134 226 15 133 227 15 133 228 15 132 229 15 132 230 15 131 231 15 131 232 15 130 233 15 130 234 15 129 235 15 129 236 15 128 237 15 128 238 15 127 239 15 127 240 15 127 241 15 126 242 15 126 243 15 125 244 15 125 245 15 124 246 15 124 247 15 123 248 15 123 249 15 122 250 15 122 251 15 121 252 15 121 253 15 120 254 15 120 
0 16 246 0 16 246 1 16 245 2 16 245 3 16 244 4 16 244 5 16 243 6 16 243 7 16 242 8 16 242 9 16 241 10 16 241 11 16 240 12 16 240 13 16 239 14 16 239 15 16 238 16 16 238 17 16 237 18 16 237 19 16 236 20 16 236 21 16 235 22 16 235 23 16 234 24 16 234 25 16 233 26 16 233 27 16 232 28 16 232 29 16 231 30 16 231 31 16 230 32 16 230 33 16 229 34 16 229 35 16 228 36 16 228 37 16 227 38 16 227 39 16 226 40 16 226 41 16 225 42 16 225 43 16 224 44 16 224 45 16 223 46 16 223 47 16 222 48 16 222 49 16 221 50 16 221 51 16 220 52 16 220 53 16 219 54 16 219 55 16 218 56 16 218 57 16 217 58 16 217 59 16 216 60 16 216 61 16 215 62 16 215 63 16 214 64 16 214 65 16 213 66 16 213 67 16 212 68 16 212 69 16 211 70 16 211 71 16 210 72 16 210 73 16 209 74 16 209 75 16 208 76 16 208 77 16 207 78 16 207 79 16 206 80 16 206 81 16 205 82 16 205 83 16 204 84 16 204 85 16 203 86 16 203 87 16 202 88 16 202 89 16 201 90 16 201 91 16 200 92 16 200 93 16 199 94 16 199 95 16 198 96 16 198 97 16 197 98 16 197 99 16 196 100 16 196 101 16 195 102 16 195 103 16 194 104 16 194 105 16 193 106 16 193 107 16 192 108 16 192 109 16 191 110 16 191 111 16 190 112 16 190 113 16 189 114 16 189 115 16 188 116 16 188 117 16 187 118 16 187 119 16 186 120 16 186 121 16 185 122 16 185 123 16 184 124 16 184 125 16 183 126 16 183 127 16 182 128 16 182 129 16 181 130 16 181 131 16 180 132 16 180 133 16 179 134 16 179 135 16 178 136 16 178 137 16 177 138 16 177 139 16 176 140 16 176 141 16 175 142 16 175 143 16 174 144 16 174 145 16 173 146 16 173 147 16 172 148 16 172 149 16 171 150 16 171 151 16 170 152 16 170 153 16 169 154 16 169 155 16 168 156 16 168 157 16 167 158 16 167 159 16 166 160 16 166 161 16 165 162 16 165 163 16 164 164 16 164 165 16 163 166 16 163 167 16 162 168 16 162 169 16 161 170 16 161 171 16 160 172 16 160 173 16 159 174 16 159 175 16 158 176 16 158 177 16 157 178 16 157 179 16 156 180 16 156 181 16 155 182 16 155 183 16 154 184 16 154 185 16 153 186 16 153 187 16 152 188 16 152 189 16 151 190 16 151 191 16 150 192 16 150 193 16 149 194 16 149 195 16 148 196 16 148 197 16 147 198 16 147 199 16 146 200 16 146 201 16 145 202 16 145 203 16 144 204 16 144 205 16 143 206 16 143 207 16 142 208 16 142 209 16 141 210 16 141 211 16 140 212 16 140 213 16 139 214 16 139 215 16 138 216 16 138 217 16 137 218 16 137 219 16 136 220 16 136 221 16 135 222 16 135 223 16 134 224 16 134 225 16 133 226 16 133 227 16 132 228 16 132 229 16 131 230 16 131 231 16 130 232 16 130 233 16 129 234 16 129 235 16 128 236 16 128 237 16 127 238 16 127 239 16 127 240 16 126 241 16 126 242 16 125 243 16 125 244 16 124 245 16 124 246 16 123 247 16 123 248 16 122 249 16 122 250 16 121 251 16 121 252 16 120 253 16 120 254 16 119 
0 17 246 0 17 245 1 17 245 2 17 244 3 17 244 4 17 243 5 17 243 6 17 242 7 17 242 8 17 241 9 17 241 10 17 240 11 17 240 12 17 239 13 17 239 14 17 238 15 17 238 16 17 237 17 17 237 18 17 236 19 17 236 20 17 235 21 17 235 22 17 234 23 17 234 24 17 233 25 17 233 26 17 232 27 17 232 28 17 231 29 17 231 30 17 230 31 17 230 32 17 229 33 17 229 34 17 228 35 17 228 36 17 227 37 17 227 38 17 226 39 17 226 40 17 225 41 17 225 42 17 224 43 17 224 44 17 223 45 17 223 46 17 222 47 17 222 48 17 221 49 17 221 50 17 220 51 17 220 52 17 219 53 17 219 54 17 218 55 17 218 56 17 217 57 17 217 58 17 216 59 17 216 60 17 215 61 17 215 62 17 214 63 17 214 64 17 213 65 17 213 66 17 212 67 17 212 68 17 211 69 17 211 70 17 210 71 17 210 72 17 209 73 17 209 74 17 208 75 17 208 76 17 207 77 17 207 78 17 206 79 17 206 80 17 205 81 17 205 82 17 204 83 17 204 84 17 203 85 17 203 86 17 202 87 17 202 88 17 201 89 17 201 90 17 200 91 17 200 92 17 199 93 17 199 94 17 198 95 17 198 96 17 197 97 17 197 98 17 196 99 17 196 100 17 195 101 17 195 102 17 194 103 17 194 104 17 193 105 17 193 106 17 192 107 17 192 108 17 191 109 17 191 110 17 190 111 17 190 112 17 189 113 17 189 114 17 188 115 17 188 116 17 187 117 17 187 118 17 186 119 17 186 120 17 185 121 17 185 122 17 184 123 17 184 124 17 183 125 17 183 126 17 182 127 17 182 128 17 181 129 17 181 130 17 180 131 17 180 132 17 179 133 17 179 134 17 178 135 17 178 136 17 177 137 17 177 138 17 176 139 17 176 140 17 175 141 17 175 142 17 174 143 17 174 144 17 173 145 17 173 146 17 172 147 17 172 148 17 171 149 17 171 150 17 170 151 17 170 152 17 169 153 17 169 154 17 168 155 17 168 156 17 167 157 17 167 158 17 166 159 17 166 160 17 165 161 17 165 162 17 164 163 17 164 164 17 163 165 17 163 166 17 162 167 17 162 168 17 161 169 17 161 170 17 160 171 17 160 172 17 159 173 17 159 174 17 158 175 17 158 176 17 157 177 17 157 178 17 156 179 17 156 180 17 155 181 17 155 182 17 154 183 17 154 184 17 153 185 17 153 186 17 152 187 17 152 188 17 151 189 17 151 190 17 150 191 17 150 192 17 149 193 17 149 194 17 148 195 17 148 196 17 147 197 17 147 198 17 146 199 17 146 200 17 145 201 17 145 202 17 144 203 17 144 204 17 143 205 17 143 206 17 142 207 17 142 208 17 141 209 17 141 210 17 140 211 17 140 212 17 139 213 17 139 214 17 138 215 17 138 216 17 137 217 17 137 218 17 136 219 17 136 220 17 135 221 17 135 222 17 134 223 17 134 224 17 133 225 17 133 226 17 132 227 17 132 228 17 131 229 17 131 230 17 130 231 17 130 232 17 129 233 17 129 234 17 128 235 17 128 236 17 127 237 17 127 238 17 127 239 17 126 240 17 126 241 17 125 242 17 125 243 17 124 244 17 124 245 17 123 246 17 123 247 17 122 248 17 122 249 17 121 250 17 121 251 17 120 252 17 120 253 17 119 254 17 119 
0 18 245 0 18 245 1 18 244 2 18 244 3 18 243 4 18 243 5 18 242 6 18 242 7 18 241 8 18 241 9 18 240 10 18 240 11 18 239 12 18 239 13 18 238 14 18 238 15 18 237 16 18 237 17 18 236 18 18 236 19 18 235 20 18 235 21 18 234 22 18 234 23 18 233 24 18 233 25 18 232 26 18 232 27 18 231 28 18 231 29 18 230 30 18 230 31 18 229 32 18 229 33 18 228 34 18 228 35 18 227 36 18 227 37 18 226 38 18 226 39 18 225 40 18 225 41 18 224 42 18 224 43 18 223 44 18 223 45 18 222 46 18 222 47 18 221 48 18 221 49 18 220 50 18 220 51 18 219 52 18 219 53 18 218 54 18 218 55 18 217 56 18 217 57 18 216 58 18 216 59 18 215 60 18 215 61 18 214 62 18 214 63 18 213 64 18 213 65 18 212 66 18 212 67 18 211 68 18 211 69 18 210 70 18 210 71 18 209 72 18 209 73 18 208 74 18 208 75 18 207 76 18 207 77 18 206 78 18 206 79 18 205 80 18 205 81 18 204 82 18 204 83 18 203 84 18 203 85 18 202 86 18 202 87 18 201 88 18 201 89 18 200 90 18 200 91 18 199 92 18 199 93 18 198 94 18 198 95 18 197 96 18 197 97 18 196 98 18 196 99 18 195 100 18 195 101 18 194 102 18 194 103 18 193 104 18 193 105 18 192 106 18 192 107 18 191 108 18 191 109 18 190 110 18 190 111 18 189 112 18 189 113 18 188 114 18 188 115 18 187 116 18 187 117 18 186 118 18 186 119 18 185 120 18 185 121 18 184 122 18 184 123 18 183 124 18 183 125 18 182 126 18 182 127 18 181 128 18 181 129 18 180 130 18 180 131 18 179 132 18 179 133 18 178 134 18 178 135 18 177 136 18 177 137 18 176 138 18 176 139 18 175 140 18 175 141 18 174 142 18 174 143 18 173 144 18 173 145 18 172 146 18 172 147 18 171 148 18 171 149 18 170 150 18 170 151 18 169 152 18 169 153 18 168 154 18 168 155 18 167 156 18 167 157 18 166 158 18 166 159 18 165 160 18 165 161 18 164 162 18 164 163 18 163 164 18 163 165 18 162 166 18 162 167 18 161 168 18 161 169 18 160 170 18 160 171 18 159 172 18 159 173 18 158 174 18 158 175 18 157 176 18 157 177 18 156 178 18 156 179 18 155 180 18 155 181 18 154 182 18 154 183 18 153 184 18 153 185 18 152 186 18 152 187 18 151 188 18 151 189 18 150 190 18 150 191 18 149 192 18 149 193 18 148 194 18 148 195 18 147 196 18 147 197 18 146 198 18 146 199 18 145 200 18 145 201 18 144 202 18 144 203 18 143 204 18 143 205 18 142 206 18 142 207 18 141 208 18 141 209 18 140 210 18 140 211 18 139 212 18 139 213 18 138 214 18 138 215 18 137 216 18 137 217 18 136 218 18 136 219 18 135 220 18 135 221 18 134 222 18 134 223 18 133 224 18 133 225 18 132 226 18 132 227 18 131 228 18 131 229 18 130 230 18 130 231 18 129 232 18 129 233 18 128 234 18 128 235 18 127 236 18 127 237 18 127 238 18 126 239 18 126 240 18 125 241 18 125 242 18 124 243 18 124 244 18 123 245 18 123 246 18 122 247 18 122 248 18 121 249 18 121 250 18 120 251 18 120 252 18 119 253 18 119 254 18 118 
0 19 245 0 19 244 1 19 244 2 19 243 3 19 243 4 19 242 5 19 242 6 19 241 7 19 241 8 19 240 9 19 240 10 19 239 11 19 239 12 19 238 13 19 238 14 19 237 15 19 237 16 19 236 17 19 236 18 19 235 19 19 235 20 19 234 21 19 234 22 19 233 23 19 233 24 19 232 25 19 232 26 19 231 27 19 231 28 19 230 29 19 230 30 19 229 31 19 229 32 19 228 33 19 228 34 19 227 35 19 227 36 19 226 37 19 226 38 19 225 39 19 225 40 19 224 41 19 224 42 19 223 43 19 223 44 19 222 45 19 222 46 19 221 47 19 221 48 19 220 49 19 220 50 19 219 51 19 219 52 19 218 53 19 218 54 19 217 55 19 217 56 19 216 57 19 216 58 19 215 59 19 215 60 19 214 61 19 214 62 19 213 63 19 213 64 19 212 65 19 212 66 19 211 67 19 211 68 19 210 69 19 210 70 19 209 71 19 209 72 19 208 73 19 208 74 19 207 75 19 207 76 19 206 77 19 206 78 19 205 79 19 205 80 19 204 81 19 204 82 19 203 83 19 203 84 19 202 85 19 202 86 19 201 87 19 201 88 19 200 89 19 200 90 19 199 91 19 199 92 19 198 93 19 198 94 19 197 95 19 197 96 19 196 97 19 196 98 19 195 99 19 195 100 19 194 101 19 194 102 19 193 103 19 193 104 19 192 105 19 192 106 19 191 107 19 191 108 19 190 109 19 190 110 19 189 111 19 189 112 19 188 113 19 188 114 19 187 115 19 187 116 19 186 117 19 186 118 19 185 119 19 185 120 19 184 121 19 184 122 19 183 123 19 183 124 19 182 125 19 182 126 19 181 127 19 181 128 19 180 129 19 180 130 19 179 131 19 179 132 19 178 133 19 178 134 19 177 135 19 177 136 19 176 137 19 176 138 19 175 139 19 175 140 19 174 141 19 174 142 19 173 143 19 173 144 19 172 145 19 172 146 19 171 147 19 171 148 19 170 149 19 170 150 19 169 151 19 169 152 19 168 153 19 168 154 19 167 155 19 167 156 19 166 157 19 166 158 19 165 159 19 165 160 19 164 161 19 164 162 19 163 163 19 163 164 19 162 165 19 162 166 19 161 167 19 161 168 19 160 169 19 160 170 19 159 171 19 159 172 19 158 173 19 158 174 19 157 175 19 157 176 19 156 177 19 156 178 19 155 179 19 155 180 19 154 181 19 154 182 19 153 183 19 153 184 19 152 185 19 152 186 19 151 187 19 151 188 19 150 189 19 150 190 19 149 191 19 149 192 19 148 193 19 148 194 19 147 195 19 147 196 19 146 197 19 146 198 19 145 199 19 145 200 19 144 201 19 144 202 19 143 203 19 143 204 19 142 205 19 142 206 19 141 207 19 141 208 19 140 209 19 140 210 19 139 211 19 139 212 19 138 213 19 138 214 19 137 215 19 137 216 19 136 217 19 136 218 19 135 219 19 135 220 19 134 221 19 134 222 19 133 223 19 133 224 19 132 225 19 132 226 19 131 227 19 131 228 19 130 229 19 130 230 19 129 231 19 129 232 19 128 233 19 128 234 19 127 235 19 127 236 19 127 237 19 126 238 19 126 239 19 125 240 19 125 241 19 124 242 19 124 243 19 123 244 19 123 245 19 122 246 19 122 247 19 121 248 19 121 249 19 120 250 19 120 251 19 119 252 19 119 253 19 118 254 19 118 
0 20 244 0 20 244 1 20 243 2 20 243 3 20 242 4 20 242 5 20 241 6 20 241 7 20 240 8 20 240 9 20 239 10 20 239 11 20 238 12 20 238 13 20 237 14 20 237 15 20 236 16 20 236 17 20 235 18 20 235 19 20 234 20 20 234 21 20 233 22 20 233 23 20 232 24 20 232 25 20 231 26 20 231 27 20 230 28 20 230 29 20 229 30 20 229 31 20 228 32 20 228 33 20 227 34 20 227 35 20 226 36 20 226 37 20 225 38 20 225 39 20 224 40 20 224 41 20 223 42 20 223 43 20 222 44 20 222 45 20 221 46 20 221 47 20 220 48 20 220 49 20 219 50 20 219 51 20 218 52 20 218 53 20 217 54 20 217 55 20 216 56 20 216 57 20 215 58 20 215 59 20 214 60 20 214 61 20 213 62 20 213 63 20 212 64 20 212 65 20 211 66 20 211 67 20 210 68 20 210 69 20 209 70 20 209 71 20 208 72 20 208 73 20 207 74 20 207 75 20 206 76 20 206 77 20 205 78 20 205 79 20 204 80 20 204 81 20 203 82 20 203 83 20 202 84 20 202 85 20 201 86 20 201 87 20 200 88 20 200 89 20 199 90 20 199 91 20 198 92 20 198 93 20 197 94 20 197 95 20 196 96 20 196 97 20 195 98 20 195 99 20 194 100 20 194 101 20 193 102 20 193 103 20 192 104 20 192 105 20 191 106 20 191 107 20 190 108 20 190 109 20 189 110 20 189 111 20 188 112 20 188 113 20 187 114 20 187 115 20 186 116 20 186 117 20 185 118 20 185 119 20 184 120 20 184 121 20 183 122 20 183 123 20 182 124 20 182 125 20 181 126 20 181 127 20 180 128 20 180 129 20 179 130 20 179 131 20 178 132 20 178 133 20 177 134 20 177 135 20 176 136 20 176 137 20 175 138 20 175 139 20 174 140 20 174 141 20 173 142 20 173 143 20 172 144 20 172 145 20 171 146 20 171 147 20 170 148 20 170 149 20 169 150 20 169 151 20 168 152 20 168 153 20 167 154 20 167 155 20 166 156 20 166 157 20 165 158 20 165 159 20 164 160 20 164 161 20 163 162 20 163 163 20 162 164 20 162 165 20 161 166 20 161 167 20 160 168 20 160 169 20 159 170 20 159 171 20 158 172 20 158 173 20 157 174 20 157 175 20 156 176 20 156 177 20 155 178 20 155 179 20 154 180 20 154 181 20 153 182 20 153 183 20 152 184 20 152 185 20 151 186 20 151 187 20 150 188 20 150 189 20 149 190 20 149 191 20 148 192 20 148 193 20 147 194 20 147 195 20 146 196 20 146 197 20 145 198 20 145 199 20 144 200 20 144 201 20 143 202 20 143 203 20 142 204 20 142 205 20 141 206 20 141 207 20 140 208 20 140 209 20 139 210 20 139 211 20 138 212 20 138 213 20 137 214 20 137 215 20 136 216 20 136 217 20 135 218 20 135 219 20 134 220 20 134 221 20 133 222 20 133 223 20 132 224 20 132 225 20 131 226 20 131 227 20 130 228 20 130 229 20 129 230 20 129 231 20 128 232 20 128 233 20 127 234 20 127 235 20 127 236 20 126 237 20 126 238 20 125 239 20 125 240 20 124 241 20 124 242 20 123 243 20 123 244 20 122 245 20 122 246 20 121 247 20 121 248 20 120 249 20 120 250 20 119 251 20 119 252 20 118 253 20 118 254 20 117 
0 21 244 0 21 243 1 21 243 2 21 242 3 21 242 4 21 241 5 21 241 6 21 240 7 21 240 8 21 239 9 21 239 10 21 238 11 21 238 12 21 237 13 21 237 14 21 236 15 21 236 16 21 235 17 21 235 18 21 234 19 21 234 20 21 233 21 21 233 22 21 232 23 21 232 24 21 231 25 21 231 26 21 230 27 21 230 28 21 229 29 21 229 30 21 228 31 21 228 32 21 227 33 21 227 34 21 226 35 21 226 36 21 225 37 21 225 38 21 224 39 21 224 40 21 223 41 21 223 42 21 222 43 21 222 44 21 221 45 21 221 46 21 220 47 21 220 48 21 219 49 21 219 50 21 218 51 21 218 52 21 217 53 21 217 54 21 216 55 21 216 56 21 215 57 21 215 58 21 214 59 21 214 60 21 213 61 21 213 62 21 212 63 21 212 64 21 211 65 21 211 66 21 210 67 21 210 68 21 209 69 21 209 70 21 208 71 21 208 72 21 207 73 21 207 74 21 206 75 21 206 76 21 205 77 21 205 78 21 204 79 21 204 80 21 203 81 21 203 82 21 202 83 21 202 84 21 201 85 21 201 86 21 200 87 21 200 88 21 199 89 21 199 90 21 198 91 21 198 92 21 197 93 21 197 94 21 196 95 21 196 96 21 195 97 21 195 98 21 194 99 21 194 100 21 193 101 21 193 102 21 192 103 21 192 104 21 191 105 21 191 106 21 190 107 21 190 108 21 189 109 21 189 110 21 188 111 21 188 112 21 187 113 21 187 114 21 186 115 21 186 116 21 185 117 21 185 118 21 184 119 21 184 120 21 183 121 21 183 122 21 182 123 21 182 124 21 181 125 21 181 126 21 180 127 21 180 128 21 179 129 21 179 130 21 178 131 21 178 132 21 177 133 21 177 134 21 176 135 21 176 136 21 175 137 21 175 138 21 174 139 21 174 140 21 173 141 21 173 142 21 172 143 21 172 144 21 171 145 21 171 146 21 170 147 21 170 148 21 169 149 21 169 150 21 168 151 21 168 152 21 167 153 21 167 154 21 166 155 21 166 156 21 165 157 21 165 158 21 164 159 21 164 160 21 163 161 21 163 162 21 162 163 21 162 164 21 161 165 21 161 166 21 160 167 21 160 168 21 159 169 21 159 170 21 158 171 21 158 172 21 157 173 21 157 174 21 156 175 21 156 176 21 155 177 21 155 178 21 154 179 21 154 180 21 153 181 21 153 182 21 152 183 21 152 184 21 151 185 21 151 186 21 150 187 21 150 188 21 149 189 21 149 190 21 148 191 21 148 192 21 147 193 21 147 194 21 146 195 21 146 196 21 145 197 21 145 198 21 144 199 21 144 200 21 143 201 21 143 202 21 142 203 21 142 204 21 141 205 21 141 206 21 140 207 21 140 208 21 139 209 21 139 210 21 138 211 21 138 212 21 137 213 21 137 214 21 136 215 21 136 216 21 135 217 21 135 218 21 134 219 21 134 220 21 133 221 21 133 222 21 132 223 21 132 224 21 131 225 21 131 226 21 130 227 21 130 228 21 129 229 21 129 230 21 128 231 21 128 232 21 127 233 21 127 234 21 127 235 21 126 236 21 126 237 21 125 238 21 125 239 21 124 240 21 124 241 21 123 242 21 123 243 21 122 244 21 122 245 21 121 246 21 121 247 21 120 248 21 120 249 21 119 250 21 119 251 21 118 252 21 118 253 21 117 254 21 117 
0 22 243 0 22 243 1 22 242 2 22 242 3 22 241 4 22 241 5 22 240 6 22 240 7 22 239 8 22 239 9 22 238 10 22 238 11 22 237 12 22 237 13 22 236 14 22 236 15 22 235 16 22 235 17 22 234 18 22 234 19 22 233 20 22 233 21 22 232 22 22 232 23 22 231 24 22 231 25 22 230 26 22 230 27 22 229 28 22 229 29 22 228 30 22 228 31 22 227 32 22 227 33 22 226 34 22 226 35 22 225 36 22 225 37 22 224 38 22 224 39 22 223 40 22 223 41 22 222 42 22 222 43 22 221 44 22 221 45 22 220 46 22 220 47 22 219 48 22 219 49 22 218 50 22 218 51 22 217 52 22 217 53 22 216 54 22 216 55 22 215 56 22 215 57 22 214 58 22 214 59 22 213 60 22 213 61 22 212 62 22 212 63 22 211 64 22 211 65 22 210 66 22 210 67 22 209 68 22 209 69 22 208 70 22 208 71 22 207 72 22 207 73 22 206 74 22 206 75 22 205 76 22 205 77 22 204 78 22 204 79 22 203 80 22 203 81 22 202 82 22 202 83 22 201 84 22 201 85 22 200 86 22 200 87 22 199 88 22 199 89 22 198 90 22 198 91 22 197 92 22 197 93 22 196 94 22 196 95 22 195 96 22 195 97 22 194 98 22 194 99 22 193 100 22 193 101 22 192 102 22 192 103 22 191 104 22 191 105 22 190 106 22 190 107 22 189 108 22 189 109 22 188 110 22 188 111 22 187 112 22 187 113 22 186 114 22 186 115 22 185 116 22 185 117 22 184 118 22 184 119 22 183 120 22 183 121 22 182 122 22 182 123 22 181 124 22 181 125 22 180 126 22 180 127 22 179 128 22 179 129 22 178 130 22 178 131 22 177 132 22 177 133 22 176 134 22 176 135 22 175 136 22 175 137 22 174 138 22 174 139 22 173 140 22 173 141 22 172 142 22 172 143 22 171 144 22 171 145 22 170 146 22 170 147 22 169 148 22 169 149 22 168 150 22 168 151 22 167 152 22 167 153 22 166 154 22 166 155 22 165 156 22 165 157 22 164 158 22 164 159 22 163 160 22 163 161 22 162 162 22 162 163 22 161 164 22 161 165 22 160 166 22 160 167 22 159 168 22 159 169 22 158 170 22 158 171 22 157 172 22 157 173 22 156 174 22 156 175 22 155 176 22 155 177 22 154 178 22 154 179 22 153 180 22 153 181 22 152 182 22 152 183 22 151 184 22 151 185 22 150 186 22 150 187 22 149 188 22 149 189 22 148 190 22 148 191 22 147 192 22 147 193 22 146 194 22 146 195 22 145 196 22 145 197 22 144 198 22 144 199 22 143 200 22 143 201 22 142 202 22 142 203 22 141 204 22 141 205 22 140 206 22 140 207 22 139 208 22 139 209 22 138 210 22 138 211 22 137 212 22 137 213 22 136 214 22 136 215 22 135 216 22 135 217 22 134 218 22 134 219 22 133 220 22 133 221 22 132 222 22 132 223 22 131 224 22 131 225 22 130 226 22 130 227 22 129 228 22 129 229 22 128 230 22 128 231 22 127 232 22 127 233 22 127 234 22 126 235 22 126 236 22 125 237 22 125 238 22 124 239 22 124 240 22 123 241 22 123 242 22 122 243 22 122 244 22 121 245 22 121 246 22 120 247 22 120 248 22 119 249 22 119 250 22 118 251 22 118 252 22 117 253 22 117 254 22 116 
0 23 243 0 23 242 1 23 242 2 23 241 3 23 241 4 23 240 5 23 240 6 23 239 7 23 239 8 23 238 9 23 238 10 23 237 11 23 237 12 23 236 13 23 236 14 23 235 15 23 235 16 23 234 17 23 234 18 23 233 19 23 233 20 23 232 21 23 232 22 23 231 23 23 231 24 23 230 25 23 230 26 23 229 27 23 229 28 23 228 29 23 228 30 23 227 31 23 227 32 23 226 33 23 226 34 23 225 35 23 225 36 23 224 37 23 224 38 23 223 39 23 223 40 23 222 41 23 222 42 23 221 43 23 221 44 23 220 45 23 220 46 23 219 47 23 219 48 23 218 49 23 218 50 23 217 51 23 217 52 23 216 53 23 216 54 23 215 55 23 215 56 23 214 57 23 214 58 23 213 59 23 213 60 23 212 61 23 212 62 23 211 63 23 211 64 23 210 65 23 210 66 23 209 67 23 209 68 23 208 69 23 208 70 23 207 71 23 207 72 23 206 73 23 206 74 23 205 75 23 205 76 23 204 77 23 204 78 23 203 79 23 203 80 23 202 81 23 202 82 23 201 83 23 201 84 23 200 85 23 200 86 23 199 87 23 199 88 23 198 89 23 198 90 23 197 91 23 197 92 23 196 93 23 196 94 23 195 95 23 195 96 23 194 97 23 194 98 23 193 99 23 193 100 23 192 101 23 192 102 23 191 103 23 191 104 23 190 105 23 190 106 23 189 107 23 189 108 23 188 109 23 188 110 23 187 111 23 187 112 23 186 113 23 186 114 23 185 115 23 185 116 23 184 117 23 184 118 23 183 119 23 183 120 23 182 121 23 182 122 23 181 123 23 181 124 23 180 125 23 180 126 23 179 127 23 179 128 23 178 129 23 178 130 23 177 131 23 177 132 23 176 133 23 176 134 23 175 135 23 175 136 23 174 137 23 174 138 23 173 139 23 173 140 23 172 141 23 172 142 23 171 143 23 171 144 23 170 145 23 170 146 23 169 147 23 169 148 23 168 149 23 168 150 23 167 151 23 167 152 23 166 153 23 166 154 23 165 155 23 165 156 23 164 157 23 164 158 23 163 159 23 163 160 23 162 161 23 162 162 23 161 163 23 161 164 23 160 165 23 160 166 23 159 167 23 159 168 23 158 169 23 158 170 23 157 171 23 157 172 23 156 173 23 156 174 23 155 175 23 155 176 23 154 177 23 154 178 23 153 179 23 153 180 23 152 181 23 152 182 23 151 183 23 151 184 23 150 185 23 150 186 23 149 187 23 149 188 23 148 189 23 148 190 23 147 191 23 147 192 23 146 193 23 146 194 23 145 195 23 145 196 23 144 197 23 144 198 23 143 199 23 143 200 23 142 201 23 142 202 23 141 203 23 141 204 23 140 205 23 140 206 23 139 207 23 139 208 23 138 209 23 138 210 23 137 211 23 137 212 23 136 213 23 136 214 23 135 215 23 135 216 23 134 217 23 134 218 23 133 219 23 133 220 23 132 221 23 132 222 23 131 223 23 131 224 23 130 225 23 130 226 23 129 227 23 129 228 23 128 229 23 128 230 23 127 231 23 127 232 23 127 233 23 126 234 23 126 235 23 125 236 23 125 237 23 124 238 23 124 239 23 123 240 23 123 241 23 122 242 23 122 243 23 121 244 23 121 245 23 120 246 23 120 247 23 119 248 23 119 249 23 118 250 23 118 251 23 117 252 23 117 253 23 116 254 23 116 
0 24 242 0 24 242 1 24 241 2 24 241 3 24 240 4 24 240 5 24 239 6 24 239 7 24 238 8 24 238 9 24 237 10 24 237 11 24 236 12 24 236 13 24 235 14 24 235 15 24 234 16 24 234 17 24 233 18 24 233 19 24 232 20 24 232 21 24 231 22 24 231 23 24 230 24 24 230 25 24 229 26 24 229 27 24 228 28 24 228 29 24 227 30 24 227 31 24 226 32 24 226 33 24 225 34 24 225 35 24 224 36 24 224 37 24 223 38 24 223 39 24 222 40 24 222 41 24 221 42 24 221 43 24 220 44 24 220 45 24 219 46 24 219 47 24 218 48 24 218 49 24 217 50 24 217 51 24 216 52 24 216 53 24 215 54 24 215 55 24 214 56 24 214 57 24 213 58 24 213 59 24 212 60 24 212 61 24 211 62 24 211 63 24 210 64 24 210 65 24 209 66 24 209 67 24 208 68 24 208 69 24 207 70 24 207 71 24 206 72 24 206 73 24 205 74 24 205 75 24 204 76 24 204 77 24 203 78 24 203 79 24 202 80 24 202 81 24 201 82 24 201 83 24 200 84 24 200 85 24 199 86 24 199 87 24 198 88 24 198 89 24 197 90 24 197 91 24 196 92 24 196 93 24 195 94 24 195 95 24 194 96 24 194 97 24 193 98 24 193 99 24 192 100 24 192 101 24 191 102 24 191 103 24 190 104 24 190 105 24 189 106 24 189 107 24 188 108 24 188 109 24 187 110 24 187 111 24 186 112 24 186 113 24 185 114 24 185 115 24 184 116 24 184 117 24 183 118 24 183 119 24 182 120 24 182 121 24 181 122 24 181 123 24 180 124 24 180 125 24 179 126 24 179 127 24 178 128 24 178 129 24 177 130 24 177 131 24 176 132 24 176 133 24 175 134 24 175 135 24 174 136 24 174 137 24 173 138 24 173 139 24 172 140 24 172 141 24 171 142 24 171 143 24 170 144 24 170 145 24 169 146 24 169 147 24 168 148 24 168 149 24 167 150 24 167 151 24 166 152 24 166 153 24 165 154 24 165 155 24 164 156 24 164 157 24 163 158 24 163 159 24 162 160 24 162 161 24 161 162 24 161 163 24 160 164 24 160 165 24 159 166 24 159 167 24 158 168 24 158 169 24 157 170 24 157 171 24 156 172 24 156 173 24 155 174 24 155 175 24 154 176 24 154 177 24 153 178 24 153 179 24 152 180 24 152 181 24 151 182 24 151 183 24 150 184 24 150 185 24 149 186 24 149 187 24 148 188 24 148 189 24 147 190 24 147 191 24 146 192 24 146 193 24 145 194 24 145 195 24 144 196 24 144 197 24 143 198 24 143 199 24 142 200 24 142 201 24 141 202 24 141 203 24 140 204 24 140 205 24 139 206 24 139 207 24 138 208 24 138 209 24 137 210 24 137 211 24 136 212 24 136 213 24 135 214 24 135 215 24 134 216 24 134 217 24 133 218 24 133 219 24 132 220 24 132 221 24 131 222 24 131 223 24 130 224 24 130 225 24 129 226 24 129 227 24 128 228 24 128 229 24 127 230 24 127 231 24 127 232 24 126 233 24 126 234 24 125 235 24 125 236 24 124 237 24 124 238 24 123 239 24 123 240 24 122 241 24 122 242 24 121 243 24 121 244 24 120 245 24 120 246 24 119 247 24 119 248 24 118 249 24 118 250 24 117 251 24 117 252 24 116 253 24 116 254 24 115 
0 25 242 0 25 241 1 25 241 2 25 240 3 25 240 4 25 239 5 25 239 6 25 238 7 25 238 8 25 237 9 25 237 10 25 236 11 25 236 12 25 235 13 25 235 14 25 234 15 25 234 16 25 233 17 25 233 18 25 232 19 25 232 20 25 231 21 25 231 22 25 230 23 25 230 24 25 229 25 25 229 26 25 228 27 25 228 28 25 227 29 25 227 30 25 226 31 25 226 32 25 225 33 25 225 34 25 224 35 25 224 36 25 223 37 25 223 38 25 222 39 25 222 40 25 221 41 25 221 42 25 220 43 25 220 44 25 219 45 25 219 46 25 218 47 25 218 48 25 217 49 25 217 50 25 216 51 25 216 52 25 215 53 25 215 54 25 214 55 25 214 56 25 213 57 25 213 58 25 212 59 25 212 60 25 211 61 25 211 62 25 210 63 25 210 64 25 209 65 25 209 66 25 208 67 25 208 68 25 207 69 25 207 70 25 206 71 25 206 72 25 205 73 25 205 74 25 204 75 25 204 76 25 203 77 25 203 78 25 202 79 25 202 80 25 201 81 25 201 82 25 200 83 25 200 84 25 199 85 25 199 86 25 198 87 25 198 88 25 197 89 25 197 90 25 196 91 25 196 92 25 195 93 25 195 94 25 194 95 25 194 96 25 193 97 25 193 98 25 192 99 25 192 100 25 191 101 25 191 102 25 190 103 25 190 104 25 189 105 25 189 106 25 188 107 25 188 108 25 187 109 25 187 110 25 186 111 25 186 112 25 185 113 25 185 114 25 184 115 25 184 116 25 183 117 25 183 118 25 182 119 25 182 120 25 181 121 25 181 122 25 180 123 25 180 124 25 179 125 25 179 126 25 178 127 25 178 128 25 177 129 25 177 130 25 176 131 25 176 132 25 175 133 25 175 134 25 174 135 25 174 136 25 173 137 25 173 138 25 172 139 25 172 140 25 171 141 25 171 142 25 170 143 25 170 144 25 169 145 25 169 146 25 168 147 25 168 148 25 167 149 25 167 150 25 166 151 25 166 152 25 165 153 25 165 154 25 164 155 25 164 156 25 163 157 25 163 158 25 162 159 25 162 160 25 161 161 25 161 162 25 160 163 25 160 164 25 159 165 25 159 166 25 158 167 25 158 168 25 157 169 25 157 170 25 156 171 25 156 172 25 155 173 25 155 174 25 154 175 25 154 176 25 153 177 25 153 178 25 152 179 25 152 180 25 151 181 25 151 182 25 150 183 25 150 184 25 149 185 25 149 186 25 148 187 25 148 188 25 147 189 25 147 190 25 146 191 25 146 192 25 145 193 25 145 194 25 144 195 25 144 196 25 143 197 25 143 198 25 142 199 25 142 200 25 141 201 25 141 202 25 140 203 25 140 204 25 139 205 25 139 206 25 138 207 25 138 208 25 137 209 25 137 210 25 136 211 25 136 212 25 135 213 25 135 214 25 134 215 25 134 216 25 133 217 25 133 218 25 132 219 25 132 220 25 131 221 25 131 222 25 130 223 25 130 224 25 129 225 25 129 226 25 128 227 25 128 228 25 127 229 25 127 230 25 127 231 25 126 232 25 126 233 25 125 234 25 125 235 25 124 236 25 124 237 25 123 238 25 123 239 25 122 240 25 122 241 25 121 242 25 121 243 25 120 244 25 120 245 25 119 246 25 119 247 25 118 248 25 118 249 25 117 250 25 117 251 25 116 252 25 116 253 25 115 254 25 115 
0 26 241 0 26 241 1 26 240 2 26 240 3 26 239 4 26 239 5 26 238 6 26 238 7 26 237 8 26 237 9 26 236 10 26 236 11 26 235 12 26 235 13 26 234 14 26 234 15 26 233 16 26 233 17 26 232 18 26 232 19 26 231 20 26 231 21 26 230 22 26 230 23 26 229 24 26 229 25 26 228 26 26 228 27 26 227 28 26 227 29 26 226 30 26 226 31 26 225 32 26 225 33 26 224 34 26 224 35 26 223 36 26 223 37 26 222 38 26 222 39 26 221 40 26 221 41 26 220 42 26 220 43 26 219 44 26 219 45 26 218 46 26 218 47 26 217 48 26 217 49 26 216 50 26 216 51 26 215 52 26 215 53 26 214 54 26 214 55 26 213 56 26 213 57 26 212 58 26 212 59 26 211 60 26 211 61 26 210 62 26 210 63 26 209 64 26 209 65 26 208 66 26 208 67 26 207 68 26 207 69 26 206 70 26 206 71 26 205 72 26 205 73 26 204 74 26 204 75 26 203 76 26 203 77 26 202 78 26 202 79 26 201 80 26 201 81 26 200 82 26 200 83 26 199 84 26 199 85 26 198 86 26 198 87 26 197 88 26 197 89 26 196 90 26 196 91 26 195 92 26 195 93 26 194 94 26 194 95 26 193 96 26 193 97 26 192 98 26 192 99 26 191 100 26 191 101 26 190 102 26 190 103 26 189 104 26 189 105 26 188 106 26 188 107 26 187 108 26 187 109 26 186 110 26 186 111 26 185 112 26 185 113 26 184 114 26 184 115 26 183 116 26 183 117 26 182 118 26 182 119 26 181 120 26 181 121 26 180 122 26 180 123 26 179 124 26 179 125 26 178 126 26 178 127 26 177 128 26 177 129 26 176 130 26 176 131 26 175 132 26 175 133 26 174 134 26 174 135 26 173 136 26 173 137 26 172 138 26 172 139 26 171 140 26 171 141 26 170 142 26 170 143 26 169 144 26 169 145 26 168 146 26 168 147 26 167 148 26 167 149 26 166 150 26 166 151 26 165 152 26 165 153 26 164 154 26 164 155 26 163 156 26 163 157 26 162 158 26 162 159 26 161 160 26 161 161 26 160 162 26 160 163 26 159 164 26 159 165 26 158 166 26 158 167 26 157 168 26 157 169 26 156 170 26 156 171 26 155 172 26 155 173 26 154 174 26 154 175 26 153 176 26 153 177 26 152 178 26 152 179 26 151 180 26 151 181 26 150 182 26 150 183 26 149 184 26 149 185 26 148 186 26 148 187 26 147 188 26 147 189 26 146 190 26 146 191 26 145 192 26 145 193 26 144 194 26 144 195 26 143 196 26 143 197 26 142 198 26 142 199 26 141 200 26 141 201 26 140 202 26 140 203 26 139 204 26 139 205 26 138 206 26 138 207 26 137 208 26 137 209 26 136 210 26 136 211 26 135 212 26 135 213 26 134 214 26 134 215 26 133 216 26 133 217 26 132 218 26 132 219 26 131 220 26 131 221 26 130 222 26 130 223 26 129 224 26 129 225 26 128 226 26 128 227 26 127 228 26 127 229 26 127 230 26 126 231 26 126 232 26 125 233 26 125 234 26 124 235 26 124 236 26 123 237 26 123 238 26 122 239 26 122 240 26 121 241 26 121 242 26 120 243 26 120 244 26 119 245 26 119 246 26 118 247 26 118 248 26 117 249 26 117 250 26 116 251 26 116 252 26 115 253 26 115 254 26 114 
0 27 241 0 27 240 1 27 240 2 27 239 3 27 239 4 27 238 5 27 238 6 27 237 7 27 237 8 27 236 9 27 236 10 27 235 11 27 235 12 27 234 13 27 234 14 27 233 15 27 233 16 27 232 17 27 232 18 27 231 19 27 231 20 27 230 21 27 230 22 27 229 23 27 229 24 27 228 25 27 228 26 27 227 27 27 227 28 27 226 29 27 226 30 27 225 31 27 225 32 27 224 33 27 224 34 27 223 35 27 223 36 27 222 37 27 222 38 27 221 39 27 221 40 27 220 41 27 220 42 27 219 43 27 219 44 27 218 45 27 218 46 27 217 47 27 217 48 27 216 49 27 216 50 27 215 51 27 215 52 27 214 53 27 214 54 27 213 55 27 213 56 27 212 57 27 212 58 27 211 59 27 211 60 27 210 61 27 210 62 27 209 63 27 209 64 27 208 65 27 208 66 27 207 67 27 207 68 27 206 69 27 206 70 27 205 71 27 205 72 27 204 73 27 204 74 27 203 75 27 203 76 27 202 77 27 202 78 27 201 79 27 201 80 27 200 81 27 200 82 27 199 83 27 199 84 27 198 85 27 198 86 27 197 87 27 197 88 27 196 89 27 196 90 27 195 91 27 195 92 27 194 93 27 194 94 27 193 95 27 193 96 27 192 97 27 192 98 27 191 99 27 191 100 27 190 101 27 190 102 27 189 103 27 189 104 27 188 105 27 188 106 27 187 107 27 187 108 27 186 109 27 186 110 27 185 111 27 185 112 27 184 113 27 184 114 27 183 115 27 183 116 27 182 117 27 182 118 27 181 119 27 181 120 27 180 121 27 180 122 27 179 123 27 179 124 27 178 125 27 178 126 27 177 127 27 177 128 27 176 129 27 176 130 27 175 131 27 175 132 27 174 133 27 174 134 27 173 135 27 173 136 27 172 137 27 172 138 27 171 139 27 171 140 27 170 141 27 170 142 27 169 143 27 169 144 27 168 145 27 168 146 27 167 147 27 167 148 27 166 149 27 166 150 27 165 151 27 165 152 27 164 153 27 164 154 27 163 155 27 163 156 27 162 157 27 162 158 27 161 159 27 161 160 27 160 161 27 160 162 27 159 163 27 159 164 27 158 165 27 158 166 27 157 167 27 157 168 27 156 169 27 156 170 27 155 171 27 155 172 27 154 173 27 154 174 27 153 175 27 153 176 27 152 177 27 152 178 27 151 179 27 151 180 27 150 181 27 150 182 27 149 183 27 149 184 27 148 185 27 148 186 27 147 187 27 147 188 27 146 189 27 146 190 27 145 191 27 145 192 27 144 193 27 144 194 27 143 195 27 143 196 27 142 197 27 142 198 27 141 199 27 141 200 27 140 201 27 140 202 27 139 203 27 139 204 27 138 205 27 138 206 27 137 207 27 137 208 27 136 209 27 136 210 27 135 211 27 135 212 27 134 213 27 134 214 27 133 215 27 133 216 27 132 217 27 132 218 27 131 219 27 131 220 27 130 221 27 130 222 27 129 223 27 129 224 27 128 225 27 128 226 27 127 227 27 127 228 27 127 229 27 126 230 27 126 231 27 125 232 27 125 233 27 124 234 27 124 235 27 123 236 27 123 237 27 122 238 27 122 239 27 121 240 27 121 241 27 120 242 27 120 243 27 119 244 27 119 245 27 118 246 27 118 247 27 117 248 27 117 249 27 116 250 27 116 251 27 115 252 27 115 253 27 114 254 27 114 
0 28 240 0 28 240 1 28 239 2 28 239 3 28 238 4 28 238 5 28 237 6 28 237 7 28 236 8 28 236 9 28 235 10 28 235 11 28 234 12 28 234 13 28 233 14 28 233 15 28 232 16 28 232 17 28 231 18 28 231 19 28 230 20 28 230 21 28 229 22 28 229 23 28 228 24 28 228 25 28 227 26 28 227 27 28 226 28 28 226 29 28 225 30 28 225 31 28 224 32 28 224 33 28 223 34 28 223 35 28 222 36 28 222 37 28 221 38 28 221 39 28 220 40 28 220 41 28 219 42 28 219 43 28 218 44 28 218 45 28 217 46 28 217 47 28 216 48 28 216 49 28 215 50 28 215 51 28 214 52 28 214 53 28 213 54 28 213 55 28 212 56 28 212 57 28 211 58 28 211 59 28 210 60 28 210 61 28 209 62 28 209 63 28 208 64 28 208 65 28 207 66 28 207 67 28 206 68 28 206 69 28 205 70 28 205 71 28 204 72 28 204 73 28 203 74 28 203 75 28 202 76 28 202 77 28 201 78 28 201 79 28 200 80 28 200 81 28 199 82 28 199 83 28 198 84 28 198 85 28 197 86 28 197 87 28 196 88 28 196 89 28 195 90 28 195 91 28 194 92 28 194 93 28 193 94 28 193 95 28 192 96 28 192 97 28 191 98 28 191 99 28 190 100 28 190 101 28 189 102 28 189 103 28 188 104 28 188 105 28 187 106 28 187 107 28 186 108 28 186 109 28 185 110 28 185 111 28 184 112 28 184 113 28 183 114 28 183 115 28 182 116 28 182 117 28 181 118 28 181 119 28 180 120 28 180 121 28 179 122 28 179 123 28 178 124 28 178 125 28 177 126 28 177 127 28 176 128 28 176 129 28 175 130 28 175 131 28 174 132 28 174 133 28 173 134 28 173 135 28 172 136 28 172 137 28 171 138 28 171 139 28 170 140 28 170 141 28 169 142 28 169 143 28 168 144 28 168 145 28 167 146 28 167 147 28 166 148 28 166 149 28 165 150 28 165 151 28 164 152 28 164 153 28 163 154 28 163 155 28 162 156 28 162 157 28 161 158 28 161 159 28 160 160 28 160 161 28 159 162 28 159 163 28 158 164 28 158 165 28 157 166 28 157 167 28 156 168 28 156 169 28 155 170 28 155 171 28 154 172 28 154 173 28 153 174 28 153 175 28 152 176 28 152 177 28 151 178 28 151 179 28 150 180 28 150 181 28 149 182 28 149 183 28 148 184 28 148 185 28 147 186 28 147 187 28 146 188 28 146 189 28 145 190 28 145 191 28 144 192 28 144 193 28 143 194 28 143 195 28 142 196 28 142 197 28 141 198 28 141 199 28 140 200 28 140 201 28 139 202 28 139 203 28 138 204 28 138 205 28 137 206 28 137 207 28 136 208 28 136 209 28 135 210 28 135 211 28 134 212 28 134 213 28 133 214 28 133 215 28 132 216 28 132 217 28 131 218 28 131 219 28 130 220 28 130 221 28 129 222 28 129 223 28 128 224 28 128 225 28 127 226 28 127 227 28 127 228 28 126 229 28 126 230 28 125 231 28 125 232 28 124 233 28 124 234 28 123 235 28 123 236 28 122 237 28 122 238 28 121 239 28 121 240 28 120 241 28 120 242 28 119 243 28 119 244 28 118 245 28 118 246 28 117 247 28 117 248 28 116 249 28 116 250 28 115 251 28 115 252 28 114 253 28 114 254 28 113 
0 29 240 0 29 239 1 29 239 2 29 238 3 29 238 4 29 237 5 29 237 6 29 236 7 29 236 8 29 235 9 29 235 10 29 234 11 29 234 12 29 233 13 29 233 14 29 232 15 29 232 16 29 231 17 29 231 18 29 230 19 29 230 20 29 229 21 29 229 22 29 228 23 29 228 24 29 227 25 29 227 26 29 226 27 29 226 28 29 225 29 29 225 30 29 224 31 29 224 32 29 223 33 29 223 34 29 222 35 29 222 36 29 221 37 29 221 38 29 220 39 29 220 40 29 219 41 29 219 42 29 218 43 29 218 44 29 217 45 29 217 46 29 216 47 29 216 48 29 215 49 29 215 50 29 214 51 29 214 52 29 213 53 29 213 54 29 212 55 29 212 56 29 211 57 29 211 58 29 210 59 29 210 60 29 209 61 29 209 62 29 208 63 29 208 64 29 207 65 29 207 66 29 206 67 29 206 68 29 205 69 29 205 70 29 204 71 29 204 72 29 203 73 29 203 74 29 202 75 29 202 76 29 201 77 29 201 78 29 200 79 29 200 80 29 199 81 29 199 82 29 198 83 29 198 84 29 197 85 29 197 86 29 196 87 29 196 88 29 195 89 29 195 90 29 194 91 29 194 92 29 193 93 29 193 94 29 192 95 29 192 96 29 191 97 29 191 98 29 190 99 29 190 100 29 189 101 29 189 102 29 188 103 29 188 104 29 187 105 29 187 106 29 186 107 29 186 108 29 185 109 29 185 110 29 184 111 29 184 112 29 183 113 29 183 114 29 182 115 29 182 116 29 181 117 29 181 118 29 180 119 29 180 120 29 179 121 29 179 122 29 178 123 29 178 124 29 177 125 29 177 126 29 176 127 29 176 128 29 175 129 29 175 130 29 174 131 29 174 132 29 173 133 29 173 134 29 172 135 29 172 136 29 171 137 29 171 138 29 170 139 29 170 140 29 169 141 29 169 142 29 168 143 29 168 144 29 167 145 29 167 146 29 166 147 29 166 148 29 165 149 29 165 150 29 164 151 29 164 152 29 163 153 29 163 154 29 162 155 29 162 156 29 161 157 29 161 158 29 160 159 29 160 160 29 159 161 29 159 162 29 158 163 29 158 164 29 157 165 29 157 166 29 156 167 29 156 168 29 155 169 29 155 170 29 154 171 29 154 172 29 153 173 29 153 174 29 152 175 29 152 176 29 151 177 29 151 178 29 150 179 29 150 180 29 149 181 29 149 182 29 148 183 29 148 184 29 147 185 29 147 186 29 146 187 29 146 188 29 145 189 29 145 190 29 144 191 29 144 192 29 143 193 29 143 194 29 142 195 29 142 196 29 141 197 29 141 198 29 140 199 29 140 200 29 139 201 29 139 202 29 138 203 29 138 204 29 137 205 29 137 206 29 136 207 29 136 208 29 135 209 29 135 210 29 134 211 29 134 212 29 133 213 29 133 214 29 132 215 29 132 216 29 131 217 29 131 218 29 130 219 29 130 220 29 129 221 29 129 222 29 128 223 29 128 224 29 127 225 29 127 226 29 127 227 29 126 228 29 126 229 29 125 230 29 125 231 29 124 232 29 124 233 29 123 234 29 123 235 29 122 236 29 122 237 29 121 238 29 121 239 29 120 240 29 120 241 29 119 242 29 119 243 29 118 244 29 118 245 29 117 246 29 117 247 29 116 248 29 116 249 29 115 250 29 115 251 29 114 252 29 114 253 29 113 254 29 113 
0 30 239 0 30 239 1 30 238 2 30 238 3 30 237 4 30 237 5 30 236 6 30 236 7 30 235 8 30 235 9 30 234 10 30 234 11 30 233 12 30 233 13 30 232 14 30 232 15 30 231 16 30 231 17 30 230 18 30 230 19 30 229 20 30 229 21 30 228 22 30 228 23 30 227 24 30 227 25 30 226 26 30 226 27 30 225 28 30 225 29 30 224 30 30 224 31 30 223 32 30 223 33 30 222 34 30 222 35 30 221 36 30 221 37 30 220 38 30 220 39 30 219 40 30 219 41 30 218 42 30 218 43 30 217 44 30 217 45 30 216 46 30 216 47 30 215 48 30 215 49 30 214 50 30 214 51 30 213 52 30 213 53 30 212 54 30 212 55 30 211 56 30 211 57 30 210 58 30 210 59 30 209 60 30 209 61 30 208 62 30 208 63 30 207 64 30 207 65 30 206 66 30 206 67 30 205 68 30 205 69 30 204 70 30 204 71 30 203 72 30 203 73 30 202 74 30 202 75 30 201 76 30 201 77 30 200 78 30 200 79 30 199 80 30 199 81 30 198 82 30 198 83 30 197 84 30 197 85 30 196 86 30 196 87 30 195 88 30 195 89 30 194 90 30 194 91 30 193 92 30 193 93 30 192 94 30 192 95 30 191 96 30 191 97 30 190 98 30 190 99 30 189 100 30 189 101 30 188 102 30 188 103 30 187 104 30 187 105 30 186 106 30 186 107 30 185 108 30 185 109 30 184 110 30 184 111 30 183 112 30 183 113 30 182 114 30 182 115 30 181 116 30 181 117 30 180 118 30 180 119 30 179 120 30 179 121 30 178 122 30 178 123 30 177 124 30 177 125 30 176 126 30 176 127 30 175 128 30 175 129 30 174 130 30 174 131 30 173 132 30 173 133 30 172 134 30 172 135 30 171 136 30 171 137 30 170 138 30 170 139 30 169 140 30 169 141 30 168 142 30 168 143 30 167 144 30 167 145 30 166 146 30 166 147 30 165 148 30 165 149 30 164 150 30 164 151 30 163 152 30 163 153 30 162 154 30 162 155 30 161 156 30 161 157 30 160 158 30 160 159 30 159 160 30 159 161 30 158 162 30 158 163 30 157 164 30 157 165 30 156 166 30 156 167 30 155 168 30 155 169 30 154 170 30 154 171 30 153 172 30 153 173 30 152 174 30 152 175 30 151 176 30 151 177 30 150 178 30 150 179 30 149 180 30 149 181 30 148 182 30 148 183 30 147 184 30 147 185 30 146 186 30 146 187 30 145 188 30 145 189 30 144 190 30 144 191 30 143 192 30 143 193 30 142 194 30 142 195 30 141 196 30 141 197 30 140 198 30 140 199 30 139 200 30 139 201 30 138 202 30 138 203 30 137 204 30 137 205 30 136 206 30 136 207 30 135 208 30 135 209 30 134 210 30 134 211 30 133 212 30 133 213 30 132 214 30 132 215 30 131 216 30 131 217 30 130 218 30 130 219 30 129 220 30 129 221 30 128 222 30 128 223 30 127 224 30 127 225 30 127 226 30 126 227 30 126 228 30 125 229 30 125 230 30 124 231 30 124 232 30 123 233 30 123 234 30 122 235 30 122 236 30 121 237 30 121 238 30 120 239 30 120 240 30 119 241 30 119 242 30 118 243 30 118 244 30 117 245 30 117 246 30 116 247 30 116 248 30 115 249 30 115 250 30 114 251 30 114 252 30 113 253 30 113 254 30 112 
0 31 239 0 31 238 1 31 238 2 31 237 3 31 237 4 31 236 5 31 236 6 31 235 7 31 235 8 31 234 9 31 234 10 31 233 11 31 233 12 31 232 13 31 232 14 31 231 15 31 231 16 31 230 17 31 230 18 31 229 19 31 229 20 31 228 21 31 228 22 31 227 23 31 227 24 31 226 25 31 226 26 31 225 27 31 225 28 31 224 29 31 224 30 31 223 31 31 223 32 31 222 33 31 222 34 31 221 35 31 221 36 31 220 37 31 220 38 31 219 39 31 219 40 31 218 41 31 218 42 31 217 43 31 217 44 31 216 45 31 216 46 31 215 47 31 215 48 31 214 49 31 214 50 31 213 51 31 213 52 31 212 53 31 212 54 31 211 55 31 211 56 31 210 57 31 210 58 31 209 59 31 209 60 31 208 61 31 208 62 31 207 63 31 207 64 31 206 65 31 206 66 31 205 67 31 205 68 31 204 69 31 204 70 31 203 71 31 203 72 31 202 73 31 202 74 31 201 75 31 201 76 31 200 77 31 200 78 31 199 79 31 199 80 31 198 81 31 198 82 31 197 83 31 197 84 31 196 85 31 196 86 31 195 87 31 195 88 31 194 89 31 194 90 31 193 91 31 193 92 31 192 93 31 192 94 31 191 95 31 191 96 31 190 97 31 190 98 31 189 99 31 189 100 31 188 101 31 188 102 31 187 103 31 187 104 31 186 105 31 186 106 31 185 107 31 185 108 31 184 109 31 184 110 31 183 111 31 183 112 31 182 113 31 182 114 31 181 115 31 181 116 31 180 117 31 180 118 31 179 119 31 179 120 31 178 121 31 178 122 31 177 123 31 177 124 31 176 125 31 176 126 31 175 127 31 175 128 31 174 129 31 174 130 31 173 131 31 173 132 31 172 133 31 172 134 31 171 135 31 171 136 31 170 137 31 170 138 31 169 139 31 169 140 31 168 141 31 168 142 31 167 143 31 167 144 31 166 145 31 166 146 31 165 147 31 165 148 31 164 149 31 164 150 31 163 151 31 163 152 31 162 153 31 162 154 31 161 155 31 161 156 31 160 157 31 160 158 31 159 159 31 159 160 31 158 161 31 158 162 31 157 163 31 157 164 31 156 165 31 156 166 31 155 167 31 155 168 31 154 169 31 154 170 31 153 171 31 153 172 31 152 173 31 152 174 31 151 175 31 151 176 31 150 177 31 150 178 31 149 179 31 149 180 31 148 181 31 148 182 31 147 183 31 147 184 31 146 185 31 146 186 31 145 187 31 145 188 31 144 189 31 144 190 31 143 191 31 143 192 31 142 193 31 142 194 31 141 195 31 141 196 31 140 197 31 140 198 31 139 199 31 139 200 31 138 201 31 138 202 31 137 203 31 137 204 31 136 205 31 136 206 31 135 207 31 135 208 31 134 209 31 134 210 31 133 211 31 133 212 31 132 213 31 132 214 31 131 215 31 131 216 31 130 217 31 130 218 31 129 219 31 129 220 31 128 221 31 128 222 31 127 223 31 127 224 31 127 225 31 126 226 31 126 227 31 125 228 31 125 229 31 124 230 31 124 231 31 123 232 31 123 233 31 122 234 31 122 235 31 121 236 31 121 237 31 120 238 31 120 239 31 119 240 31 119 241 31 118 242 31 118 243 31 117 244 31 117 245 31 116 246 31 116 247 31 115 248 31 115 249 31 114 250 31 114 251 31 113 252 31 113 253 31 112 254 31 112 
0 32 238 0 32 238 1 32 237 2 32 237 3 32 236 4 32 236 5 32 235 6 32 235 7 32 234 8 32 234 9 32 233 10 32 233 11 32 232 12 32 232 13 32 231 14 32 231 15 32 230 16 32 230 17 32 229 18 32 229 19 32 228 20 32 228 21 32 227 22 32 227 23 32 226 24 32 226 25 32 225 26 32 225 27 32 224 28 32 224 29 32 223 30 32 223 31 32 222 32 32 222 33 32 221 34 32 221 35 32 220 36 32 220 37 32 219 38 32 219 39 32 218 40 32 218 41 32 217 42 32 217 43 32 216 44 32 216 45 32 215 46 32 215 47 32 214 48 32 214 49 32 213 50 32 213 51 32 212 52 32 212 53 32 211 54 32 211 55 32 210 56 32 210 57 32 209 58 32 209 59 32 208 60 32 208 61 32 207 62 32 207 63 32 206 64 32 206 65 32 205 66 32 205 67 32 204 68 32 204 69 32 203 70 32 203 71 32 202 72 32 202 73 32 201 74 32 201 75 32 200 76 32 200 77 32 199 78 32 199 79 32 198 80 32 198 81 32 197 82 32 197 83 32 196 84 32 196 85 32 195 86 32 195 87 32 194 88 32 194 89 32 193 90 32 193 91 32 192 92 32 192 93 32 191 94 32 191 95 32 190 96 32 190 97 32 189 98 32 189 99 32 188 100 32 188 101 32 187 102 32 187 103 32 186 104 32 186 105 32 185 106 32 185 107 32 184 108 32 184 109 32 183 110 32 183 111 32 182 112 32 182 113 32 181 114 32 181 115 32 180 116 32 180 117 32 179 118 32 179 119 32 178 120 32 178 121 32 177 122 32 177 123 32 176 124 32 176 125 32 175 126 32 175 127 32 174 128 32 174 129 32 173 130 32 173 131 32 172 132 32 172 133 32 171 134 32 171 135 32 170 136 32 170 137 32 169 138 32 169 139 32 168 140 32 168 141 32 167 142 32 167 143 32 166 144 32 166 145 32 165 146 32 165 147 32 164 148 32 164 149 32 163 150 32 163 151 32 162 152 32 162 153 32 161 154 32 161 155 32 160 156 32 160 157 32 159 158 32 159 159 32 158 160 32 158 161 32 157 162 32 157 163 32 156 164 32 156 165 32 155 166 32 155 167 32 154 168 32 154 169 32 153 170 32 153 171 32 152 172 32 152 173 32 151 174 32 151 175 32 150 176 32 150 177 32 149 178 32 149 179 32 148 180 32 148 181 32 147 182 32 147 183 32 146 184 32 146 185 32 145 186 32 145 187 32 144 188 32 144 189 32 143 190 32 143 191 32 142 192 32 142 193 32 141 194 32 141 195 32 140 196 32 140 197 32 139 198 32 139 199 32 138 200 32 138 201 32 137 202 32 137 203 32 136 204 32 136 205 32 135 206 32 135 207 32 134 208 32 134 209 32 133 210 32 133 211 32 132 212 32 132 213 32 131 214 32 131 215 32 130 216 32 130 217 32 129 218 32 129 219 32 128 220 32 128 221 32 127 222 32 127 223 32 127 224 32 126 225 32 126 226 32 125 227 32 125 228 32 124 229 32 124 230 32 123 231 32 123 232 32 122 233 32 122 234 32 121 235 32 121 236 32 120 237 32 120 238 32 119 239 32 119 240 32 118 241 32 118 242 32 117 243 32 117 244 32 116 245 32 116 246 32 115 247 32 115 248 32 114 249 32 114 250 32 113 251 32 113 252 32 112 253 32 112 254 32 111 
0 33 238 0 33 237 1 33 237 2 33 236 3 33 236 4 33 235 5 33 235 6 33 234 7 33 234 8 33 233 9 33 233 10 33 232 11 33 232 12 33 231 13 33 231 14 33 230 15 33 230 16 33 229 17 33 229 18 33 228 19 33 228 20 33 227 21 33 227 22 33 226 23 33 226 24 33 225 25 33 225 26 33 224 27 33 224 28 33 223 29 33 223 30 33 222 31 33 222 32 33 221 33 33 221 34 33 220 35 33 220 36 33 219 37 33 219 38 33 218 39 33 218 40 33 217 41 33 217 42 33 216 43 33 216 44 33 215 45 33 215 46 33 214 47 33 214 48 33 213 49 33 213 50 33 212 51 33 212 52 33 211 53 33 211 54 33 210 55 33 210 56 33 209 57 33 209 58 33 208 59 33 208 60 33 207 61 33 207 62 33 206 63 33 206 64 33 205 65 33 205 66 33 204 67 33 204 68 33 203 69 33 203 70 33 202 71 33 202 72 33 201 73 33 201 74 33 200 75 33 200 76 33 199 77 33 199 78 33 198 79 33 198 80 33 197 81 33 197 82 33 196 83 33 196 84 33 195 85 33 195 86 33 194 87 33 194 88 33 193 89 33 193 90 33 192 91 33 192 92 33 191 93 33 191 94 33 190 95 33 190 96 33 189 97 33 189 98 33 188 99 33 188 100 33 187 101 33 187 102 33 186 103 33 186 104 33 185 105 33 185 106 33 184 107 33 184 108 33 183 109 33 183 110 33 182 111 33 182 112 33 181 113 33 181 114 33 180 115 33 180 116 33 179 117 33 179 118 33 178 119 33 178 120 33 177 121 33 177 122 33 176 123 33 176 124 33 175 125 33 175 126 33 174 127 33 174 128 33 173 129 33 173 130 33 172 131 33 172 132 33 171 133 33 171 134 33 170 135 33 170 136 33 169 137 33 169 138 33 168 139 33 168 140 33 167 141 33 167 142 33 166 143 33 166 144 33 165 145 33 165 146 33 164 147 33 164 148 33 163 149 33 163 150 33 162 151 33 162 152 33 161 153 33 161 154 33 160 155 33 160 156 33 159 157 33 159 158 33 158 159 33 158 160 33 157 161 33 157 162 33 156 163 33 156 164 33 155 165 33 155 166 33 154 167 33 154 168 33 153 169 33 153 170 33 152 171 33 152 172 33 151 173 33 151 174 33 150 175 33 150 176 33 149 177 33 149 178 33 148 179 33 148 180 33 147 181 33 147 182 33 146 183 33 146 184 33 145 185 33 145 186 33 144 187 33 144 188 33 143 189 33 143 190 33 142 191 33 142 192 33 141 193 33 141 194 33 140 195 33 140 196 33 139 197 33 139 198 33 138 199 33 138 200 33 137 201 33 137 202 33 136 203 33 136 204 33 135 205 33 135 206 33 134 207 33 134 208 33 133 209 33 133 210 33 132 211 33 132 212 33 131 213 33 131 214 33 130 215 33 130 216 33 129 217 33 129 218 33 128 219 33 128 220 33 127 221 33 127 222 33 127 223 33 126 224 33 126 225 33 125 226 33 125 227 33 124 228 33 124 229 33 123 230 33 123 231 33 122 232 33 122 233 33 121 234 33 121 235 33 120 236 33 120 237 33 119 238 33 119 239 33 118 240 33 118 241 33 117 242 33 117 243 33 116 244 33 116 245 33 115 246 33 115 247 33 114 248 33 114 249 33 113 250 33 113 251 33 112 252 33 112 253 33 111 254 33 111 
0 34 237 0 34 237 1 34 236 2 34 236 3 34 235 4 34 235 5 34 234 6 34 234 7 34 233 8 34 233 9 34 232 10 34 232 11 34 231 12 34 231 13 34 230 14 34 230 15 34 229 16 34 229 17 34 228 18 34 228 19 34 227 20 34 227 21 34 226 22 34 226 23 34 225 24 34 225 25 34 224 26 34 224 27 34 223 28 34 223 29 34 222 30 34 222 31 34 221 32 34 221 33 34 220 34 34 220 35 34 219 36 34 219 37 34 218 38 34 218 39 34 217 40 34 217 41 34 216 42 34 216 43 34 215 44 34 215 45 34 214 46 34 214 47 34 213 48 34 213 49 34 212 50 34 212 51 34 211 52 34 211 53 34 210 54 34 210 55 34 209 56 34 209 57 34 208 58 34 208 59 34 207 60 34 207 61 34 206 62 34 206 63 34 205 64 34 205 65 34 204 66 34 204 67 34 203 68 34 203 69 34 202 70 34 202 71 34 201 72 34 201 73 34 200 74 34 200 75 34 199 76 34 199 77 34 198 78 34 198 79 34 197 80 34 197 81 34 196 82 34 196 83 34 195 84 34 195 85 34 194 86 34 194 87 34 193 88 34 193 89 34 192 90 34 192 91 34 191 92 34 191 93 34 190 94 34 190 95 34 189 96 34 189 97 34 188 98 34 188 99 34 187 100 34 187 101 34 186 102 34 186 103 34 185 104 34 185 105 34 184 106 34 184 107 34 183 108 34 183 109 34 182 110 34 182 111 34 181 112 34 181 113 34 180 114 34 180 115 34 179 116 34 179 117 34 178 118 34 178 119 34 177 120 34 177 121 34 176 122 34 176 123 34 175 124 34 175 125 34 174 126 34 174 127 34 173 128 34 173 129 34 172 130 34 172 131 34 171 132 34 171 133 34 170 134 34 170 135 34 169 136 34 169 137 34 168 138 34 168 139 34 167 140 34 167 141 34 166 142 34 166 143 34 165 144 34 165 145 34 164 146 34 164 147 34 163 148 34 163 149 34 162 150 34 162 151 34 161 152 34 161 153 34 160 154 34 160 155 34 159 156 34 159 157 34 158 158 34 158 159 34 157 160 34 157 161 34 156 162 34 156 163 34 155 164 34 155 165 34 154 166 34 154 167 34 153 168 34 153 169 34 152 170 34 152 171 34 151 172 34 151 173 34 150 174 34 150 175 34 149 176 34 149 177 34 148 178 34 148 179 34 147 180 34 147 181 34 146 182 34 146 183 34 145 184 34 145 185 34 144 186 34 144 187 34 143 188 34 143 189 34 142 190 34 142 191 34 141 192 34 141 193 34 140 194 34 140 195 34 139 196 34 139 197 34 138 198 34 138 199 34 137 200 34 137 201 34 136 202 34 136 203 34 135 204 34 135 205 34 134 206 34 134 207 34 133 208 34 133 209 34 132 210 34 132 211 34 131 212 34 131 213 34 130 214 34 130 215 34 129 216 34 129 217 34 128 218 34 128 219 34 127 220 34 127 221 34 127 222 34 126 223 34 126 224 34 125 225 34 125 226 34 124 227 34 124 228 34 123 229 34 123 230 34 122 231 34 122 232 34 121 233 34 121 234 34 120 235 34 120 236 34 119 237 34 119 238 34 118 239 34 118 240 34 117 241 34 117 242 34 116 243 34 116 244 34 115 245 34 115 246 34 114 247 34 114 248 34 113 249 34 113 250 34 112 251 34 112 252 34 111 253 34 111 254 34 110 
0 35 237 0 35 236 1 35 236 2 35 235 3 35 235 4 35 234 5 35 234 6 35 233 7 35 233 8 35 232 9 35 232 10 35 231 11 35 231 12 35 230 13 35 230 14 35 229 15 35 229 16 35 228 17 35 228 18 35 227 19 35 227 20 35 226 21 35 226 22 35 225 23 35 225 24 35 224 25 35 224 26 35 223 27 35 223 28 35 222 29 35 222 30 35 221 31 35 221 32 35 220 33 35 220 34 35 219 35 35 219 36 35 218 37 35 218 38 35 217 39 35 217 40 35 216 41 35 216 42 35 215 43 35 215 44 35 214 45 35 214 46 35 213 47 35 213 48 35 212 49 35 212 50 35 211 51 35 211 52 35 210 53 35 210 54 35 209 55 35 209 56 35 208 57 35 208 58 35 207 59 35 207 60 35 206 61 35 206 62 35 205 63 35 205 64 35 204 65 35 204 66 35 203 67 35 203 68 35 202 69 35 202 70 35 201 71 35 201 72 35 200 73 35 200 74 35 199 75 35 199 76 35 198 77 35 198 78 35 197 79 35 197 80 35 196 81 35 196 82 35 195 83 35 195 84 35 194 85 35 194 86 35 193 87 35 193 88 35 192 89 35 192 90 35 191 91 35 191 92 35 190 93 35 190 94 35 189 95 35 189 96 35 188 97 35 188 98 35 187 99 35 187 100 35 186 101 35 186 102 35 185 103 35 185 104 35 184 105 35 184 106 35 183 107 35 183 108 35 182 109 35 182 110 35 181 111 35 181 112 35 180 113 35 180 114 35 179 115 35 179 116 35 178 117 35 178 118 35 177 119 35 177 120 35 176 121 35 176 122 35 175 123 35 175 124 35 174 125 35 174 126 35 173 127 35 173 128 35 172 129 35 172 130 35 171 131 35 171 132 35 170 133 35 170 134 35 169 135 35 169 136 35 168 137 35 168 138 35 167 139 35 167 140 35 166 141 35 166 142 35 165 143 35 165 144 35 164 145 35 164 146 35 163 147 35 163 148 35 162 149 35 162 150 35 161 151 35 161 152 35 160 153 35 160 154 35 159 155 35 159 156 35 158 157 35 158 158 35 157 159 35 157 160 35 156 161 35 156 162 35 155 163 35 155 164 35 154 165 35 154 166 35 153 167 35 153 168 35 152 169 35 152 40 210 70 40 210 70 40 210 70 40 210 70 40 210 70 40 210 70 40 210 70 40 210 70 40 210 70 40 210 70 40 210 70 40 210 70 40 210 70 40 210 70 40 210 70 40 210 70 40 210 70 40 210 70 40 210 70 189 35 142 190 35 141 191 35 141 192 35 140 193 35 140 194 35 139 195 35 139 196 35 138 197 35 138 198 35 137 199 35 137 200 35 136 201 35 136 202 35 135 203 35 135 204 35 134 205 35 134 206 35 133 207 35 133 208 35 132 209 35 132 210 35 131 211 35 131 212 35 130 213 35 130 214 35 129 215 35 129 216 35 128 217 35 128 218 35 127 219 35 127 220 35 127 221 35 126 222 35 126 223 35 125 224 35 125 225 35 124 226 35 124 227 35 123 228 35 123 229 35 122 230 35 122 231 35 121 232 35 121 233 35 120 234 35 120 235 35 119 236 35 119 237 35 118 238 35 118 239 35 117 240 35 117 241 35 116 242 35 116 243 35 115 244 35 115 245 35 114 246 35 114 247 35 113 248 35 113 249 35 112 250 35 112 251 35 111 252 35 111 253 35 110 254 35 110 
0 36 236 0 36 236 1 36 235 2 36 235 3 36 234 4 36 234 5 36 233 6 36 233 7 36 232 8 36 232 9 36 231 10 36 231 11 36 230 12 36 230 13 36 229 14 36 229 15 36 228 16 36 228 17 36 227 18 36 227 19 36 226 20 36 226 21 36 225 22 36 225 23 36 224 24 36 224 25 36 223 26 36 223 27 36 222 28 36 222 29 36 221 30 36 221 31 36 220 32 36 220 33 36 219 34 36 219 35 36 218 36 36 218 37 36 217 38 36 217 39 36 216 40 36 216 41 36 215 42 36 215 43 36 214 44 36 214 45 36 213 46 36 213 47 36 212 48 36 212 49 36 211 50 36 211 51 36 210 52 36 210 53 36 209 54 36 209 55 36 208 56 36 208 57 36 207 58 36 207 59 36 206 60 36 206 61 36 205 62 36 205 63 36 204 64 36 204 65 36 203 66 36 203 67 36 202 68 36 202 69 36 201 70 36 201 71 36 200 72 36 200 73 36 199 74 36 199 75 36 198 76 36 198 77 36 197 78 36 197 79 36 196 80 36 196 81 36 195 82 36 195 83 36 194 84 36 194 85 36 193 86 36 193 87 36 192 88 36 192 89 36 191 90 36 191 91 36 190 92 36 190 93 36 189 94 36 189 95 36 188 96 36 188 97 36 187 98 36 187 99 36 186 100 36 186 101 36 185 102 36 185 103 36 184 104 36 184 105 36 183 106 36 183 107 36 182 108 36 182 109 36 181 110 36 181 111 36 180 112 36 180 113 36 179 114 36 179 115 36 178 116 36 178 117 36 177 118 36 177 119 36 176 120 36 176 121 36 175 122 36 175 123 36 174 124 36 174 125 36 173 126 36 173 127 36 172 128 36 172 129 36 171 130 36 171 131 36 170 132 36 170 133 36 169 134 36 169 135 36 168 136 36 168 137 36 167 138 36 167 139 36 166 140 36 166 141 36 165 142 36 165 143 36 164 144 36 164 145 36 163 146 36 163 147 36 162 148 36 162 149 36 161 150 36 161 151 36 160 152 36 160 153 36 159 154 36 159 155 36 158 156 36 158 157 36 157 158 36 157 159 36 156 160 36 156 161 36 155 162 36 155 163 36 154 164 36 154 165 36 153 40 210 70 40 210 70 40 210 70 40 210 70 40 210 70 40 210 70 40 210 70 40 210 70 40 210 70 40 210 70 40 210 70 40 210 70 40 210 70 40 210 70 40 210 70 40 210 70 40 210 70 40 210 70 40 210 70 40 210 70 40 210 70 40 210 70 40 210 70 40 210 70 40 210 70 40 210 70 40 210 70 193 36 139 194 36 139 195 36 138 196 36 138 197 36 137 198 36 137 199 36 136 200 36 136 201 36 135 202 36 135 203 36 134 204 36 134 205 36 133 206 36 133 207 36 132 208 36 132 209 36 131 210 36 131 211 36 130 212 36 130 213 36 129 214 36 129 215 36 128 216 36 128 217 36 127 218 36 127 219 36 127 220 36 126 221 36 126 222 36 125 223 36 125 224 36 124 225 36 124 226 36 123 227 36 123 228 36 122 229 36 122 230 36 121 231 36 121 232 36 120 233 36 120 234 36 119 235 36 119 236 36 118 237 36 118 238 36 117 239 36 117 240 36 116 241 36 116 242 36 115 243 36 115 244 36 114 245 36 114 246 36 113 247 36 113 248 36 112 249 36 112 250 36 111 251 36 111 252 36 110 253 36 110 254 36 109 
0 37 236 0 37 235 1 37 235 2 37 234 3 37 234 4 37 233 5 37 233 6 37 232 7 37 232 8 37 231 9 37 231 10 37 230 11 37 230 12 37 229 13 37 229 14 37 228 15 37 228 16 37 227 17 37 227 18 37 226 19 37 226 20 37 225 21 37 225 22 37 224 23 37 224 24 37 223 25 37 223 26 37 222 27 37 222 28 37 221 29 37 221 30 37 220 31 37 220 32 37 219 33 37 219 34 37 218 35 37 218 36 37 217 37 37 217 38 37 216 39 37 216 40 37 215 41 37 215 42 37 214 43 37 214 44 37 213 45 37 213 46 37 212 47 37 212 48 37 211 49 37 211 50 37 210 51 37 210 52 37 209 53 37 209 54 37 208 55 37 208 56 37 207 57 37 207 58 37 206 59 37 206 60 37 205 61 37 205 62 37 204 63 37 204 64 37 203 65 37 203 66 37 202 67 37 202 68 37 201 69 37 201 70 37 200 71 37 200 72 37 199 73 37 199 74 37 198 75 37 198 76 37 197 77 37 197 78 37 196 79 37 196 80 37 195 81 37 195 82 37 194 83 37 194 84 37 193 85 37 193 86 37 192 87 37 192 88 37 191 89 37 191 90 37 190 91 37 190 92 37 189 93 37 189 94 37 188 95 37 188 96 37 187 97 37 187 98 37 186 99 37 186 100 37 185 101 37 185 102 37 184 103 37 184 104 37 183 105 37 183 106 37 182 107 37 182 108 37 181 109 37 181 110 37 180 111 37 180 112 37 179 113 37 179 114 37 178 115 37 178 116 37 177 117 37 177 118 37 176 119 37 176 120 37 175 121 37 175 122 37 174 123 37 174 124 37 173 125 37 173 126 37 172 127 37 172 128 37 171 129 37 171 130 37 170 131 37 170 132 37 169 133 37 169 134 37 168 135 37 168 136 37 167 137 37 167 138 37 166 139 37 166 140 37 165 141 37 165 142 37 164 143 37 164 144 37 163 145 37 163 146 37 162 147 37 162 148 37 161 149 37 161 150 37 160 151 37 160 152 37 159 153 37 159 154 37 158 155 37 158 156 37 157 157 37 157 158 37 156 159 37 156 160 37 155 161 37 155 162 37 154 40 210 70 40 210 70 40 210 70 40 210 70 40 210 70 40 210 70 40 210 70 40 210 70 40 210 70 40 210 70 40 210 70 40 210 70 40 210 70 40 210 70 40 210 70 40 210 70 40 210 70 40 210 70 40 210 70 40 210 70 40 210 70 40 210 70 40 210 70 40 210 70 40 210 70 40 210 70 40 210 70 40 210 70 40 210 70 40 210 70 40 210 70 40 210 70 40 210 70 196 37 137 197 37 137 198 37 136 199 37 136 200 37 135 201 37 135 202 37 134 203 37 134 204 37 133 205 37 133 206 37 132 207 37 132 208 37 131 209 37 131 210 37 130 211 37 130 212 37 129 213 37 129 214 37 128 215 37 128 216 37 127 217 37 127 218 37 127 219 37 126 220 37 126 221 37 125 222 37 125 223 37 124 224 37 124 225 37 123 226 37 123 227 37 122 228 37 122 229 37 121 230 37 121 231 37 120 232 37 120 233 37 119 234 37 119 235 37 118 236 37 118 237 37 117 238 37 117 239 37 116 240 37 116 241 37 115 242 37 115 243 37 114 244 37 114 245 37 113 246 37 113 247 37 112 248 37 112 249 37 111 250 37 111 251 37 110 252 37 110 253 37 109 254 37 109 
0 38 235 0 38 235 1 38 234 2 38 234 3 38 233 4 38 233 5 38 232 6 38 232 7 38 231 8 38 231 9 38 230 10 38 230 11 38 229 12 38 229 13 38 228 14 38 228 15 38 227 16 38 227 17 38 226 18 38 226 19 38 225 20 38 225 21 38 224 22 38 224 23 38 223 24 38 223 25 38 222 26 38 222 27 38 221 28 38 221 29 38 220 30 38 220 31 38 219 32 38 219 33 38 218 34 38 218 35 38 217 36 38 217 37 38 216 38 38 216 39 38 215 40 38 215 41 38 214 42 38 214 43 38 213 44 38 213 45 38 212 46 38 212 47 38 211 48 38 211 49 38 210 50 38 210 51 38 209 52 38 209 53 38 208 54 38 208 55 38 207 56 38 207 57 38 206 58 38 206 59 38 205 60 38 205 61 38 204 62 38 204 63 38 203 64 38 203 65 38 202 66 38 202 67 38 201 68 38 201 69 38 200 70 38 200 71 38 199 72 38 199 73 38 198 74 38 198 75 38 197 76 38 197 77 38 196 78 38 196 79 38 195 80 38 195 81 38 194 82 38 194 83 38 193 84 38 193 85 38 192 86 38 192 87 38 191 88 38 191 89 38 190 90 38 190 91 38 189 92 38 189 93 38 188 94 38 188 95 38 187 96 38 187 97 38 186 98 38 186 99 38 185 100 38 185 101 38 184 102 38 184 103 38 183 104 38 183 105 38 182 106 38 182 107 38 181 108 38 181 109 38 180 110 38 180 111 38 179 112 38 179 113 38 178 114 38 178 115 38 177 116 38 177 117 38 176 118 38 176 119 38 175 120 38 175 121 38 174 122 38 174 123 38 173 124 38 173 125 38 172 126 38 172 127 38 171 128 38 171 129 38 170 130 38 170 131 38 169 132 38 169 133 38 168 134 38 168 135 38 167 136 38 167 137 38 166 138 38 166 139 38 165 140 38 165 141 38 164 142 38 164 143 38 163 144 38 163 145 38 162 146 38 162 147 38 161 148 38 161 149 38 160 150 38 160 151 38 159 152 38 159 153 38 158 154 38 158 155 38 157 156 38 157 157 38 156 158 38 156 159 38 155 160 38 155 40 210 70 40 210 70 40 210 70 40 210 70 40 210 70 40 210 70 40 210 70 40 210 70 40 210 70 40 210 70 40 210 70 40 210 70 40 210 70 40 210 70 40 210 70 40 210 70 40 210 70 40 210 70 40 210 70 40 210 70 40 210 70 40 210 70 40 210 70 40 210 70 40 210 70 40 210 70 40 210 70 40 210 70 40 210 70 40 210 70 40 210 70 40 210 70 40 210 70 40 210 70 40 210 70 40 210 70 40 210 70 198 38 136 199 38 135 200 38 135 201 38 134 202 38 134 203 38 133 204 38 133 205 38 132 206 38 132 207 38 131 208 38 131 209 38 130 210 38 130 211 38 129 212 38 129 213 38 128 214 38 128 215 38 127 216 38 127 217 38 127 218 38 126 219 38 126 220 38 125 221 38 125 222 38 124 223 38 124 224 38 123 225 38 123 226 38 122 227 38 122 228 38 121 229 38 121 230 38 120 231 38 120 232 38 119 233 38 119 234 38 118 235 38 118 236 38 117 237 38 117 238 38 116 239 38 116 240 38 115 241 38 115 242 38 114 243 38 114 244 38 113 245 38 113 246 38 112 247 38 112 248 38 111 249 38 111 250 38 110 251 38 110 252 38 109 253 38 109 254 38 108 
0 39 235 0 39 234 1 39 234 2 39 233 3 39 233 4 39 232 5 39 232 6 39 231 7 39 231 8 39 230 9 39 230 10 39 229 11 39 229 12 39 228 13 39 228 14 39 227 15 39 227 16 39 226 17 39 226 18 39 225 19 39 225 20 39 224 21 39 224 22 39 223 23 39 223 24 39 222 25 39 222 26 39 221 27 39 221 28 39 220 29 39 220 30 39 219 31 39 219 32 39 218 33 39 218 34 39 217 35 39 217 36 39 216 37 39 216 38 39 215 39 39 215 40 39 214 41 39 214 42 39 213 43 39 213 44 39 212 45 39 212 46 39 211 47 39 211 48 39 210 49 39 210 50 39 209 51 39 209 52 39 208 53 39 208 54 39 207 55 39 207 56 39 206 57 39 206 58 39 205 59 39 205 60 39 204 61 39 204 62 39 203 63 39 203 64 39 202 65 39 202 66 39 201 67 39 201 68 39 200 69 39 200 70 39 199 71 39 199 72 39 198 73 39 198 74 39 197 75 39 197 76 39 196 77 39 196 78 39 195 79 39 195 80 39 194 81 39 194 82 39 193 83 39 193 84 39 192 85 39 192 86 39 191 87 39 191 88 39 190 89 39 190 90 39 189 91 39 189 92 39 188 93 39 188 94 39 187 95 39 187 96 39 186 97 39 186 98 39 185 99 39 185 100 39 184 101 39 184 102 39 183 103 39 183 104 39 182 105 39 182 106 39 181 107 39 181 108 39 180 109 39 180 110 39 179 111 39 179 112 39 178 113 39 178 114 39 177 115 39 177 116 39 176 117 39 176 118 39 175 119 39 175 120 39 174 121 39 174 122 39 173 123 39 173 124 39 172 125 39 172 126 39 171 127 39 171 128 39 170 129 39 170 130 39 169 131 39 169 132 39 168 133 39 168 134 39 167 135 39 167 136 39 166 137 39 166 138 39 165 139 39 165 140 39 164 141 39 164 142 39 163 143 39 163 144 39 162 145 39 162 146 39 161 147 39 161 148 39 160 149 39 160 150 39 159 151 39 159 152 39 158 153 39 158 154 39 157 155 39 157 156 39 156 157 39 156 158 39 155 40 210 70 40 210 70 40 210 70 40 210 70 40 210 70 40 210 70 40 210 70 40 210 70 40 210 70 40 210 70 40 210 70 40 210 70 40 210 70 40 210 70 40 210 70 40 210 70 40 210 70 40 210 70 40 210 70 40 210 70 40 210 70 40 210 70 40 210 70 40 210 70 40 210 70 40 210 70 40 210 70 40 210 70 40 210 70 40 210 70 40 210 70 40 210 70 40 210 70 40 210 70 40 210 70 40 210 70 40 210 70 40 210 70 40 210 70 40 210 70 40 210 70 200 39 134 201 39 134 202 39 133 203 39 133 204 39 132 205 39 132 206 39 131 207 39 131 208 39 130 209 39 130 210 39 129 211 39 129 212 39 128 213 39 128 214 39 127 215 39 127 216 39 127 217 39 126 218 39 126 219 39 125 220 39 125 221 39 124 222 39 124 223 39 123 224 39 123 225 39 122 226 39 122 227 39 121 228 39 121 229 39 120 230 39 120 231 39 119 232 39 119 233 39 118 234 39 118 235 39 117 236 39 117 237 39 116 238 39 116 239 39 115 240 39 115 241 39 114 242 39 114 243 39 113 244 39 113 245 39 112 246 39 112 247 39 111 248 39 111 249 39 110 250 39 110 251 39 109 252 39 109 253 39 108 254 39 108 
0 40 234 0 40 234 1 40 233 2 40 233 3 40 232 4 40 232 5 40 231 6 40 231 7 40 230 8 40 230 9 40 229 10 40 229 11 40 228 12 40 228 13 40 227 14 40 227 15 40 226 16 40 226 17 40 225 18 40 225 19 40 224 20 40 224 21 40 223 22 40 223 23 40 222 24 40 222 25 40 221 26 40 221 27 40 220 28 40 220 29 40 219 30 40 219 31 40 218 32 40 218 33 40 217 34 40 217 35 40 216 36 40 216 37 40 215 38 40 215 39 40 214 220 40 40 220 40 40 220 40 40 220 40 40 220 40 40 220 40 40 220 40 40 220 40 40 220 40 40 220 40 40 220 40 40 220 40 40 220 40 40 220 40 40 220 40 40 220 40 40 220 40 40 220 40 40 220 40 40 220 40 40 220 40 40 220 40 40 220 40 40 220 40 40 220 40 40 220 40 40 220 40 40 220 40 40 220 40 40 220 40 40 220 40 40 220 40 40 220 40 40 220 40 40 220 40 40 220 40 40 220 40 40 220 40 40 220 40 40 220 40 40 220 40 40 220 40 40 220 40 40 220 40 40 220 40 40 220 40 40 220 40 40 220 40 40 220 40 40 220 40 40 220 40 40 220 40 40 220 40 40 220 40 40 220 40 40 220 40 40 220 40 40 220 40 40 220 40 40 220 40 40 220 40 40 220 40 40 220 40 40 220 40 40 220 40 40 220 40 40 220 40 40 220 40 40 220 40 40 220 40 40 220 40 40 220 40 40 220 40 40 220 40 40 220 40 40 220 40 40 220 40 40 220 40 40 220 40 40 119 40 174 120 40 174 121 40 173 122 40 173 123 40 172 124 40 172 125 40 171 126 40 171 127 40 170 128 40 170 129 40 169 130 40 169 131 40 168 132 40 168 133 40 167 134 40 167 135 40 166 136 40 166 137 40 165 138 40 165 139 40 164 140 40 164 141 40 163 142 40 163 143 40 162 144 40 162 145 40 161 146 40 161 147 40 160 148 40 160 149 40 159 150 40 159 151 40 158 152 40 158 153 40 157 154 40 157 155 40 156 156 40 156 40 210 70 40 210 70 40 210 70 40 210 70 40 210 70 40 210 70 40 210 70 40 210 70 40 210 70 40 210 70 40 210 70 40 210 70 40 210 70 40 210 70 40 210 70 40 210 70 40 210 70 40 210 70 40 210 70 40 210 70 40 210 70 40 210 70 40 210 70 40 210 70 40 210 70 40 210 70 40 210 70 40 210 70 40 210 70 40 210 70 40 210 70 40 210 70 40 210 70 40 210 70 40 210 70 40 210 70 40 210 70 40 210 70 40 210 70 40 210 70 40 210 70 40 210 70 40 210 70 40 210 70 40 210 70 202 40 133 203 40 132 204 40 132 205 40 131 206 40 131 207 40 130 208 40 130 209 40 129 210 40 129 211 40 128 212 40 128 213 40 127 214 40 127 215 40 127 216 40 126 217 40 126 218 40 125 219 40 125 220 40 124 221 40 124 222 40 123 223 40 123 224 40 122 225 40 122 226 40 121 227 40 121 228 40 120 229 40 120 230 40 119 231 40 119 232 40 118 233 40 118 234 40 117 235 40 117 236 40 116 237 40 116 238 40 115 239 40 115 240 40 114 241 40 114 242 40 113 243 40 113 244 40 112 245 40 112 246 40 111 247 40 111 248 40 110 249 40 110 250 40 109 251 40 109 252 40 108 253 40 108 254 40 107 
0 41 234 0 41 233 1 41 233 2 41 232 3 41 232 4 41 231 5 41 231 6 41 230 7 41 230 8 41 229 9 41 229 10 41 228 11 41 228 12 41 227 13 41 227 14 41 226 15 41 226 16 41 225 17 41 225 18 41 224 19 41 224 20 41 223 21 41 223 22 41 222 23 41 222 24 41 221 25 41 221 26 41 220 27 41 220 28 41 219 29 41 219 30 41 218 31 41 218 32 41 217 33 41 217 34 41 216 35 41 216 36 41 215 37 41 215 38 41 214 39 41 214 220 40 40 220 40 40 220 40 40 220 40 40 220 40 40 220 40 40 220 40 40 220 40 40 220 40 40 220 40 40 220 40 40 220 40 40 220 40 40 220 40 40 220 40 40 220 40 40 220 40 40 220 40 40 220 40 40 220 40 40 220 40 40 220 40 40 220 40 40 220 40 40 220 40 40 220 40 40 220 40 40 220 40 40 220 40 40 220 40 40 220 40 40 220 40 40 220 40 40 220 40 40 220 40 40 220 40 40 220 40 40 220 40 40 220 40 40 220 40 40 220 40 40 220 40 40 220 40 40 220 40 40 220 40 40 220 40 40 220 40 40 220 40 40 220 40 40 220 40 40 220 40 40 220 40 40 220 40 40 220 40 40 220 40 40 220 40 40 220 40 40 220 40 40 220 40 40 220 40 40 220 40 40 220 40 40 220 40 40 220 40 40 220 40 40 220 40 40 220 40 40 220 40 40 220 40 40 220 40 40 220 40 40 220 40 40 220 40 40 220 40 40 220 40 40 220 40 40 220 40 40 220 40 40 220 40 40 119 41 174 120 41 173 121 41 173 122 41 172 123 41 172 124 41 171 125 41 171 126 41 170 127 41 170 128 41 169 129 41 169 130 41 168 131 41 168 132 41 167 133 41 167 134 41 166 135 41 166 136 41 165 137 41 165 138 41 164 139 41 164 140 41 163 141 41 163 142 41 162 143 41 162 144 41 161 145 41 161 146 41 160 147 41 160 148 41 159 149 41 159 150 41 158 151 41 158 152 41 157 153 41 157 154 41 156 40 210 70 40 210 70 40 210 70 40 210 70 40 210 70 40 210 70 40 210 70 40 210 70 40 210 70 40 210 70 40 210 70 40 210 70 40 210 70 40 210 70 40 210 70 40 210 70 40 210 70 40 210 70 40 210 70 40 210 70 40 210 70 40 210 70 40 210 70 40 210 70 40 210 70 40 210 70 40 210 70 40 210 70 40 210 70 40 210 70 40 210 70 40 210 70 40 210 70 40 210 70 40 210 70 40 210 70 40 210 70 40 210 70 40 210 70 40 210 70 40 210 70 40 210 70 40 210 70 40 210 70 40 210 70 40 210 70 40 210 70 40 210 70 40 210 70 204 41 131 205 41 131 206 41 130 207 41 130 208 41 129 209 41 129 210 41 128 211 41 128 212 41 127 213 41 127 214 41 127 215 41 126 216 41 126 217 41 125 218 41 125 219 41 124 220 41 124 221 41 123 222 41 123 223 41 122 224 41 122 225 41 121 226 41 121 227 41 120 228 41 120 229 41 119 230 41 119 231 41 118 232 41 118 233 41 117 234 41 117 235 41 116 236 41 116 237 41 115 238 41 115 239 41 114 240 41 114 241 41 113 242 41 113 243 41 112 244 41 112 245 41 111 246 41 111 247 41 110 248 41 110 249 41 109 250 41 109 251 41 108 252 41 108 253 41 107 254 41 107 
0 42 233 0 42 233 1 42 232 2 42 232 3 42 231 4 42 231 5 42 230 6 42 230 7 42 229 8 42 229 9 42 228 10 42 228 11 42 227 12 42 227 13 42 226 14 42 226 15 42 225 16 42 225 17 42 224 18 42 224 19 42 223 20 42 223 21 42 222 22 42 222 23 42 221 24 42 221 25 42 220 26 42 220 27 42 219 28 42 219 29 42 218 30 42 218 31 42 217 32 42 217 33 42 216 34 42 216 35 42 215 36 42 215 37 42 214 38 42 214 39 42 213 220 40 40 220 40 40 220 40 40 220 40 40 220 40 40 220 40 40 220 40 40 220 40 40 220 40 40 220 40 40 220 40 40 220 40 40 220 40 40 220 40 40 220 40 40 220 40 40 220 40 40 220 40 40 220 40 40 220 40 40 220 40 40 220 40 40 220 40 40 220 40 40 220 40 40 220 40 40 220 40 40 220 40 40 220 40 40 220 40 40 220 40 40 220 40 40 220 40 40 220 40 40 220 40 40 220 40 40 220 40 40 220 40 40 220 40 40 220 40 40 220 40 40 220 40 40 220 40 40 220 40 40 220 40 40 220 40 40 220 40 40 220 40 40 220 40 40 220 40 40 220 40 40 220 40 40 220 40 40 220 40 40 220 40 40 220 40 40 220 40 40 220 40 40 220 40 40 220 40 40 220 40 40 220 40 40 220 40 40 220 40 40 220 40 40 220 40 40 220 40 40 220 40 40 220 40 40 220 40 40 220 40 40 220 40 40 220 40 40 220 40 40 220 40 40 220 40 40 220 40 40 220 40 40 220 40 40 119 42 173 120 42 173 121 42 172 122 42 172 123 42 171 124 42 171 125 42 170 126 42 170 127 42 169 128 42 169 129 42 168 130 42 168 131 42 167 132 42 167 133 42 166 134 42 166 135 42 165 136 42 165 137 42 164 138 42 164 139 42 163 140 42 163 141 42 162 142 42 162 143 42 161 144 42 161 145 42 160 146 42 160 147 42 159 148 42 159 149 42 158 150 42 158 151 42 157 152 42 157 153 42 156 40 210 70 40 210 70 40 210 70 40 210 70 40 210 70 40 210 70 40 210 70 40 210 70 40 210 70 40 210 70 40 210 70 40 210 70 40 210 70 40 210 70 40 210 70 40 210 70 40 210 70 40 210 70 40 210 70 40 210 70 40 210 70 40 210 70 40 210 70 40 210 70 40 210 70 40 210 70 40 210 70 40 210 70 40 210 70 40 210 70 40 210 70 40 210 70 40 210 70 40 210 70 40 210 70 40 210 70 40 210 70 40 210 70 40 210 70 40 210 70 40 210 70 40 210 70 40 210 70 40 210 70 40 210 70 40 210 70 40 210 70 40 210 70 40 210 70 40 210 70 40 210 70 205 42 130 206 42 130 207 42 129 208 42 129 209 42 128 210 42 128 211 42 127 212 42 127 213 42 127 214 42 126 215 42 126 216 42 125 217 42 125 218 42 124 219 42 124 220 42 123 221 42 123 222 42 122 223 42 122 224 42 121 225 42 121 226 42 120 227 42 120 228 42 119 229 42 119 230 42 118 231 42 118 232 42 117 233 42 117 234 42 116 235 42 116 236 42 115 237 42 115 238 42 114 239 42 114 240 42 113 241 42 113 242 42 112 243 42 112 244 42 111 245 42 111 246 42 110 247 42 110 248 42 109 249 42 109 250 42 108 251 42 108 252 42 107 253 42 107 254 42 106 
0 43 233 0 43 232 1 43 232 2 43 231 3 43 231 4 43 230 5 43 230 6 43 229 7 43 229 8 43 228 9 43 228 10 43 227 11 43 227 12 43 226 13 43 226 14 43 225 15 43 225 16 43 224 17 43 224 18 43 223 19 43 223 20 43 222 21 43 222 22 43 221 23 43 221 24 43 220 25 43 220 26 43 219 27 43 219 28 43 218 29 43 218 30 43 217 31 43 217 32 43 216 33 43 216 34 43 215 35 43 215 36 43 214 37 43 214 38 43 213 39 43 213 220 40 40 220 40 40 220 40 40 220 40 40 220 40 40 220 40 40 220 40 40 220 40 40 220 40 40 220 40 40 220 40 40 220 40 40 220 40 40 220 40 40 220 40 40 220 40 40 220 40 40 220 40 40 220 40 40 220 40 40 220 40 40 220 40 40 220 40 40 220 40 40 220 40 40 220 40 40 220 40 40 220 40 40 220 40 40 220 40 40 220 40 40 220 40 40 220 40 40 220 40 40 220 40 40 220 40 40 220 40 40 220 40 40 220 40 40 220 40 40 220 40 40 220 40 40 220 40 40 220 40 40 220 40 40 220 40 40 220 40 40 220 40 40 220 40 40 220 40 40 220 40 40 220 40 40 220 40 40 220 40 40 220 40 40 220 40 40 220 40 40 220 40 40 220 40 40 220 40 40 220 40 40 220 40 40 220 40 40 220 40 40 220 40 40 220 40 40 220 40 40 220 40 40 220 40 40 220 40 40 220 40 40 220 40 40 220 40 40 220 40 40 220 40 40 220 40 40 220 40 40 220 40 40 220 40 40 119 43 173 120 43 172 121 43 172 122 43 171 123 43 171 124 43 170 125 43 170 126 43 169 127 43 169 128 43 168 129 43 168 130 43 167 131 43 167 132 43 166 133 43 166 134 43 165 135 43 165 136 43 164 137 43 164 138 43 163 139 43 163 140 43 162 141 43 162 142 43 161 143 43 161 144 43 160 145 43 160 146 43 159 147 43 159 148 43 158 149 43 158 150 43 157 151 43 157 152 43 156 40 210 70 40 210 70 40 210 70 40 210 70 40 210 70 40 210 70 40 210 70 40 210 70 40 210 70 40 210 70 40 210 70 40 210 70 40 210 70 40 210 70 40 210 70 40 210 70 40 210 70 40 210 70 40 210 70 40 210 70 40 210 70 40 210 70 40 210 70 40 210 70 40 210 70 40 210 70 40 210 70 40 210 70 40 210 70 40 210 70 40 210 70 40 210 70 40 210 70 40 210 70 40 210 70 40 210 70 40 210 70 40 210 70 40 210 70 40 210 70 40 210 70 40 210 70 40 210 70 40 210 70 40 210 70 40 210 70 40 210 70 40 210 70 40 210 70 40 210 70 40 210 70 40 210 70 40 210 70 206 43 129 207 43 129 208 43 128 209 43 128 210 43 127 211 43 127 212 43 127 213 43 126 214 43 126 215 43 125 216 43 125 217 43 124 218 43 124 219 43 123 220 43 123 221 43 122 222 43 122 223 43 121 224 43 121 225 43 120 226 43 120 227 43 119 228 43 119 229 43 118 230 43 118 231 43 117 232 43 117 233 43 116 234 43 116 235 43 115 236 43 115 237 43 114 238 43 114 239 43 113 240 43 113 241 43 112 242 43 112 243 43 111 244 43 111 245 43 110 246 43 110 247 43 109 248 43 109 249 43 108 250 43 108 251 43 107 252 43 107 253 43 106 254 43 106 
0 44 232 0 44 232 1 44 231 2 44 231 3 44 230 4 44 230 5 44 229 6 44 229 7 44 228 8 44 228 9 44 227 10 44 227 11 44 226 12 44 226 13 44 225 14 44 225 15 44 224 16 44 224 17 44 223 18 44 223 19 44 222 20 44 222 21 44 221 22 44 221 23 44 220 24 44 220 25 44 219 26 44 219 27 44 218 28 44 218 29 44 217 30 44 217 31 44 216 32 44 216 33 44 215 34 44 215 35 44 214 36 44 214 37 44 213 38 44 213 39 44 212 220 40 40 220 40 40 220 40 40 220 40 40 220 40 40 220 40 40 220 40 40 220 40 40 220 40 40 220 40 40 220 40 40 220 40 40 220 40 40 220 40 40 220 40 40 220 40 40 220 40 40 220 40 40 220 40 40 220 40 40 220 40 40 220 40 40 220 40 40 220 40 40 220 40 40 220 40 40 220 40 40 220 40 40 220 40 40 220 40 40 220 40 40 220 40 40 220 40 40 220 40 40 220 40 40 220 40 40 220 40 40 220 40 40 220 40 40 220 40 40 220 40 40 220 40 40 220 40 40 220 40 40 220 40 40 220 40 40 220 40 40 220 40 40 220 40 40 220 40 40 220 40 40 220 40 40 220 40 40 220 40 40 220 40 40 220 40 40 220 40 40 220 40 40 220 40 40 220 40 40 220 40 40 220 40 40 220 40 40 220 40 40 220 40 40 220 40 40 220 40 40 220 40 40 220 40 40 220 40 40 220 40 40 220 40 40 220 40 40 220 40 40 220 40 40 220 40 40 220 40 40 220 40 40 220 40 40 119 44 172 120 44 172 121 44 171 122 44 171 123 44 170 124 44 170 125 44 169 126 44 169 127 44 168 128 44 168 129 44 167 130 44 167 131 44 166 132 44 166 133 44 165 134 44 165 135 44 164 136 44 164 137 44 163 138 44 163 139 44 162 140 44 162 141 44 161 142 44 161 143 44 160 144 44 160 145 44 159 146 44 159 147 44 158 148 44 158 149 44 157 150 44 157 40 210 70 40 210 70 40 210 70 40 210 70 40 210 70 40 210 70 40 210 70 40 210 70 40 210 70 40 210 70 40 210 70 40 210 70 40 210 70 40 210 70 40 210 70 40 210 70 40 210 70 40 210 70 40 210 70 40 210 70 40 210 70 40 210 70 40 210 70 40 210 70 40 210 70 40 210 70 40 210 70 40 210 70 40 210 70 40 210 70 40 210 70 40 210 70 40 210 70 40 210 70 40 210 70 40 210 70 40 210 70 40 210 70 40 210 70 40 210 70 40 210 70 40 210 70 40 210 70 40 210 70 40 210 70 40 210 70 40 210 70 40 210 70 40 210 70 40 210 70 40 210 70 40 210 70 40 210 70 40 210 70 40 210 70 40 210 70 40 210 70 208 44 128 209 44 127 210 44 127 211 44 127 212 44 126 213 44 126 214 44 125 215 44 125 216 44 124 217 44 124 218 44 123 219 44 123 220 44 122 221 44 122 222 44 121 223 44 121 224 44 120 225 44 120 226 44 119 227 44 119 228 44 118 229 44 118 230 44 117 231 44 117 232 44 116 233 44 116 234 44 115 235 44 115 236 44 114 237 44 114 238 44 113 239 44 113 240 44 112 241 44 112 242 44 111 243 44 111 244 44 110 245 44 110 246 44 109 247 44 109 248 44 108 249 44 108 250 44 107 251 44 107 252 44 106 253 44 106 254 44 105 
0 45 232 0 45 231 1 45 231 2 45 230 3 45 230 4 45 229 5 45 229 6 45 228 7 45 228 8 45 227 9 45 227 10 45 226 11 45 226 12 45 225 13 45 225 14 45 224 15 45 224 16 45 223 17 45 223 18 45 222 19 45 222 20 45 221 21 45 221 22 45 220 23 45 220 24 45 219 25 45 219 26 45 218 27 45 218 28 45 217 29 45 217 30 45 216 31 45 216 32 45 215 33 45 215 34 45 214 35 45 214 36 45 213 37 45 213 38 45 212 39 45 212 220 40 40 220 40 40 220 40 40 220 40 40 220 40 40 220 40 40 220 40 40 220 40 40 220 40 40 220 40 40 220 40 40 220 40 40 220 40 40 220 40 40 220 40 40 220 40 40 220 40 40 220 40 40 220 40 40 220 40 40 220 40 40 220 40 40 220 40 40 220 40 40 220 40 40 220 40 40 220 40 40 220 40 40 220 40 40 220 40 40 220 40 40 220 40 40 220 40 40 220 40 40 220 40 40 220 40 40 220 40 40 220 40 40 220 40 40 220 40 40 220 40 40 220 40 40 220 40 40 220 40 40 220 40 40 220 40 40 220 40 40 220 40 40 220 40 40 220 40 40 220 40 40 220 40 40 220 40 40 220 40 40 220 40 40 220 40 40 220 40 40 220 40 40 220 40 40 220 40 40 220 40 40 220 40 40 220 40 40 220 40 40 220 40 40 220 40 40 220 40 40 220 40 40 220 40 40 220 40 40 220 40 40 220 40 40 220 40 40 220 40 40 220 40 40 220 40 40 220 40 40 220 40 40 220 40 40 119 45 172 120 45 171 121 45 171 122 45 170 123 45 170 124 45 169 125 45 169 126 45 168 127 45 168 128 45 167 129 45 167 130 45 166 131 45 166 132 45 165 133 45 165 134 45 164 135 45 164 136 45 163 137 45 163 138 45 162 139 45 162 140 45 161 141 45 161 142 45 160 143 45 160 144 45 159 145 45 159 146 45 158 147 45 158 148 45 157 149 45 157 40 210 70 40 210 70 40 210 70 40 210 70 40 210 70 40 210 70 40 210 70 40 210 70 40 210 70 40 210 70 40 210 70 40 210 70 40 210 70 40 210 70 40 210 70 40 210 70 40 210 70 40 210 70 40 210 70 40 210 70 40 210 70 40 210 70 40 210 70 40 210 70 40 210 70 40 210 70 40 210 70 40 210 70 40 210 70 40 210 70 40 210 70 40 210 70 40 210 70 40 210 70 40 210 70 40 210 70 40 210 70 40 210 70 40 210 70 40 210 70 40 210 70 40 210 70 40 210 70 40 210 70 40 210 70 40 210 70 40 210 70 40 210 70 40 210 70 40 210 70 40 210 70 40 210 70 40 210 70 40 210 70 40 210 70 40 210 70 40 210 70 40 210 70 40 210 70 209 45 127 210 45 127 211 45 126 212 45 126 213 45 125 214 45 125 215 45 124 216 45 124 217 45 123 218 45 123 219 45 122 220 45 122 221 45 121 222 45 121 223 45 120 224 45 120 225 45 119 226 45 119 227 45 118 228 45 118 229 45 117 230 45 117 231 45 116 232 45 116 233 45 115 234 45 115 235 45 114 236 45 114 237 45 113 238 45 113 239 45 112 240 45 112 241 45 111 242 45 111 243 45 110 244 45 110 245 45 109 246 45 109 247 45 108 248 45 108 249 45 107 250 45 107 251 45 106 252 45 106 253 45 105 254 45 105 
0 46 231 0 46 231 1 46 230 2 46 230 3 46 229 4 46 229 5 46 228 6 46 228 7 46 227 8 46 227 9 46 226 10 46 226 11 46 225 12 46 225 13 46 224 14 46 224 15 46 223 16 46 223 17 46 222 18 46 222 19 46 221 20 46 221 21 46 220 22 46 220 23 46 219 24 46 219 25 46 218 26 46 218 27 46 217 28 46 217 29 46 216 30 46 216 31 46 215 32 46 215 33 46 214 34 46 214 35 46 213 36 46 213 37 46 212 38 46 212 39 46 211 220 40 40 220 40 40 220 40 40 220 40 40 220 40 40 220 40 40 220 40 40 220 40 40 220 40 40 220 40 40 220 40 40 220 40 40 220 40 40 220 40 40 220 40 40 220 40 40 220 40 40 220 40 40 220 40 40 220 40 40 220 40 40 220 40 40 220 40 40 220 40 40 220 40 40 220 40 40 220 40 40 220 40 40 220 40 40 220 40 40 220 40 40 220 40 40 220 40 40 220 40 40 220 40 40 220 40 40 220 40 40 220 40 40 220 40 40 220 40 40 220 40 40 220 40 40 220 40 40 220 40 40 220 40 40 220 40 40 220 40 40 220 40 40 220 40 40 220 40 40 220 40 40 220 40 40 220 40 40 220 40 40 220 40 40 220 40 40 220 40 40 220 40 40 220 40 40 220 40 40 220 40 40 220 40 40 220 40 40 220 40 40 220 40 40 220 40 40 220 40 40 220 40 40 220 40 40 220 40 40 220 40 40 220 40 40 220 40 40 220 40 40 220 40 40 220 40 40 220 40 40 220 40 40 220 40 40 119 46 171 120 46 171 121 46 170 122 46 170 123 46 169 124 46 169 125 46 168 126 46 168 127 46 167 128 46 167 129 46 166 130 46 166 131 46 165 132 46 165 133 46 164 134 46 164 135 46 163 136 46 163 137 46 162 138 46 162 139 46 161 140 46 161 141 46 160 142 46 160 143 46 159 144 46 159 145 46 158 146 46 158 147 46 157 148 46 157 40 210 70 40 210 70 40 210 70 40 210 70 40 210 70 40 210 70 40 210 70 40 210 70 40 210 70 40 210 70 40 210 70 40 210 70 40 210 70 40 210 70 40 210 70 40 210 70 40 210 70 40 210 70 40 210 70 40 210 70 40 210 70 40 210 70 40 210 70 40 210 70 40 210 70 40 210 70 40 210 70 40 210 70 40 210 70 40 210 70 40 210 70 40 210 70 40 210 70 40 210 70 40 210 70 40 210 70 40 210 70 40 210 70 40 210 70 40 210 70 40 210 70 40 210 70 40 210 70 40 210 70 40 210 70 40 210 70 40 210 70 40 210 70 40 210 70 40 210 70 40 210 70 40 210 70 40 210 70 40 210 70 40 210 70 40 210 70 40 210 70 40 210 70 40 210 70 40 210 70 40 210 70 210 46 126 211 46 126 212 46 125 213 46 125 214 46 124 215 46 124 216 46 123 217 46 123 218 46 122 219 46 122 220 46 121 221 46 121 222 46 120 223 46 120 224 46 119 225 46 119 226 46 118 227 46 118 228 46 117 229 46 117 230 46 116 231 46 116 232 46 115 233 46 115 234 46 114 235 46 114 236 46 113 237 46 113 238 46 112 239 46 112 240 46 111 241 46 111 242 46 110 243 46 110 244 46 109 245 46 109 246 46 108 247 46 108 248 46 107 249 46 107 250 46 106 251 46 106 252 46 105 253 46 105 254 46 104 
0 47 231 0 47 230 1 47 230 2 47 229 3 47 229 4 47 228 5 47 228 6 47 227 7 47 227 8 47 226 9 47 226 10 47 225 11 47 225 12 47 224 13 47 224 14 47 223 15 47 223 16 47 222 17 47 222 18 47 221 19 47 221 20 47 220 21 47 220 22 47 219 23 47 219 24 47 218 25 47 218 26 47 217 27 47 217 28 47 216 29 47 216 30 47 215 31 47 215 32 47 214 33 47 214 34 47 213 35 47 213 36 47 212 37 47 212 38 47 211 39 47 211 220 40 40 220 40 40 220 40 40 220 40 40 220 40 40 220 40 40 220 40 40 220 40 40 220 40 40 220 40 40 220 40 40 220 40 40 220 40 40 220 40 40 220 40 40 220 40 40 220 40 40 220 40 40 220 40 40 220 40 40 220 40 40 220 40 40 220 40 40 220 40 40 220 40 40 220 40 40 220 40 40 220 40 40 220 40 40 220 40 40 220 40 40 220 40 40 220 40 40 220 40 40 220 40 40 220 40 40 220 40 40 220 40 40 220 40 40 220 40 40 220 40 40 220 40 40 220 40 40 220 40 40 220 40 40 220 40 40 220 40 40 220 40 40 220 40 40 220 40 40 220 40 40 220 40 40 220 40 40 220 40 40 220 40 40 220 40 40 220 40 40 220 40 40 220 40 40 220 40 40 220 40 40 220 40 40 220 40 40 220 40 40 220 40 40 220 40 40 220 40 40 220 40 40 220 40 40 220 40 40 220 40 40 220 40 40 220 40 40 220 40 40 220 40 40 220 40 40 220 40 40 220 40 40 220 40 40 119 47 171 120 47 170 121 47 170 122 47 169 123 47 169 124 47 168 125 47 168 126 47 167 127 47 167 128 47 166 129 47 166 130 47 165 131 47 165 132 47 164 133 47 164 134 47 163 135 47 163 136 47 162 137 47 162 138 47 161 139 47 161 140 47 160 141 47 160 142 47 159 143 47 159 144 47 158 145 47 158 146 47 157 147 47 157 40 210 70 40 210 70 40 210 70 40 210 70 40 210 70 40 210 70 40 210 70 40 210 70 40 210 70 40 210 70 40 210 70 40 210 70 40 210 70 40 210 70 40 210 70 40 210 70 40 210 70 40 210 70 40 210 70 40 210 70 40 210 70 40 210 70 40 210 70 40 210 70 40 210 70 40 210 70 40 210 70 40 210 70 40 210 70 40 210 70 40 210 70 40 210 70 40 210 70 40 210 70 40 210 70 40 210 70 40 210 70 40 210 70 40 210 70 40 210 70 40 210 70 40 210 70 40 210 70 40 210 70 40 210 70 40 210 70 40 210 70 40 210 70 40 210 70 40 210 70 40 210 70 40 210 70 40 210 70 40 210 70 40 210 70 40 210 70 40 210 70 40 210 70 40 210 70 40 210 70 40 210 70 40 210 70 40 210 70 211 47 125 212 47 125 213 47 124 214 47 124 215 47 123 216 47 123 217 47 122 218 47 122 219 47 121 220 47 121 221 47 120 222 47 120 223 47 119 224 47 119 225 47 118 226 47 118 227 47 117 228 47 117 229 47 116 230 47 116 231 47 115 232 47 115 233 47 114 234 47 114 235 47 113 236 47 113 237 47 112 238 47 112 239 47 111 240 47 111 241 47 110 242 47 110 243 47 109 244 47 109 245 47 108 246 47 108 247 47 107 248 47 107 249 47 106 250 47 106 251 47 105 252 47 105 253 47 104 254 47 104 
0 48 230 0 48 230 1 48 229 2 48 229 3 48 228 4 48 228 5 48 227 6 48 227 7 48 226 8 48 226 9 48 225 10 48 225 11 48 224 12 48 224 13 48 223 14 48 223 15 48 222 16 48 222 17 48 221 18 48 221 19 48 220 20 48 220 21 48 219 22 48 219 23 48 218 24 48 218 25 48 217 26 48 217 27 48 216 28 48 216 29 48 215 30 48 215 31 48 214 32 48 214 33 48 213 34 48 213 35 48 212 36 48 212 37 48 211 38 48 211 39 48 210 220 40 40 220 40 40 220 40 40 220 40 40 220 40 40 220 40 40 220 40 40 220 40 40 220 40 40 220 40 40 220 40 40 220 40 40 220 40 40 220 40 40 220 40 40 220 40 40 220 40 40 220 40 40 220 40 40 220 40 40 220 40 40 220 40 40 220 40 40 220 40 40 220 40 40 220 40 40 220 40 40 220 40 40 220 40 40 220 40 40 220 40 40 220 40 40 220 40 40 220 40 40 220 40 40 220 40 40 220 40 40 220 40 40 220 40 40 220 40 40 220 40 40 220 40 40 220 40 40 220 40 40 220 40 40 220 40 40 220 40 40 220 40 40 220 40 40 220 40 40 220 40 40 220 40 40 220 40 40 220 40 40 220 40 40 220 40 40 220 40 40 220 40 40 220 40 40 220 40 40 220 40 40 220 40 40 220 40 40 220 40 40 220 40 40 220 40 40 220 40 40 220 40 40 220 40 40 220 40 40 220 40 40 220 40 40 220 40 40 220 40 40 220 40 40 220 40 40 220 40 40 220 40 40 220 40 40 119 48 170 120 48 170 121 48 169 122 48 169 123 48 168 124 48 168 125 48 167 126 48 167 127 48 166 128 48 166 129 48 165 130 48 165 131 48 164 132 48 164 133 48 163 134 48 163 135 48 162 136 48 162 137 48 161 138 48 161 139 48 160 140 48 160 141 48 159 142 48 159 143 48 158 144 48 158 145 48 157 146 48 157 40 210 70 40 210 70 40 210 70 40 210 70 40 210 70 40 210 70 40 210 70 40 210 70 40 210 70 40 210 70 40 210 70 40 210 70 40 210 70 40 210 70 40 210 70 40 210 70 40 210 70 40 210 70 40 210 70 40 210 70 40 210 70 40 210 70 40 210 70 40 210 70 40 210 70 40 210 70 40 210 70 40 210 70 40 210 70 40 210 70 40 210 70 40 210 70 40 210 70 40 210 70 40 210 70 40 210 70 40 210 70 40 210 70 40 210 70 40 210 70 40 210 70 40 210 70 40 210 70 40 210 70 40 210 70 40 210 70 40 210 70 40 210 70 40 210 70 40 210 70 40 210 70 40 210 70 40 210 70 40 210 70 40 210 70 40 210 70 40 210 70 40 210 70 40 210 70 40 210 70 40 210 70 40 210 70 40 210 70 40 210 70 40 210 70 212 48 124 213 48 124 214 48 123 215 48 123 216 48 122 217 48 122 218 48 121 219 48 121 220 48 120 221 48 120 222 48 119 223 48 119 224 48 118 225 48 118 226 48 117 227 48 117 228 48 116 229 48 116 230 48 115 231 48 115 232 48 114 233 48 114 234 48 113 235 48 113 236 48 112 237 48 112 238 48 111 239 48 111 240 48 110 241 48 110 242 48 109 243 48 109 244 48 108 245 48 108 246 48 107 247 48 107 248 48 106 249 48 106 250 48 105 251 48 105 252 48 104 253 48 104 254 48 103 
0 49 230 0 49 229 1 49 229 2 49 228 3 49 228 4 49 227 5 49 227 6 49 226 7 49 226 8 49 225 9 49 225 10 49 224 11 49 224 12 49 223 13 49 223 14 49 222 15 49 222 16 49 221 17 49 221 18 49 220 19 49 220 20 49 219 21 49 219 22 49 218 23 49 218 24 49 217 25 49 217 26 49 216 27 49 216 28 49 215 29 49 215 30 49 214 31 49 214 32 49 213 33 49 213 34 49 212 35 49 212 36 49 211 37 49 211 38 49 210 39 49 210 220 40 40 220 40 40 220 40 40 220 40 40 220 40 40 220 40 40 220 40 40 220 40 40 220 40 40 220 40 40 220 40 40 220 40 40 220 40 40 220 40 40 220 40 40 220 40 40 220 40 40 220 40 40 220 40 40 220 40 40 220 40 40 220 40 40 220 40 40 220 40 40 220 40 40 220 40 40 220 40 40 220 40 40 220 40 40 220 40 40 220 40 40 220 40 40 220 40 40 220 40 40 220 40 40 220 40 40 220 40 40 220 40 40 220 40 40 220 40 40 220 40 40 220 40 40 220 40 40 220 40 40 220 40 40 220 40 40 220 40 40 220 40 40 220 40 40 220 40 40 220 40 40 220 40 40 220 40 40 220 40 40 220 40 40 220 40 40 220 40 40 220 40 40 220 40 40 220 40 40 220 40 40 220 40 40 220 40 40 220 40 40 220 40 40 220 40 40 220 40 40 220 40 40 220 40 40 220 40 40 220 40 40 220 40 40 220 40 40 220 40 40 220 40 40 220 40 40 220 40 40 220 40 40 220 40 40 119 49 170 120 49 169 121 49 169 122 49 168 123 49 168 124 49 167 125 49 167 126 49 166 127 49 166 128 49 165 129 49 165 130 49 164 131 49 164 132 49 163 133 49 163 134 49 162 135 49 162 136 49 161 137 49 161 138 49 160 139 49 160 140 49 159 141 49 159 142 49 158 143 49 158 144 49 157 145 49 157 40 210 70 40 210 70 40 210 70 40 210 70 40 210 70 40 210 70 40 210 70 40 210 70 40 210 70 40 210 70 40 210 70 40 210 70 40 210 70 40 210 70 40 210 70 40 210 70 40 210 70 40 210 70 40 210 70 40 210 70 40 210 70 40 210 70 40 210 70 40 210 70 40 210 70 40 210 70 40 210 70 40 210 70 40 210 70 40 210 70 40 210 70 40 210 70 40 210 70 40 210 70 40 210 70 40 210 70 40 210 70 40 210 70 40 210 70 40 210 70 40 210 70 40 210 70 40 210 70 40 210 70 40 210 70 40 210 70 40 210 70 40 210 70 40 210 70 40 210 70 40 210 70 40 210 70 40 210 70 40 210 70 40 210 70 40 210 70 40 210 70 40 210 70 40 210 70 40 210 70 40 210 70 40 210 70 40 210 70 40 210 70 40 210 70 40 210 70 40 210 70 213 49 123 214 49 123 215 49 122 216 49 122 217 49 121 218 49 121 219 49 120 220 49 120 221 49 119 222 49 119 223 49 118 224 49 118 225 49 117 226 49 117 227 49 116 228 49 116 229 49 115 230 49 115 231 49 114 232 49 114 233 49 113 234 49 113 235 49 112 236 49 112 237 49 111 238 49 111 239 49 110 240 49 110 241 49 109 242 49 109 243 49 108 244 49 108 245 49 107 246 49 107 247 49 106 248 49 106 249 49 105 250 49 105 251 49 104 252 49 104 253 49 103 254 49 103 
0 50 229 0 50 229 1 50 228 2 50 228 3 50 227 4 50 227 5 50 226 6 50 226 7 50 225 8 50 225 9 50 224 10 50 224 11 50 223 12 50 223 13 50 222 14 50 222 15 50 221 16 50 221 17 50 220 18 50 220 19 50 219 20 50 219 21 50 218 22 50 218 23 50 217 24 50 217 25 50 216 26 50 216 27 50 215 28 50 215 29 50 214 30 50 214 31 50 213 32 50 213 33 50 212 34 50 212 35 50 211 36 50 211 37 50 210 38 50 210 39 50 209 220 40 40 220 40 40 220 40 40 220 40 40 220 40 40 220 40 40 220 40 40 220 40 40 220 40 40 220 40 40 220 40 40 220 40 40 220 40 40 220 40 40 220 40 40 220 40 40 220 40 40 220 40 40 220 40 40 220 40 40 220 40 40 220 40 40 220 40 40 220 40 40 220 40 40 220 40 40 220 40 40 220 40 40 220 40 40 220 40 40 220 40 40 220 40 40 220 40 40 220 40 40 220 40 40 220 40 40 220 40 40 220 40 40 220 40 40 220 40 40 220 40 40 220 40 40 220 40 40 220 40 40 220 40 40 220 40 40 220 40 40 220 40 40 220 40 40 220 40 40 220 40 40 220 40 40 220 40 40 220 40 40 220 40 40 220 40 40 220 40 40 220 40 40 220 40 40 220 40 40 220 40 40 220 40 40 220 40 40 220 40 40 220 40 40 220 40 40 220 40 40 220 40 40 220 40 40 220 40 40 220 40 40 220 40 40 220 40 40 220 40 40 220 40 40 220 40 40 220 40 40 220 40 40 220 40 40 119 50 169 120 50 169 121 50 168 122 50 168 123 50 167 124 50 167 125 50 166 126 50 166 127 50 165 128 50 165 129 50 164 130 50 164 131 50 163 132 50 163 133 50 162 134 50 162 135 50 161 136 50 161 137 50 160 138 50 160 139 50 159 140 50 159 141 50 158 142 50 158 143 50 157 144 50 157 40 210 70 40 210 70 40 210 70 40 210 70 40 210 70 40 210 70 40 210 70 40 210 70 40 210 70 40 210 70 40 210 70 40 210 70 40 210 70 40 210 70 40 210 70 40 210 70 40 210 70 40 210 70 40 210 70 40 210 70 40 210 70 40 210 70 40 210 70 40 210 70 40 210 70 40 210 70 40 210 70 40 210 70 40 210 70 40 210 70 40 210 70 40 210 70 40 210 70 40 210 70 40 210 70 40 210 70 40 210 70 40 210 70 40 210 70 40 210 70 40 210 70 40 210 70 40 210 70 40 210 70 40 210 70 40 210 70 40 210 70 40 210 70 40 210 70 40 210 70 40 210 70 40 210 70 40 210 70 40 210 70 40 210 70 40 210 70 40 210 70 40 210 70 40 210 70 40 210 70 40 210 70 40 210 70 40 210 70 40 210 70 40 210 70 40 210 70 40 210 70 40 210 70 40 210 70 214 50 122 215 50 122 216 50 121 217 50 121 218 50 120 219 50 120 220 50 119 221 50 119 222 50 118 223 50 118 224 50 117 225 50 117 226 50 116 227 50 116 228 50 115 229 50 115 230 50 114 231 50 114 232 50 113 233 50 113 234 50 112 235 50 112 236 50 111 237 50 111 238 50 110 239 50 110 240 50 109 241 50 109 242 50 108 243 50 108 244 50 107 245 50 107 246 50 106 247 50 106 248 50 105 249 50 105 250 50 104 251 50 104 252 50 103 253 50 103 254 50 102 
0 51 229 0 51 228 1 51 228 2 51 227 3 51 227 4 51 226 5 51 226 6 51 225 7 51 225 8 51 224 9 51 224 10 51 223 11 51 223 12 51 222 13 51 222 14 51 221 15 51 221 16 51 220 17 51 220 18 51 219 19 51 219 20 51 218 21 51 218 22 51 217 23 51 217 24 51 216 25 51 216 26 51 215 27 51 215 28 51 214 29 51 214 30 51 213 31 51 213 32 51 212 33 51 212 34 51 211 35 51 211 36 51 210 37 51 210 38 51 209 39 51 209 220 40 40 220 40 40 220 40 40 220 40 40 220 40 40 220 40 40 220 40 40 220 40 40 220 40 40 220 40 40 220 40 40 220 40 40 220 40 40 220 40 40 220 40 40 220 40 40 220 40 40 220 40 40 220 40 40 220 40 40 220 40 40 220 40 40 220 40 40 220 40 40 220 40 40 220 40 40 220 40 40 220 40 40 220 40 40 220 40 40 220 40 40 220 40 40 220 40 40 220 40 40 220 40 40 220 40 40 220 40 40 220 40 40 220 40 40 220 40 40 220 40 40 220 40 40 220 40 40 220 40 40 220 40 40 220 40 40 220 40 40 220 40 40 220 40 40 220 40 40 220 40 40 220 40 40 220 40 40 220 40 40 220 40 40 220 40 40 220 40 40 220 40 40 220 40 40 220 40 40 220 40 40 220 40 40 220 40 40 220 40 40 220 40 40 220 40 40 220 40 40 220 40 40 220 40 40 220 40 40 220 40 40 220 40 40 220 40 40 220 40 40 220 40 40 220 40 40 220 40 40 220 40 40 220 40 40 119 51 169 120 51 168 121 51 168 122 51 167 123 51 167 124 51 166 125 51 166 126 51 165 127 51 165 128 51 164 129 51 164 130 51 163 131 51 163 132 51 162 133 51 162 134 51 161 135 51 161 136 51 160 137 51 160 138 51 159 139 51 159 140 51 158 141 51 158 142 51 157 143 51 157 40 210 70 40 210 70 40 210 70 40 210 70 40 210 70 40 210 70 40 210 70 40 210 70 40 210 70 40 210 70 40 210 70 40 210 70 40 210 70 40 210 70 40 210 70 40 210 70 40 210 70 40 210 70 40 210 70 40 210 70 40 210 70 40 210 70 40 210 70 40 210 70 40 210 70 40 210 70 40 210 70 40 210 70 40 210 70 40 210 70 40 210 70 40 210 70 40 210 70 40 210 70 40 210 70 40 210 70 40 210 70 40 210 70 40 210 70 40 210 70 40 210 70 40 210 70 40 210 70 40 210 70 40 210 70 40 210 70 40 210 70 40 210 70 40 210 70 40 210 70 40 210 70 40 210 70 40 210 70 40 210 70 40 210 70 40 210 70 40 210 70 40 210 70 40 210 70 40 210 70 40 210 70 40 210 70 40 210 70 40 210 70 40 210 70 40 210 70 40 210 70 40 210 70 40 210 70 40 210 70 40 210 70 215 51 121 216 51 121 217 51 120 218 51 120 219 51 119 220 51 119 221 51 118 222 51 118 223 51 117 224 51 117 225 51 116 226 51 116 227 51 115 228 51 115 229 51 114 230 51 114 231 51 113 232 51 113 233 51 112 234 51 112 235 51 111 236 51 111 237 51 110 238 51 110 239 51 109 240 51 109 241 51 108 242 51 108 243 51 107 244 51 107 245 51 106 246 51 106 247 51 105 248 51 105 249 51 104 250 51 104 251 51 103 252 51 103 253 51 102 254 51 102 
0 52 228 0 52 228 1 52 227 2 52 227 3 52 226 4 52 226 5 52 225 6 52 225 7 52 224 8 52 224 9 52 223 10 52 223 11 52 222 12 52 222 13 52 221 14 52 221 15 52 220 16 52 220 17 52 219 18 52 219 19 52 218 20 52 218 21 52 217 22 52 217 23 52 216 24 52 216 25 52 215 26 52 215 27 52 214 28 52 214 29 52 213 30 52 213 31 52 212 32 52 212 33 52 211 34 52 211 35 52 210 36 52 210 37 52 209 38 52 209 39 52 208 220 40 40 220 40 40 220 40 40 220 40 40 220 40 40 220 40 40 220 40 40 220 40 40 220 40 40 220 40 40 220 40 40 220 40 40 220 40 40 220 40 40 220 40 40 220 40 40 220 40 40 220 40 40 220 40 40 220 40 40 220 40 40 220 40 40 220 40 40 220 40 40 220 40 40 220 40 40 220 40 40 220 40 40 220 40 40 220 40 40 220 40 40 220 40 40 220 40 40 220 40 40 220 40 40 220 40 40 220 40 40 220 40 40 220 40 40 220 40 40 220 40 40 220 40 40 220 40 40 220 40 40 220 40 40 220 40 40 220 40 40 220 40 40 220 40 40 220 40 40 220 40 40 220 40 40 220 40 40 220 40 40 220 40 40 220 40 40 220 40 40 220 40 40 220 40 40 220 40 40 220 40 40 220 40 40 220 40 40 220 40 40 220 40 40 220 40 40 220 40 40 220 40 40 220 40 40 220 40 40 220 40 40 220 40 40 220 40 40 220 40 40 220 40 40 220 40 40 220 40 40 220 40 40 220 40 40 119 52 168 120 52 168 121 52 167 122 52 167 123 52 166 124 52 166 125 52 165 126 52 165 127 52 164 128 52 164 129 52 163 130 52 163 131 52 162 132 52 162 133 52 161 134 52 161 135 52 160 136 52 160 137 52 159 138 52 159 139 52 158 140 52 158 141 52 157 142 52 157 143 52 156 40 210 70 40 210 70 40 210 70 40 210 70 40 210 70 40 210 70 40 210 70 40 210 70 40 210 70 40 210 70 40 210 70 40 210 70 40 210 70 40 210 70 40 210 70 40 210 70 40 210 70 40 210 70 40 210 70 40 210 70 40 210 70 40 210 70 40 210 70 40 210 70 40 210 70 40 210 70 40 210 70 40 210 70 40 210 70 40 210 70 40 210 70 40 210 70 40 210 70 40 210 70 40 210 70 40 210 70 40 210 70 40 210 70 40 210 70 40 210 70 40 210 70 40 210 70 40 210 70 40 210 70 40 210 70 40 210 70 40 210 70 40 210 70 40 210 70 40 210 70 40 210 70 40 210 70 40 210 70 40 210 70 40 210 70 40 210 70 40 210 70 40 210 70 40 210 70 40 210 70 40 210 70 40 210 70 40 210 70 40 210 70 40 210 70 40 210 70 40 210 70 40 210 70 40 210 70 40 210 70 40 210 70 215 52 121 216 52 120 217 52 120 218 52 119 219 52 119 220 52 118 221 52 118 222 52 117 223 52 117 224 52 116 225 52 116 226 52 115 227 52 115 228 52 114 229 52 114 230 52 113 231 52 113 232 52 112 233 52 112 234 52 111 235 52 111 236 52 110 237 52 110 238 52 109 239 52 109 240 52 108 241 52 108 242 52 107 243 52 107 244 52 106 245 52 106 246 52 105 247 52 105 248 52 104 249 52 104 250 52 103 251 52 103 252 52 102 253 52 102 254 52 101 
0 53 228 0 53 227 1 53 227 2 53 226 3 53 226 4 53 225 5 53 225 6 53 224 7 53 224 8 53 223 9 53 223 10 53 222 11 53 222 12 53 221 13 53 221 14 53 220 15 53 220 16 53 219 17 53 219 18 53 218 19 53 218 20 53 217 21 53 217 22 53 216 23 53 216 24 53 215 25 53 215 26 53 214 27 53 214 28 53 213 29 53 213 30 53 212 31 53 212 32 53 211 33 53 211 34 53 210 35 53 210 36 53 209 37 53 209 38 53 208 39 53 208 220 40 40 220 40 40 220 40 40 220 40 40 220 40 40 220 40 40 220 40 40 220 40 40 220 40 40 220 40 40 220 40 40 220 40 40 220 40 40 220 40 40 220 40 40 220 40 40 220 40 40 220 40 40 220 40 40 220 40 40 220 40 40 220 40 40 220 40 40 220 40 40 220 40 40 220 40 40 220 40 40 220 40 40 220 40 40 220 40 40 220 40 40 220 40 40 220 40 40 220 40 40 220 40 40 220 40 40 220 40 40 220 40 40 220 40 40 220 40 40 220 40 40 220 40 40 220 40 40 220 40 40 220 40 40 220 40 40 220 40 40 220 40 40 220 40 40 220 40 40 220 40 40 220 40 40 220 40 40 220 40 40 220 40 40 220 40 40 220 40 40 220 40 40 220 40 40 220 40 40 220 40 40 220 40 40 220 40 40 220 40 40 220 40 40 220 40 40 220 40 40 220 40 40 220 40 40 220 40 40 220 40 40 220 40 40 220 40 40 220 40 40 220 40 40 220 40 40 220 40 40 220 40 40 220 40 40 119 53 168 120 53 167 121 53 167 122 53 166 123 53 166 124 53 165 125 53 165 126 53 164 127 53 164 128 53 163 129 53 163 130 53 162 131 53 162 132 53 161 133 53 161 134 53 160 135 53 160 136 53 159 137 53 159 138 53 158 139 53 158 140 53 157 141 53 157 142 53 156 40 210 70 40 210 70 40 210 70 40 210 70 40 210 70 40 210 70 40 210 70 40 210 70 40 210 70 40 210 70 40 210 70 40 210 70 40 210 70 40 210 70 40 210 70 40 210 70 40 210 70 40 210 70 40 210 70 40 210 70 40 210 70 40 210 70 40 210 70 40 210 70 40 210 70 40 210 70 40 210 70 40 210 70 40 210 70 40 210 70 40 210 70 40 210 70 40 210 70 40 210 70 40 210 70 40 210 70 40 210 70 40 210 70 40 210 70 40 210 70 40 210 70 40 210 70 40 210 70 40 210 70 40 210 70 40 210 70 40 210 70 40 210 70 40 210 70 40 210 70 40 210 70 40 210 70 40 210 70 40 210 70 40 210 70 40 210 70 40 210 70 40 210 70 40 210 70 40 210 70 40 210 70 40 210 70 40 210 70 40 210 70 40 210 70 40 210 70 40 210 70 40 210 70 40 210 70 40 210 70 40 210 70 40 210 70 40 210 70 216 53 120 217 53 119 218 53 119 219 53 118 220 53 118 221 53 117 222 53 117 223 53 116 224 53 116 225 53 115 226 53 115 227 53 114 228 53 114 229 53 113 230 53 113 231 53 112 232 53 112 233 53 111 234 53 111 235 53 110 236 53 110 237 53 109 238 53 109 239 53 108 240 53 108 241 53 107 242 53 107 243 53 106 244 53 106 245 53 105 246 53 105 247 53 104 248 53 104 249 53 103 250 53 103 251 53 102 252 53 102 253 53 101 254 53 101 
0 54 227 0 54 227 1 54 226 2 54 226 3 54 225 4 54 225 5 54 224 6 54 224 7 54 223 8 54 223 9 54 222 10 54 222 11 54 221 12 54 221 13 54 220 14 54 220 15 54 219 16 54 219 17 54 218 18 54 218 19 54 217 20 54 217 21 54 216 22 54 216 23 54 215 24 54 215 25 54 214 26 54 214 27 54 213 28 54 213 29 54 212 30 54 212 31 54 211 32 54 211 33 54 210 34 54 210 35 54 209 36 54 209 37 54 208 38 54 208 39 54 207 220 40 40 220 40 40 220 40 40 220 40 40 220 40 40 220 40 40 220 40 40 220 40 40 220 40 40 220 40 40 220 40 40 220 40 40 220 40 40 220 40 40 220 40 40 220 40 40 220 40 40 220 40 40 220 40 40 220 40 40 220 40 40 220 40 40 220 40 40 220 40 40 220 40 40 220 40 40 220 40 40 220 40 40 220 40 40 220 40 40 220 40 40 220 40 40 220 40 40 220 40 40 220 40 40 220 40 40 220 40 40 220 40 40 220 40 40 220 40 40 220 40 40 220 40 40 220 40 40 220 40 40 220 40 40 220 40 40 220 40 40 220 40 40 220 40 40 220 40 40 220 40 40 220 40 40 220 40 40 220 40 40 220 40 40 220 40 40 220 40 40 220 40 40 220 40 40 220 40 40 220 40 40 220 40 40 220 40 40 220 40 40 220 40 40 220 40 40 220 40 40 220 40 40 220 40 40 220 40 40 220 40 40 220 40 40 220 40 40 220 40 40 220 40 40 220 40 40 220 40 40 220 40 40 220 40 40 119 54 167 120 54 167 121 54 166 122 54 166 123 54 165 124 54 165 125 54 164 126 54 164 127 54 163 128 54 163 129 54 162 130 54 162 131 54 161 132 54 161 133 54 160 134 54 160 135 54 159 136 54 159 137 54 158 138 54 158 139 54 157 140 54 157 141 54 156 40 210 70 40 210 70 40 210 70 40 210 70 40 210 70 40 210 70 40 210 70 40 210 70 40 210 70 40 210 70 40 210 70 40 210 70 40 210 70 40 210 70 40 210 70 40 210 70 40 210 70 40 210 70 40 210 70 40 210 70 40 210 70 40 210 70 40 210 70 40 210 70 40 210 70 40 210 70 40 210 70 40 210 70 40 210 70 40 210 70 40 210 70 40 210 70 40 210 70 40 210 70 40 210 70 40 210 70 40 210 70 40 210 70 40 210 70 40 210 70 40 210 70 40 210 70 40 210 70 40 210 70 40 210 70 40 210 70 40 210 70 40 210 70 40 210 70 40 210 70 40 210 70 40 210 70 40 210 70 40 210 70 40 210 70 40 210 70 40 210 70 40 210 70 40 210 70 40 210 70 40 210 70 40 210 70 40 210 70 40 210 70 40 210 70 40 210 70 40 210 70 40 210 70 40 210 70 40 210 70 40 210 70 40 210 70 40 210 70 40 210 70 40 210 70 217 54 119 218 54 118 219 54 118 220 54 117 221 54 117 222 54 116 223 54 116 224 54 115 225 54 115 226 54 114 227 54 114 228 54 113 229 54 113 230 54 112 231 54 112 232 54 111 233 54 111 234 54 110 235 54 110 236 54 109 237 54 109 238 54 108 239 54 108 240 54 107 241 54 107 242 54 106 243 54 106 244 54 105 245 54 105 246 54 104 247 54 104 248 54 103 249 54 103 250 54 102 251 54 102 252 54 101 253 54 101 254 54 100 
0 55 227 0 55 226 1 55 226 2 55 225 3 55 225 4 55 224 5 55 224 6 55 223 7 55 223 8 55 222 9 55 222 10 55 221 11 55 221 12 55 220 13 55 220 14 55 219 15 55 219 16 55 218 17 55 218 18 55 217 19 55 217 20 55 216 21 55 216 22 55 215 23 55 215 24 55 214 25 55 214 26 55 213 27 55 213 28 55 212 29 55 212 30 55 211 31 55 211 32 55 210 33 55 210 34 55 209 35 55 209 36 55 208 37 55 208 38 55 207 39 55 207 220 40 40 220 40 40 220 40 40 220 40 40 220 40 40 220 40 40 220 40 40 220 40 40 220 40 40 220 40 40 220 40 40 220 40 40 220 40 40 220 40 40 220 40 40 220 40 40 220 40 40 220 40 40 220 40 40 220 40 40 220 40 40 220 40 40 220 40 40 220 40 40 220 40 40 220 40 40 220 40 40 220 40 40 220 40 40 220 40 40 220 40 40 220 40 40 220 40 40 220 40 40 220 40 40 220 40 40 220 40 40 220 40 40 220 40 40 220 40 40 220 40 40 220 40 40 220 40 40 220 40 40 220 40 40 220 40 40 220 40 40 220 40 40 220 40 40 220 40 40 220 40 40 220 40 40 220 40 40 220 40 40 220 40 40 220 40 40 220 40 40 220 40 40 220 40 40 220 40 40 220 40 40 220 40 40 220 40 40 220 40 40 220 40 40 220 40 40 220 40 40 220 40 40 220 40 40 220 40 40 220 40 40 220 40 40 220 40 40 220 40 40 220 40 40 220 40 40 220 40 40 220 40 40 220 40 40 119 55 167 120 55 166 121 55 166 122 55 165 123 55 165 124 55 164 125 55 164 126 55 163 127 55 163 128 55 162 129 55 162 130 55 161 131 55 161 132 55 160 133 55 160 134 55 159 135 55 159 136 55 158 137 55 158 138 55 157 139 55 157 140 55 156 40 210 70 40 210 70 40 210 70 40 210 70 40 210 70 40 210 70 40 210 70 40 210 70 40 210 70 40 210 70 40 210 70 40 210 70 40 210 70 40 210 70 40 210 70 40 210 70 40 210 70 40 210 70 40 210 70 40 210 70 40 210 70 40 210 70 40 210 70 40 210 70 40 210 70 40 210 70 40 210 70 40 210 70 40 210 70 40 210 70 40 210 70 40 210 70 40 210 70 40 210 70 40 210 70 40 210 70 40 210 70 40 210 70 40 210 70 40 210 70 40 210 70 40 210 70 40 210 70 40 210 70 40 210 70 40 210 70 40 210 70 40 210 70 40 210 70 40 210 70 40 210 70 40 210 70 40 210 70 40 210 70 40 210 70 40 210 70 40 210 70 40 210 70 40 210 70 40 210 70 40 210 70 40 210 70 40 210 70 40 210 70 40 210 70 40 210 70 40 210 70 40 210 70 40 210 70 40 210 70 40 210 70 40 210 70 40 210 70 40 210 70 40 210 70 40 210 70 40 210 70 218 55 118 219 55 117 220 55 117 221 55 116 222 55 116 223 55 115 224 55 115 225 55 114 226 55 114 227 55 113 228 55 113 229 55 112 230 55 112 231 55 111 232 55 111 233 55 110 234 55 110 235 55 109 236 55 109 237 55 108 238 55 108 239 55 107 240 55 107 241 55 106 242 55 106 243 55 105 244 55 105 245 55 104 246 55 104 247 55 103 248 55 103 249 55 102 250 55 102 251 55 101 252 55 101 253 55 100 254 55 100 
0 56 226 0 56 226 1 56 225 2 56 225 3 56 224 4 56 224 5 56 223 6 56 223 7 56 222 8 56 222 9 56 221 10 56 221 11 56 220 12 56 220 13 56 219 14 56 219 15 56 218 16 56 218 17 56 217 18 56 217 19 56 216 20 56 216 21 56 215 22 56 215 23 56 214 24 56 214 25 56 213 26 56 213 27 56 212 28 56 212 29 56 211 30 56 211 31 56 210 32 56 210 33 56 209 34 56 209 35 56 208 36 56 208 37 56 207 38 56 207 39 56 206 220 40 40 220 40 40 220 40 40 220 40 40 220 40 40 220 40 40 220 40 40 220 40 40 220 40 40 220 40 40 220 40 40 220 40 40 220 40 40 220 40 40 220 40 40 220 40 40 220 40 40 220 40 40 220 40 40 220 40 40 220 40 40 220 40 40 220 40 40 220 40 40 220 40 40 220 40 40 220 40 40 220 40 40 220 40 40 220 40 40 220 40 40 220 40 40 220 40 40 220 40 40 220 40 40 220 40 40 220 40 40 220 40 40 220 40 40 220 40 40 220 40 40 220 40 40 220 40 40 220 40 40 220 40 40 220 40 40 220 40 40 220 40 40 220 40 40 220 40 40 220 40 40 220 40 40 220 40 40 220 40 40 220 40 40 220 40 40 220 40 40 220 40 40 220 40 40 220 40 40 220 40 40 220 40 40 220 40 40 220 40 40 220 40 40 220 40 40 220 40 40 220 40 40 220 40 40 220 40 40 220 40 40 220 40 40 220 40 40 220 40 40 220 40 40 220 40 40 220 40 40 220 40 40 220 40 40 119 56 166 120 56 166 121 56 165 122 56 165 123 56 164 124 56 164 125 56 163 126 56 163 127 56 162 128 56 162 129 56 161 130 56 161 131 56 160 132 56 160 133 56 159 134 56 159 135 56 158 136 56 158 137 56 157 138 56 157 139 56 156 140 56 156 40 210 70 40 210 70 40 210 70 40 210 70 40 210 70 40 210 70 40 210 70 40 210 70 40 210 70 40 210 70 40 210 70 40 210 70 40 210 70 40 210 70 40 210 70 40 210 70 40 210 70 40 210 70 40 210 70 40 210 70 40 210 70 40 210 70 40 210 70 40 210 70 40 210 70 40 210 70 40 210 70 40 210 70 40 210 70 40 210 70 40 210 70 40 210 70 40 210 70 40 210 70 40 210 70 40 210 70 40 210 70 40 210 70 40 210 70 40 210 70 40 210 70 40 210 70 40 210 70 40 210 70 40 210 70 40 210 70 40 210 70 40 210 70 40 210 70 40 210 70 40 210 70 40 210 70 40 210 70 40 210 70 40 210 70 40 210 70 40 210 70 40 210 70 40 210 70 40 210 70 40 210 70 40 210 70 40 210 70 40 210 70 40 210 70 40 210 70 40 210 70 40 210 70 40 210 70 40 210 70 40 210 70 40 210 70 40 210 70 40 210 70 40 210 70 40 210 70 40 210 70 218 56 117 219 56 117 220 56 116 221 56 116 222 56 115 223 56 115 224 56 114 225 56 114 226 56 113 227 56 113 228 56 112 229 56 112 230 56 111 231 56 111 232 56 110 233 56 110 234 56 109 235 56 109 236 56 108 237 56 108 238 56 107 239 56 107 240 56 106 241 56 106 242 56 105 243 56 105 244 56 104 245 56 104 246 56 103 247 56 103 248 56 102 249 56 102 250 56 101 251 56 101 252 56 100 253 56 100 254 56 99 
0 57 226 0 57 225 1 57 225 2 57 224 3 57 224 4 57 223 5 57 223 6 57 222 7 57 222 8 57 221 9 57 221 10 57 220 11 57 220 12 57 219 13 57 219 14 57 218 15 57 218 16 57 217 17 57 217 18 57 216 19 57 216 20 57 215 21 57 215 22 57 214 23 57 214 24 57 213 25 57 213 26 57 212 27 57 212 28 57 211 29 57 211 30 57 210 31 57 210 32 57 209 33 57 209 34 57 208 35 57 208 36 57 207 37 57 207 38 57 206 39 57 206 220 40 40 220 40 40 220 40 40 220 40 40 220 40 40 220 40 40 220 40 40 220 40 40 220 40 40 220 40 40 220 40 40 220 40 40 220 40 40 220 40 40 220 40 40 220 40 40 220 40 40 220 40 40 220 40 40 220 40 40 220 40 40 220 40 40 220 40 40 220 40 40 220 40 40 220 40 40 220 40 40 220 40 40 220 40 40 220 40 40 220 40 40 220 40 40 220 40 40 220 40 40 220 40 40 220 40 40 220 40 40 220 40 40 220 40 40 220 40 40 220 40 40 220 40 40 220 40 40 220 40 40 220 40 40 220 40 40 220 40 40 220 40 40 220 40 40 220 40 40 220 40 40 220 40 40 220 40 40 220 40 40 220 40 40 220 40 40 220 40 40 220 40 40 220 40 40 220 40 40 220 40 40 220 40 40 220 40 40 220 40 40 220 40 40 220 40 40 220 40 40 220 40 40 220 40 40 220 40 40 220 40 40 220 40 40 220 40 40 220 40 40 220 40 40 220 40 40 220 40 40 220 40 40 220 40 40 119 57 166 120 57 165 121 57 165 122 57 164 123 57 164 124 57 163 125 57 163 126 57 162 127 57 162 128 57 161 129 57 161 130 57 160 131 57 160 132 57 159 133 57 159 134 57 158 135 57 158 136 57 157 137 57 157 138 57 156 139 57 156 40 210 70 40 210 70 40 210 70 40 210 70 40 210 70 40 210 70 40 210 70 40 210 70 40 210 70 40 210 70 40 210 70 40 210 70 40 210 70 40 210 70 40 210 70 40 210 70 40 210 70 40 210 70 40 210 70 40 210 70 40 210 70 40 210 70 40 210 70 40 210 70 40 210 70 40 210 70 40 210 70 40 210 70 40 210 70 40 210 70 40 210 70 40 210 70 40 210 70 40 210 70 40 210 70 40 210 70 40 210 70 40 210 70 40 210 70 40 210 70 40 210 70 40 210 70 40 210 70 40 210 70 40 210 70 40 210 70 40 210 70 40 210 70 40 210 70 40 210 70 40 210 70 40 210 70 40 210 70 40 210 70 40 210 70 40 210 70 40 210 70 40 210 70 40 210 70 40 210 70 40 210 70 40 210 70 40 210 70 40 210 70 40 210 70 40 210 70 40 210 70 40 210 70 40 210 70 40 210 70 40 210 70 40 210 70 40 210 70 40 210 70 40 210 70 40 210 70 40 210 70 40 210 70 40 210 70 219 57 116 220 57 116 221 57 115 222 57 115 223 57 114 224 57 114 225 57 113 226 57 113 227 57 112 228 57 112 229 57 111 230 57 111 231 57 110 232 57 110 233 57 109 234 57 109 235 57 108 236 57 108 237 57 107 238 57 107 239 57 106 240 57 106 241 57 105 242 57 105 243 57 104 244 57 104 245 57 103 246 57 103 247 57 102 248 57 102 249 57 101 250 57 101 251 57 100 252 57 100 253 57 99 254 57 99 
0 58 225 0 58 225 1 58 224 2 58 224 3 58 223 4 58 223 5 58 222 6 58 222 7 58 221 8 58 221 9 58 220 10 58 220 11 58 219 12 58 219 13 58 218 14 58 218 15 58 217 16 58 217 17 58 216 18 58 216 19 58 215 20 58 215 21 58 214 22 58 214 23 58 213 24 58 213 25 58 212 26 58 212 27 58 211 28 58 211 29 58 210 30 58 210 31 58 209 32 58 209 33 58 208 34 58 208 35 58 207 36 58 207 37 58 206 38 58 206 39 58 205 220 40 40 220 40 40 220 40 40 220 40 40 220 40 40 220 40 40 220 40 40 220 40 40 220 40 40 220 40 40 220 40 40 220 40 40 220 40 40 220 40 40 220 40 40 220 40 40 220 40 40 220 40 40 220 40 40 220 40 40 220 40 40 220 40 40 220 40 40 220 40 40 220 40 40 220 40 40 220 40 40 220 40 40 220 40 40 220 40 40 220 40 40 220 40 40 220 40 40 220 40 40 220 40 40 220 40 40 220 40 40 220 40 40 220 40 40 220 40 40 220 40 40 220 40 40 220 40 40 220 40 40 220 40 40 220 40 40 220 40 40 220 40 40 220 40 40 220 40 40 220 40 40 220 40 40 220 40 40 220 40 40 220 40 40 220 40 40 220 40 40 220 40 40 220 40 40 220 40 40 220 40 40 220 40 40 220 40 40 220 40 40 220 40 40 220 40 40 220 40 40 220 40 40 220 40 40 220 40 40 220 40 40 220 40 40 220 40 40 220 40 40 220 40 40 220 40 40 220 40 40 220 40 40 220 40 40 119 58 165 120 58 165 121 58 164 122 58 164 123 58 163 124 58 163 125 58 162 126 58 162 127 58 161 128 58 161 129 58 160 130 58 160 131 58 159 132 58 159 133 58 158 134 58 158 135 58 157 136 58 157 137 58 156 138 58 156 139 58 155 40 210 70 40 210 70 40 210 70 40 210 70 40 210 70 40 210 70 40 210 70 40 210 70 40 210 70 40 210 70 40 210 70 40 210 70 40 210 70 40 210 70 40 210 70 40 210 70 40 210 70 40 210 70 40 210 70 40 210 70 40 210 70 40 210 70 40 210 70 40 210 70 40 210 70 40 210 70 40 210 70 40 210 70 40 210 70 40 210 70 40 210 70 40 210 70 40 210 70 40 210 70 40 210 70 40 210 70 40 210 70 40 210 70 40 210 70 40 210 70 40 210 70 40 210 70 40 210 70 40 210 70 40 210 70 40 210 70 40 210 70 40 210 70 40 210 70 40 210 70 40 210 70 40 210 70 40 210 70 40 210 70 40 210 70 40 210 70 40 210 70 40 210 70 40 210 70 40 210 70 40 210 70 40 210 70 40 210 70 40 210 70 40 210 70 40 210 70 40 210 70 40 210 70 40 210 70 40 210 70 40 210 70 40 210 70 40 210 70 40 210 70 40 210 70 40 210 70 40 210 70 40 210 70 40 210 70 219 58 116 220 58 115 221 58 115 222 58 114 223 58 114 224 58 113 225 58 113 226 58 112 227 58 112 228 58 111 229 58 111 230 58 110 231 58 110 232 58 109 233 58 109 234 58 108 235 58 108 236 58 107 237 58 107 238 58 106 239 58 106 240 58 105 241 58 105 242 58 104 243 58 104 244 58 103 245 58 103 246 58 102 247 58 102 248 58 101 249 58 101 250 58 100 251 58 100 252 58 99 253 58 99 254 58 98 
0 59 225 0 59 224 1 59 224 2 59 223 3 59 223 4 59 222 5 59 222 6 59 221 7 59 221 8 59 220 9 59 220 10 59 219 11 59 219 12 59 218 13 59 218 14 59 217 15 59 217 16 59 216 17 59 216 18 59 215 19 59 215 20 59 214 21 59 214 22 59 213 23 59 213 24 59 212 25 59 212 26 59 211 27 59 211 28 59 210 29 59 210 30 59 209 31 59 209 32 59 208 33 59 208 34 59 207 35 59 207 36 59 206 37 59 206 38 59 205 39 59 205 220 40 40 220 40 40 220 40 40 220 40 40 220 40 40 220 40 40 220 40 40 220 40 40 220 40 40 220 40 40 220 40 40 220 40 40 220 40 40 220 40 40 220 40 40 220 40 40 220 40 40 220 40 40 220 40 40 220 40 40 220 40 40 220 40 40 220 40 40 220 40 40 220 40 40 220 40 40 220 40 40 220 40 40 220 40 40 220 40 40 220 40 40 220 40 40 220 40 40 220 40 40 220 40 40 220 40 40 220 40 40 220 40 40 220 40 40 220 40 40 220 40 40 220 40 40 220 40 40 220 40 40 220 40 40 220 40 40 220 40 40 220 40 40 220 40 40 220 40 40 220 40 40 220 40 40 220 40 40 220 40 40 220 40 40 220 40 40 220 40 40 220 40 40 220 40 40 220 40 40 220 40 40 220 40 40 220 40 40 220 40 40 220 40 40 220 40 40 220 40 40 220 40 40 220 40 40 220 40 40 220 40 40 220 40 40 220 40 40 220 40 40 220 40 40 220 40 40 220 40 40 220 40 40 220 40 40 119 59 165 120 59 164 121 59 164 122 59 163 123 59 163 124 59 162 125 59 162 126 59 161 127 59 161 128 59 160 129 59 160 130 59 159 131 59 159 132 59 158 133 59 158 134 59 157 135 59 157 136 59 156 137 59 156 138 59 155 40 210 70 40 210 70 40 210 70 40 210 70 40 210 70 40 210 70 40 210 70 40 210 70 40 210 70 40 210 70 40 210 70 40 210 70 40 210 70 40 210 70 40 210 70 40 210 70 40 210 70 40 210 70 40 210 70 40 210 70 40 210 70 40 210 70 40 210 70 40 210 70 40 210 70 40 210 70 40 210 70 40 210 70 40 210 70 40 210 70 40 210 70 40 210 70 40 210 70 40 210 70 40 210 70 40 210 70 40 210 70 40 210 70 40 210 70 40 210 70 40 210 70 40 210 70 40 210 70 40 210 70 40 210 70 40 210 70 40 210 70 40 210 70 40 210 70 40 210 70 40 210 70 40 210 70 40 210 70 40 210 70 40 210 70 40 210 70 40 210 70 40 210 70 40 210 70 40 210 70 40 210 70 40 210 70 40 210 70 40 210 70 40 210 70 40 210 70 40 210 70 40 210 70 40 210 70 40 210 70 40 210 70 40 210 70 40 210 70 40 210 70 40 210 70 40 210 70 40 210 70 40 210 70 40 210 70 40 210 70 40 210 70 220 59 115 221 59 114 222 59 114 223 59 113 224 59 113 225 59 112 226 59 112 227 59 111 228 59 111 229 59 110 230 59 110 231 59 109 232 59 109 233 59 108 234 59 108 235 59 107 236 59 107 237 59 106 238 59 106 239 59 105 240 59 105 241 59 104 242 59 104 243 59 103 244 59 103 245 59 102 246 59 102 247 59 101 248 59 101 249 59 100 250 59 100 251 59 99 252 59 99 253 59 98 254 59 98 
0 60 224 0 60 224 1 60 223 2 60 223 3 60 222 4 60 222 5 60 221 6 60 221 7 60 220 8 60 220 9 60 219 10 60 219 11 60 218 12 60 218 13 60 217 14 60 217 15 60 216 16 60 216 17 60 215 18 60 215 19 60 214 20 60 214 21 60 213 22 60 213 23 60 212 24 60 212 25 60 211 26 60 211 27 60 210 28 60 210 29 60 209 30 60 209 31 60 208 32 60 208 33 60 207 34 60 207 35 60 206 36 60 206 37 60 205 38 60 205 39 60 204 220 40 40 220 40 40 220 40 40 220 40 40 220 40 40 220 40 40 220 40 40 220 40 40 220 40 40 220 40 40 220 40 40 220 40 40 220 40 40 220 40 40 220 40 40 220 40 40 220 40 40 220 40 40 220 40 40 220 40 40 220 40 40 220 40 40 220 40 40 220 40 40 220 40 40 220 40 40 220 40 40 220 40 40 220 40 40 220 40 40 220 40 40 220 40 40 220 40 40 220 40 40 220 40 40 220 40 40 220 40 40 220 40 40 220 40 40 220 40 40 220 40 40 220 40 40 220 40 40 220 40 40 220 40 40 220 40 40 220 40 40 220 40 40 220 40 40 220 40 40 220 40 40 220 40 40 220 40 40 220 40 40 220 40 40 220 40 40 220 40 40 220 40 40 220 40 40 220 40 40 220 40 40 220 40 40 220 40 40 220 40 40 220 40 40 220 40 40 220 40 40 220 40 40 220 40 40 220 40 40 220 40 40 220 40 40 220 40 40 220 40 40 220 40 40 220 40 40 220 40 40 220 40 40 220 40 40 119 60 164 120 60 164 121 60 163 122 60 163 123 60 162 124 60 162 125 60 161 126 60 161 127 60 160 128 60 160 129 60 159 130 60 159 131 60 158 132 60 158 133 60 157 134 60 157 135 60 156 136 60 156 137 60 155 138 60 155 40 210 70 40 210 70 40 210 70 40 210 70 40 210 70 40 210 70 40 210 70 40 210 70 40 210 70 40 210 70 40 210 70 40 210 70 40 210 70 40 210 70 40 210 70 40 210 70 40 210 70 40 210 70 40 210 70 40 210 70 40 210 70 40 210 70 40 210 70 40 210 70 40 210 70 40 210 70 40 210 70 40 210 70 40 210 70 40 210 70 40 210 70 40 210 70 40 210 70 40 210 70 40 210 70 40 210 70 40 210 70 40 210 70 40 210 70 40 210 70 40 210 70 40 210 70 40 210 70 40 210 70 40 210 70 40 210 70 40 210 70 40 210 70 40 210 70 40 210 70 40 210 70 40 210 70 40 210 70 40 210 70 40 210 70 40 210 70 40 210 70 40 210 70 40 210 70 40 210 70 40 210 70 40 210 70 40 210 70 40 210 70 40 210 70 40 210 70 40 210 70 40 210 70 40 210 70 40 210 70 40 210 70 40 210 70 40 210 70 40 210 70 40 210 70 40 210 70 40 210 70 40 210 70 40 210 70 40 210 70 40 210 70 220 60 114 221 60 114 222 60 113 223 60 113 224 60 112 225 60 112 226 60 111 227 60 111 228 60 110 229 60 110 230 60 109 231 60 109 232 60 108 233 60 108 234 60 107 235 60 107 236 60 106 237 60 106 238 60 105 239 60 105 240 60 104 241 60 104 242 60 103 243 60 103 244 60 102 245 60 102 246 60 101 247 60 101 248 60 100 249 60 100 250 60 99 251 60 99 252 60 98 253 60 98 254 60 97 
0 61 224 0 61 223 1 61 223 2 61 222 3 61 222 4 61 221 5 61 221 6 61 220 7 61 220 8 61 219 9 61 219 10 61 218 11 61 218 12 61 217 13 61 217 14 61 216 15 61 216 16 61 215 17 61 215 18 61 214 19 61 214 20 61 213 21 61 213 22 61 212 23 61 212 24 61 211 25 61 211 26 61 210 27 61 210 28 61 209 29 61 209 30 61 208 31 61 208 32 61 207 33 61 207 34 61 206 35 61 206 36 61 205 37 61 205 38 61 204 39 61 204 220 40 40 220 40 40 220 40 40 220 40 40 220 40 40 220 40 40 220 40 40 220 40 40 220 40 40 220 40 40 220 40 40 220 40 40 220 40 40 220 40 40 220 40 40 220 40 40 220 40 40 220 40 40 220 40 40 220 40 40 220 40 40 220 40 40 220 40 40 220 40 40 220 40 40 220 40 40 220 40 40 220 40 40 220 40 40 220 40 40 220 40 40 220 40 40 220 40 40 220 40 40 220 40 40 220 40 40 220 40 40 220 40 40 220 40 40 220 40 40 220 40 40 220 40 40 220 40 40 220 40 40 220 40 40 220 40 40 220 40 40 220 40 40 220 40 40 220 40 40 220 40 40 220 40 40 220 40 40 220 40 40 220 40 40 220 40 40 220 40 40 220 40 40 220 40 40 220 40 40 220 40 40 220 40 40 220 40 40 220 40 40 220 40 40 220 40 40 220 40 40 220 40 40 220 40 40 220 40 40 220 40 40 220 40 40 220 40 40 220 40 40 220 40 40 220 40 40 220 40 40 220 40 40 220 40 40 119 61 164 120 61 163 121 61 163 122 61 162 123 61 162 124 61 161 125 61 161 126 61 160 127 61 160 128 61 159 129 61 159 130 61 158 131 61 158 132 61 157 133 61 157 134 61 156 135 61 156 136 61 155 137 61 155 40 210 70 40 210 70 40 210 70 40 210 70 40 210 70 40 210 70 40 210 70 40 210 70 40 210 70 40 210 70 40 210 70 40 210 70 40 210 70 40 210 70 40 210 70 40 210 70 40 210 70 40 210 70 40 210 70 40 210 70 40 210 70 40 210 70 40 210 70 40 210 70 40 210 70 40 210 70 40 210 70 40 210 70 40 210 70 40 210 70 40 210 70 40 210 70 40 210 70 40 210 70 40 210 70 40 210 70 40 210 70 40 210 70 40 210 70 40 210 70 40 210 70 40 210 70 40 210 70 40 210 70 40 210 70 40 210 70 40 210 70 40 210 70 40 210 70 40 210 70 40 210 70 40 210 70 40 210 70 40 210 70 40 210 70 40 210 70 40 210 70 40 210 70 40 210 70 40 210 70 40 210 70 40 210 70 40 210 70 40 210 70 40 210 70 40 210 70 40 210 70 40 210 70 40 210 70 40 210 70 40 210 70 40 210 70 40 210 70 40 210 70 40 210 70 40 210 70 40 210 70 40 210 70 40 210 70 40 210 70 40 210 70 40 210 70 40 210 70 221 61 113 222 61 113 223 61 112 224 61 112 225 61 111 226 61 111 227 61 110 228 61 110 229 61 109 230 61 109 231 61 108 232 61 108 233 61 107 234 61 107 235 61 106 236 61 106 237 61 105 238 61 105 239 61 104 240 61 104 241 61 103 242 61 103 243 61 102 244 61 102 245 61 101 246 61 101 247 61 100 248 61 100 249 61 99 250 61 99 251 61 98 252 61 98 253 61 97 254 61 97 
0 62 223 0 62 223 1 62 222 2 62 222 3 62 221 4 62 221 5 62 220 6 62 220 7 62 219 8 62 219 9 62 218 10 62 218 11 62 217 12 62 217 13 62 216 14 62 216 15 62 215 16 62 215 17 62 214 18 62 214 19 62 213 20 62 213 21 62 212 22 62 212 23 62 211 24 62 211 25 62 210 26 62 210 27 62 209 28 62 209 29 62 208 30 62 208 31 62 207 32 62 207 33 62 206 34 62 206 35 62 205 36 62 205 37 62 204 38 62 204 39 62 203 220 40 40 220 40 40 220 40 40 220 40 40 220 40 40 220 40 40 220 40 40 220 40 40 220 40 40 220 40 40 220 40 40 220 40 40 220 40 40 220 40 40 220 40 40 220 40 40 220 40 40 220 40 40 220 40 40 220 40 40 220 40 40 220 40 40 220 40 40 220 40 40 220 40 40 220 40 40 220 40 40 220 40 40 220 40 40 220 40 40 220 40 40 220 40 40 220 40 40 220 40 40 220 40 40 220 40 40 220 40 40 220 40 40 220 40 40 220 40 40 220 40 40 220 40 40 220 40 40 220 40 40 220 40 40 220 40 40 220 40 40 220 40 40 220 40 40 220 40 40 220 40 40 220 40 40 220 40 40 220 40 40 220 40 40 220 40 40 220 40 40 220 40 40 220 40 40 220 40 40 220 40 40 220 40 40 220 40 40 220 40 40 220 40 40 220 40 40 220 40 40 220 40 40 220 40 40 220 40 40 220 40 40 220 40 40 220 40 40 220 40 40 220 40 40 220 40 40 220 40 40 220 40 40 220 40 40 119 62 163 120 62 163 121 62 162 122 62 162 123 62 161 124 62 161 125 62 160 126 62 160 127 62 159 128 62 159 129 62 158 130 62 158 131 62 157 132 62 157 133 62 156 134 62 156 135 62 155 136 62 155 137 62 154 40 210 70 40 210 70 40 210 70 40 210 70 40 210 70 40 210 70 40 210 70 40 210 70 40 210 70 40 210 70 40 210 70 40 210 70 40 210 70 40 210 70 40 210 70 40 210 70 40 210 70 40 210 70 40 210 70 40 210 70 40 210 70 40 210 70 40 210 70 40 210 70 40 210 70 40 210 70 40 210 70 40 210 70 40 210 70 40 210 70 40 210 70 40 210 70 40 210 70 40 210 70 40 210 70 40 210 70 40 210 70 40 210 70 40 210 70 40 210 70 40 210 70 40 210 70 40 210 70 40 210 70 40 210 70 40 210 70 40 210 70 40 210 70 40 210 70 40 210 70 40 210 70 40 210 70 40 210 70 40 210 70 40 210 70 40 210 70 40 210 70 40 210 70 40 210 70 40 210 70 40 210 70 40 210 70 40 210 70 40 210 70 40 210 70 40 210 70 40 210 70 40 210 70 40 210 70 40 210 70 40 210 70 40 210 70 40 210 70 40 210 70 40 210 70 40 210 70 40 210 70 40 210 70 40 210 70 40 210 70 40 210 70 40 210 70 40 210 70 221 62 113 222 62 112 223 62 112 224 62 111 225 62 111 226 62 110 227 62 110 228 62 109 229 62 109 230 62 108 231 62 108 232 62 107 233 62 107 234 62 106 235 62 106 236 62 105 237 62 105 238 62 104 239 62 104 240 62 103 241 62 103 242 62 102 243 62 102 244 62 101 245 62 101 246 62 100 247 62 100 248 62 99 249 62 99 250 62 98 251 62 98 252 62 97 253 62 97 254 62 96 
0 63 223 0 63 222 1 63 222 2 63 221 3 63 221 4 63 220 5 63 220 6 63 219 7 63 219 8 63 218 9 63 218 10 63 217 11 63 217 12 63 216 13 63 216 14 63 215 15 63 215 16 63 214 17 63 214 18 63 213 19 63 213 20 63 212 21 63 212 22 63 211 23 63 211 24 63 210 25 63 210 26 63 209 27 63 209 28 63 208 29 63 208 30 63 207 31 63 207 32 63 206 33 63 206 34 63 205 35 63 205 36 63 204 37 63 204 38 63 203 39 63 203 220 40 40 220 40 40 220 40 40 220 40 40 220 40 40 220 40 40 220 40 40 220 40 40 220 40 40 220 40 40 220 40 40 220 40 40 220 40 40 220 40 40 220 40 40 220 40 40 220 40 40 220 40 40 220 40 40 220 40 40 220 40 40 220 40 40 220 40 40 220 40 40 220 40 40 220 40 40 220 40 40 220 40 40 220 40 40 220 40 40 220 40 40 220 40 40 220 40 40 220 40 40 220 40 40 220 40 40 220 40 40 220 40 40 220 40 40 220 40 40 220 40 40 220 40 40 220 40 40 220 40 40 220 40 40 220 40 40 220 40 40 220 40 40 220 40 40 220 40 40 220 40 40 220 40 40 220 40 40 220 40 40 220 40 40 220 40 40 220 40 40 220 40 40 220 40 40 220 40 40 220 40 40 220 40 40 220 40 40 220 40 40 220 40 40 220 40 40 220 40 40 220 40 40 220 40 40 220 40 40 220 40 40 220 40 40 220 40 40 220 40 40 220 40 40 220 40 40 220 40 40 220 40 40 220 40 40 119 63 163 120 63 162 121 63 162 122 63 161 123 63 161 124 63 160 125 63 160 126 63 159 127 63 159 128 63 158 129 63 158 130 63 157 131 63 157 132 63 156 133 63 156 134 63 155 135 63 155 136 63 154 40 210 70 40 210 70 40 210 70 40 210 70 40 210 70 40 210 70 40 210 70 40 210 70 40 210 70 40 210 70 40 210 70 40 210 70 40 210 70 40 210 70 40 210 70 40 210 70 40 210 70 40 210 70 40 210 70 40 210 70 40 210 70 40 210 70 40 210 70 40 210 70 40 210 70 40 210 70 40 210 70 40 210 70 40 210 70 40 210 70 40 210 70 40 210 70 40 210 70 40 210 70 40 210 70 40 210 70 40 210 70 40 210 70 40 210 70 40 210 70 40 210 70 40 210 70 40 210 70 40 210 70 40 210 70 40 210 70 40 210 70 40 210 70 40 210 70 40 210 70 40 210 70 40 210 70 40 210 70 40 210 70 40 210 70 40 210 70 40 210 70 40 210 70 40 210 70 40 210 70 40 210 70 40 210 70 40 210 70 40 210 70 40 210 70 40 210 70 40 210 70 40 210 70 40 210 70 40 210 70 40 210 70 40 210 70 40 210 70 40 210 70 40 210 70 40 210 70 40 210 70 40 210 70 40 210 70 40 210 70 40 210 70 40 210 70 40 210 70 40 210 70 40 210 70 222 63 112 223 63 111 224 63 111 225 63 110 226 63 110 227 63 109 228 63 109 229 63 108 230 63 108 231 63 107 232 63 107 233 63 106 234 63 106 235 63 105 236 63 105 237 63 104 238 63 104 239 63 103 240 63 103 241 63 102 242 63 102 243 63 101 244 63 101 245 63 100 246 63 100 247 63 99 248 63 99 249 63 98 250 63 98 251 63 97 252 63 97 253 63 96 254 63 96 
0 64 222 0 64 222 1 64 221 2 64 221 3 64 220 4 64 220 5 64 219 6 64 219 7 64 218 8 64 218 9 64 217 10 64 217 11 64 216 12 64 216 13 64 215 14 64 215 15 64 214 16 64 214 17 64 213 18 64 213 19 64 212 20 64 212 21 64 211 22 64 211 23 64 210 24 64 210 25 64 209 26 64 209 27 64 208 28 64 208 29 64 207 30 64 207 31 64 206 32 64 206 33 64 205 34 64 205 35 64 204 36 64 204 37 64 203 38 64 203 39 64 202 220 40 40 220 40 40 220 40 40 220 40 40 220 40 40 220 40 40 220 40 40 220 40 40 220 40 40 220 40 40 220 40 40 220 40 40 220 40 40 220 40 40 220 40 40 220 40 40 220 40 40 220 40 40 220 40 40 220 40 40 220 40 40 220 40 40 220 40 40 220 40 40 220 40 40 220 40 40 220 40 40 220 40 40 220 40 40 220 40 40 220 40 40 220 40 40 220 40 40 220 40 40 220 40 40 220 40 40 220 40 40 220 40 40 220 40 40 220 40 40 220 40 40 220 40 40 220 40 40 220 40 40 220 40 40 220 40 40 220 40 40 220 40 40 220 40 40 220 40 40 220 40 40 220 40 40 220 40 40 220 40 40 220 40 40 220 40 40 220 40 40 220 40 40 220 40 40 220 40 40 220 40 40 220 40 40 220 40 40 220 40 40 220 40 40 220 40 40 220 40 40 220 40 40 220 40 40 220 40 40 220 40 40 220 40 40 220 40 40 220 40 40 220 40 40 220 40 40 220 40 40 220 40 40 220 40 40 119 64 162 120 64 162 121 64 161 122 64 161 123 64 160 124 64 160 125 64 159 126 64 159 127 64 158 128 64 158 129 64 157 130 64 157 131 64 156 132 64 156 133 64 155 134 64 155 135 64 154 136 64 154 40 210 70 40 210 70 40 210 70 40 210 70 40 210 70 40 210 70 40 210 70 40 210 70 40 210 70 40 210 70 40 210 70 40 210 70 40 210 70 40 210 70 40 210 70 40 210 70 40 210 70 40 210 70 40 210 70 40 210 70 40 210 70 40 210 70 40 210 70 40 210 70 40 210 70 40 210 70 40 210 70 40 210 70 40 210 70 40 210 70 40 210 70 40 210 70 40 210 70 40 210 70 40 210 70 40 210 70 40 210 70 40 210 70 40 210 70 40 210 70 40 210 70 40 210 70 40 210 70 40 210 70 40 210 70 40 210 70 40 210 70 40 210 70 40 210 70 40 210 70 40 210 70 40 210 70 40 210 70 40 210 70 40 210 70 40 210 70 40 210 70 40 210 70 40 210 70 40 210 70 40 210 70 40 210 70 40 210 70 40 210 70 40 210 70 40 210 70 40 210 70 40 210 70 40 210 70 40 210 70 40 210 70 40 210 70 40 210 70 40 210 70 40 210 70 40 210 70 40 210 70 40 210 70 40 210 70 40 210 70 40 210 70 40 210 70 40 210 70 40 210 70 40 210 70 222 64 111 223 64 111 224 64 110 225 64 110 226 64 109 227 64 109 228 64 108 229 64 108 230 64 107 231 64 107 232 64 106 233 64 106 234 64 105 235 64 105 236 64 104 237 64 104 238 64 103 239 64 103 240 64 102 241 64 102 242 64 101 243 64 101 244 64 100 245 64 100 246 64 99 247 64 99 248 64 98 249 64 98 250 64 97 251 64 97 252 64 96 253 64 96 254 64 95 
0 65 222 0 65 221 1 65 221 2 65 220 3 65 220 4 65 219 5 65 219 6 65 218 7 65 218 8 65 217 9 65 217 10 65 216 11 65 216 12 65 215 13 65 215 14 65 214 15 65 214 16 65 213 17 65 213 18 65 212 19 65 212 20 65 211 21 65 211 22 65 210 23 65 210 24 65 209 25 65 209 26 65 208 27 65 208 28 65 207 29 65 207 30 65 206 31 65 206 32 65 205 33 65 205 34 65 204 35 65 204 36 65 203 37 65 203 38 65 202 39 65 202 220 40 40 220 40 40 220 40 40 220 40 40 220 40 40 220 40 40 220 40 40 220 40 40 220 40 40 220 40 40 220 40 40 220 40 40 220 40 40 220 40 40 220 40 40 220 40 40 220 40 40 220 40 40 220 40 40 220 40 40 220 40 40 220 40 40 220 40 40 220 40 40 220 40 40 220 40 40 220 40 40 220 40 40 220 40 40 220 40 40 220 40 40 220 40 40 220 40 40 220 40 40 220 40 40 220 40 40 220 40 40 220 40 40 220 40 40 220 40 40 220 40 40 220 40 40 220 40 40 220 40 40 220 40 40 220 40 40 220 40 40 220 40 40 220 40 40 220 40 40 220 40 40 220 40 40 220 40 40 220 40 40 220 40 40 220 40 40 220 40 40 220 40 40 220 40 40 220 40 40 220 40 40 220 40 40 220 40 40 220 40 40 220 40 40 220 40 40 220 40 40 220 40 40 220 40 40 220 40 40 220 40 40 220 40 40 220 40 40 220 40 40 220 40 40 220 40 40 220 40 40 220 40 40 220 40 40 119 65 162 120 65 161 121 65 161 122 65 160 123 65 160 124 65 159 125 65 159 126 65 158 127 65 158 128 65 157 129 65 157 130 65 156 131 65 156 132 65 155 133 65 155 134 65 154 135 65 154 136 65 153 40 210 70 40 210 70 40 210 70 40 210 70 40 210 70 40 210 70 40 210 70 40 210 70 40 210 70 40 210 70 40 210 70 40 210 70 40 210 70 40 210 70 40 210 70 40 210 70 40 210 70 40 210 70 40 210 70 40 210 70 40 210 70 40 210 70 40 210 70 40 210 70 40 210 70 40 210 70 40 210 70 40 210 70 40 210 70 40 210 70 40 210 70 40 210 70 40 210 70 40 210 70 40 210 70 40 210 70 40 210 70 40 210 70 40 210 70 40 210 70 40 210 70 40 210 70 40 210 70 40 210 70 40 210 70 40 210 70 40 210 70 40 210 70 40 210 70 40 210 70 40 210 70 40 210 70 40 210 70 40 210 70 40 210 70 40 210 70 40 210 70 40 210 70 40 210 70 40 210 70 40 210 70 40 210 70 40 210 70 40 210 70 40 210 70 40 210 70 40 210 70 40 210 70 40 210 70 40 210 70 40 210 70 40 210 70 40 210 70 40 210 70 40 210 70 40 210 70 40 210 70 40 210 70 40 210 70 40 210 70 40 210 70 40 210 70 40 210 70 40 210 70 40 210 70 222 65 111 223 65 110 224 65 110 225 65 109 226 65 109 227 65 108 228 65 108 229 65 107 230 65 107 231 65 106 232 65 106 233 65 105 234 65 105 235 65 104 236 65 104 237 65 103 238 65 103 239 65 102 240 65 102 241 65 101 242 65 101 243 65 100 244 65 100 245 65 99 246 65 99 247 65 98 248 65 98 249 65 97 250 65 97 251 65 96 252 65 96 253 65 95 254 65 95 
0 66 221 0 66 221 1 66 220 2 66 220 3 66 219 4 66 219 5 66 218 6 66 218 7 66 217 8 66 217 9 66 216 10 66 216 11 66 215 12 66 215 13 66 214 14 66 214 15 66 213 16 66 213 17 66 212 18 66 212 19 66 211 20 66 211 21 66 210 22 66 210 23 66 209 24 66 209 25 66 208 26 66 208 27 66 207 28 66 207 29 66 206 30 66 206 31 66 205 32 66 205 33 66 204 34 66 204 35 66 203 36 66 203 37 66 202 38 66 202 39 66 201 220 40 40 220 40 40 220 40 40 220 40 40 220 40 40 220 40 40 220 40 40 220 40 40 220 40 40 220 40 40 220 40 40 220 40 40 220 40 40 220 40 40 220 40 40 220 40 40 220 40 40 220 40 40 220 40 40 220 40 40 220 40 40 220 40 40 220 40 40 220 40 40 220 40 40 220 40 40 220 40 40 220 40 40 220 40 40 220 40 40 220 40 40 220 40 40 220 40 40 220 40 40 220 40 40 220 40 40 220 40 40 220 40 40 220 40 40 220 40 40 220 40 40 220 40 40 220 40 40 220 40 40 220 40 40 220 40 40 220 40 40 220 40 40 220 40 40 220 40 40 220 40 40 220 40 40 220 40 40 220 40 40 220 40 40 220 40 40 220 40 40 220 40 40 220 40 40 220 40 40 220 40 40 220 40 40 220 40 40 220 40 40 220 40 40 220 40 40 220 40 40 220 40 40 220 40 40 220 40 40 220 40 40 220 40 40 220 40 40 220 40 40 220 40 40 220 40 40 220 40 40 220 40 40 220 40 40 119 66 161 120 66 161 121 66 160 122 66 160 123 66 159 124 66 159 125 66 158 126 66 158 127 66 157 128 66 157 129 66 156 130 66 156 131 66 155 132 66 155 133 66 154 134 66 154 135 66 153 40 210 70 40 210 70 40 210 70 40 210 70 40 210 70 40 210 70 40 210 70 40 210 70 40 210 70 40 210 70 40 210 70 40 210 70 40 210 70 40 210 70 40 210 70 40 210 70 40 210 70 40 210 70 40 210 70 40 210 70 40 210 70 40 210 70 40 210 70 40 210 70 40 210 70 40 210 70 40 210 70 40 210 70 40 210 70 40 210 70 40 210 70 40 210 70 40 210 70 40 210 70 40 210 70 40 210 70 40 210 70 40 210 70 40 210 70 40 210 70 40 210 70 40 210 70 40 210 70 40 210 70 40 210 70 40 210 70 40 210 70 40 210 70 40 210 70 40 210 70 40 210 70 40 210 70 40 210 70 40 210 70 40 210 70 40 210 70 40 210 70 40 210 70 40 210 70 40 210 70 40 210 70 40 210 70 40 210 70 40 210 70 40 210 70 40 210 70 40 210 70 40 210 70 40 210 70 40 210 70 40 210 70 40 210 70 40 210 70 40 210 70 40 210 70 40 210 70 40 210 70 40 210 70 40 210 70 40 210 70 40 210 70 40 210 70 40 210 70 40 210 70 40 210 70 40 210 70 40 210 70 223 66 110 224 66 109 225 66 109 226 66 108 227 66 108 228 66 107 229 66 107 230 66 106 231 66 106 232 66 105 233 66 105 234 66 104 235 66 104 236 66 103 237 66 103 238 66 102 239 66 102 240 66 101 241 66 101 242 66 100 243 66 100 244 66 99 245 66 99 246 66 98 247 66 98 248 66 97 249 66 97 250 66 96 251 66 96 252 66 95 253 66 95 254 66 94 
0 67 221 0 67 220 1 67 220 2 67 219 3 67 219 4 67 218 5 67 218 6 67 217 7 67 217 8 67 216 9 67 216 10 67 215 11 67 215 12 67 214 13 67 214 14 67 213 15 67 213 16 67 212 17 67 212 18 67 211 19 67 211 20 67 210 21 67 210 22 67 209 23 67 209 24 67 208 25 67 208 26 67 207 27 67 207 28 67 206 29 67 206 30 67 205 31 67 205 32 67 204 33 67 204 34 67 203 35 67 203 36 67 202 37 67 202 38 67 201 39 67 201 220 40 40 220 40 40 220 40 40 220 40 40 220 40 40 220 40 40 220 40 40 220 40 40 220 40 40 220 40 40 220 40 40 220 40 40 220 40 40 220 40 40 220 40 40 220 40 40 220 40 40 220 40 40 220 40 40 220 40 40 220 40 40 220 40 40 220 40 40 220 40 40 220 40 40 220 40 40 220 40 40 220 40 40 220 40 40 220 40 40 220 40 40 220 40 40 220 40 40 220 40 40 220 40 40 220 40 40 220 40 40 220 40 40 220 40 40 220 40 40 220 40 40 220 40 40 220 40 40 220 40 40 220 40 40 220 40 40 220 40 40 220 40 40 220 40 40 220 40 40 220 40 40 220 40 40 220 40 40 220 40 40 220 40 40 220 40 40 220 40 40 220 40 40 220 40 40 220 40 40 220 40 40 220 40 40 220 40 40 220 40 40 220 40 40 220 40 40 220 40 40 220 40 40 220 40 40 220 40 40 220 40 40 220 40 40 220 40 40 220 40 40 220 40 40 220 40 40 220 40 40 220 40 40 220 40 40 119 67 161 120 67 160 121 67 160 122 67 159 123 67 159 124 67 158 125 67 158 126 67 157 127 67 157 128 67 156 129 67 156 130 67 155 131 67 155 132 67 154 133 67 154 134 67 153 135 67 153 40 210 70 40 210 70 40 210 70 40 210 70 40 210 70 40 210 70 40 210 70 40 210 70 40 210 70 40 210 70 40 210 70 40 210 70 40 210 70 40 210 70 40 210 70 40 210 70 40 210 70 40 210 70 40 210 70 40 210 70 40 210 70 40 210 70 40 210 70 40 210 70 40 210 70 40 210 70 40 210 70 40 210 70 40 210 70 40 210 70 40 210 70 40 210 70 40 210 70 40 210 70 40 210 70 40 210 70 40 210 70 40 210 70 40 210 70 40 210 70 40 210 70 40 210 70 40 210 70 40 210 70 40 210 70 40 210 70 40 210 70 40 210 70 40 210 70 40 210 70 40 210 70 40 210 70 40 210 70 40 210 70 40 210 70 40 210 70 40 210 70 40 210 70 40 210 70 40 210 70 40 210 70 40 210 70 40 210 70 40 210 70 40 210 70 40 210 70 40 210 70 40 210 70 40 210 70 40 210 70 40 210 70 40 210 70 40 210 70 40 210 70 40 210 70 40 210 70 40 210 70 40 210 70 40 210 70 40 210 70 40 210 70 40 210 70 40 210 70 40 210 70 40 210 70 40 210 70 40 210 70 223 67 109 224 67 109 225 67 108 226 67 108 227 67 107 228 67 107 229 67 106 230 67 106 231 67 105 232 67 105 233 67 104 234 67 104 235 67 103 236 67 103 237 67 102 238 67 102 239 67 101 240 67 101 241 67 100 242 67 100 243 67 99 244 67 99 245 67 98 246 67 98 247 67 97 248 67 97 249 67 96 250 67 96 251 67 95 252 67 95 253 67 94 254 67 94 
0 68 220 0 68 220 1 68 219 2 68 219 3 68 218 4 68 218 5 68 217 6 68 217 7 68 216 8 68 216 9 68 215 10 68 215 11 68 214 12 68 214 13 68 213 14 68 213 15 68 212 16 68 212 17 68 211 18 68 211 19 68 210 20 68 210 21 68 209 22 68 209 23 68 208 24 68 208 25 68 207 26 68 207 27 68 206 28 68 206 29 68 205 30 68 205 31 68 204 32 68 204 33 68 203 34 68 203 35 68 202 36 68 202 37 68 201 38 68 201 39 68 200 220 40 40 220 40 40 220 40 40 220 40 40 220 40 40 220 40 40 220 40 40 220 40 40 220 40 40 220 40 40 220 40 40 220 40 40 220 40 40 220 40 40 220 40 40 220 40 40 220 40 40 220 40 40 220 40 40 220 40 40 220 40 40 220 40 40 220 40 40 220 40 40 220 40 40 220 40 40 220 40 40 220 40 40 220 40 40 220 40 40 220 40 40 220 40 40 220 40 40 220 40 40 220 40 40 220 40 40 220 40 40 220 40 40 220 40 40 220 40 40 220 40 40 220 40 40 220 40 40 220 40 40 220 40 40 220 40 40 220 40 40 220 40 40 220 40 40 220 40 40 220 40 40 220 40 40 220 40 40 220 40 40 220 40 40 220 40 40 220 40 40 220 40 40 220 40 40 220 40 40 220 40 40 220 40 40 220 40 40 220 40 40 220 40 40 220 40 40 220 40 40 220 40 40 220 40 40 220 40 40 220 40 40 220 40 40 220 40 40 220 40 40 220 40 40 220 40 40 220 40 40 220 40 40 220 40 40 119 68 160 120 68 160 121 68 159 122 68 159 123 68 158 124 68 158 125 68 157 126 68 157 127 68 156 128 68 156 129 68 155 130 68 155 131 68 154 132 68 154 133 68 153 134 68 153 135 68 152 40 210 70 40 210 70 40 210 70 40 210 70 40 210 70 40 210 70 40 210 70 40 210 70 40 210 70 40 210 70 40 210 70 40 210 70 40 210 70 40 210 70 40 210 70 40 210 70 40 210 70 40 210 70 40 210 70 40 210 70 40 210 70 40 210 70 40 210 70 40 210 70 40 210 70 40 210 70 40 210 70 40 210 70 40 210 70 40 210 70 40 210 70 40 210 70 40 210 70 40 210 70 40 210 70 40 210 70 40 210 70 40 210 70 40 210 70 40 210 70 40 210 70 40 210 70 40 210 70 40 210 70 40 210 70 40 210 70 40 210 70 40 210 70 40 210 70 40 210 70 40 210 70 40 210 70 40 210 70 40 210 70 40 210 70 40 210 70 40 210 70 40 210 70 40 210 70 40 210 70 40 210 70 40 210 70 40 210 70 40 210 70 40 210 70 40 210 70 40 210 70 40 210 70 40 210 70 40 210 70 40 210 70 40 210 70 40 210 70 40 210 70 40 210 70 40 210 70 40 210 70 40 210 70 40 210 70 40 210 70 40 210 70 40 210 70 40 210 70 40 210 70 40 210 70 40 210 70 40 210 70 223 68 109 224 68 108 225 68 108 226 68 107 227 68 107 228 68 106 229 68 106 230 68 105 231 68 105 232 68 104 233 68 104 234 68 103 235 68 103 236 68 102 237 68 102 238 68 101 239 68 101 240 68 100 241 68 100 242 68 99 243 68 99 244 68 98 245 68 98 246 68 97 247 68 97 248 68 96 249 68 96 250 68 95 251 68 95 252 68 94 253 68 94 254 68 93 
0 69 220 0 69 219 1 69 219 2 69 218 3 69 218 4 69 217 5 69 217 6 69 216 7 69 216 8 69 215 9 69 215 10 69 214 11 69 214 12 69 213 13 69 213 14 69 212 15 69 212 16 69 211 17 69 211 18 69 210 19 69 210 20 69 209 21 69 209 22 69 208 23 69 208 24 69 207 25 69 207 26 69 206 27 69 206 28 69 205 29 69 205 30 69 204 31 69 204 32 69 203 33 69 203 34 69 202 35 69 202 36 69 201 37 69 201 38 69 200 39 69 200 220 40 40 220 40 40 220 40 40 220 40 40 220 40 40 220 40 40 220 40 40 220 40 40 220 40 40 220 40 40 220 40 40 220 40 40 220 40 40 220 40 40 220 40 40 220 40 40 220 40 40 220 40 40 220 40 40 220 40 40 220 40 40 220 40 40 220 40 40 220 40 40 220 40 40 220 40 40 220 40 40 220 40 40 220 40 40 220 40 40 220 40 40 220 40 40 220 40 40 220 40 40 220 40 40 220 40 40 220 40 40 220 40 40 220 40 40 220 40 40 220 40 40 220 40 40 220 40 40 220 40 40 220 40 40 220 40 40 220 40 40 220 40 40 220 40 40 220 40 40 220 40 40 220 40 40 220 40 40 220 40 40 220 40 40 220 40 40 220 40 40 220 40 40 220 40 40 220 40 40 220 40 40 220 40 40 220 40 40 220 40 40 220 40 40 220 40 40 220 40 40 220 40 40 220 40 40 220 40 40 220 40 40 220 40 40 220 40 40 220 40 40 220 40 40 220 40 40 220 40 40 220 40 40 220 40 40 119 69 160 120 69 159 121 69 159 122 69 158 123 69 158 124 69 157 125 69 157 126 69 156 127 69 156 128 69 155 129 69 155 130 69 154 131 69 154 132 69 153 133 69 153 134 69 152 135 69 152 40 210 70 40 210 70 40 210 70 40 210 70 40 210 70 40 210 70 40 210 70 40 210 70 40 210 70 40 210 70 40 210 70 40 210 70 40 210 70 40 210 70 40 210 70 40 210 70 40 210 70 40 210 70 40 210 70 40 210 70 40 210 70 40 210 70 40 210 70 40 210 70 40 210 70 40 210 70 40 210 70 40 210 70 40 210 70 40 210 70 40 210 70 40 210 70 40 210 70 40 210 70 40 210 70 40 210 70 40 210 70 40 210 70 40 210 70 40 210 70 40 210 70 40 210 70 40 210 70 40 210 70 40 210 70 40 210 70 40 210 70 40 210 70 40 210 70 40 210 70 40 210 70 40 210 70 40 210 70 40 210 70 40 210 70 40 210 70 40 210 70 40 210 70 40 210 70 40 210 70 40 210 70 40 210 70 40 210 70 40 210 70 40 210 70 40 210 70 40 210 70 40 210 70 40 210 70 40 210 70 40 210 70 40 210 70 40 210 70 40 210 70 40 210 70 40 210 70 40 210 70 40 210 70 40 210 70 40 210 70 40 210 70 40 210 70 40 210 70 40 210 70 40 210 70 40 210 70 40 210 70 223 69 108 224 69 108 225 69 107 226 69 107 227 69 106 228 69 106 229 69 105 230 69 105 231 69 104 232 69 104 233 69 103 234 69 103 235 69 102 236 69 102 237 69 101 238 69 101 239 69 100 240 69 100 241 69 99 242 69 99 243 69 98 244 69 98 245 69 97 246 69 97 247 69 96 248 69 96 249 69 95 250 69 95 251 69 94 252 69 94 253 69 93 254 69 93 
0 70 219 0 70 219 1 70 218 2 70 218 3 70 217 4 70 217 5 70 216 6 70 216 7 70 215 8 70 215 9 70 214 10 70 214 11 70 213 12 70 213 13 70 212 14 70 212 15 70 211 16 70 211 17 70 210 18 70 210 19 70 209 20 70 209 21 70 208 22 70 208 23 70 207 24 70 207 25 70 206 26 70 206 27 70 205 28 70 205 29 70 204 30 70 204 31 70 203 32 70 203 33 70 202 34 70 202 35 70 201 36 70 201 37 70 200 38 70 200 39 70 199 220 40 40 220 40 40 220 40 40 220 40 40 220 40 40 220 40 40 220 40 40 220 40 40 220 40 40 220 40 40 220 40 40 220 40 40 220 40 40 220 40 40 220 40 40 220 40 40 220 40 40 220 40 40 220 40 40 220 40 40 220 40 40 220 40 40 220 40 40 220 40 40 220 40 40 220 40 40 220 40 40 220 40 40 220 40 40 220 40 40 220 40 40 220 40 40 220 40 40 220 40 40 220 40 40 220 40 40 220 40 40 220 40 40 220 40 40 220 40 40 220 40 40 220 40 40 220 40 40 220 40 40 220 40 40 220 40 40 220 40 40 220 40 40 220 40 40 220 40 40 220 40 40 220 40 40 220 40 40 220 40 40 220 40 40 220 40 40 220 40 40 220 40 40 220 40 40 220 40 40 220 40 40 220 40 40 220 40 40 220 40 40 220 40 40 220 40 40 220 40 40 220 40 40 220 40 40 220 40 40 220 40 40 220 40 40 220 40 40 220 40 40 220 40 40 220 40 40 220 40 40 220 40 40 220 40 40 119 70 159 120 70 159 121 70 158 122 70 158 123 70 157 124 70 157 125 70 156 126 70 156 127 70 155 128 70 155 129 70 154 130 70 154 131 70 153 132 70 153 133 70 152 134 70 152 40 210 70 40 210 70 40 210 70 40 210 70 40 210 70 40 210 70 40 210 70 40 210 70 40 210 70 40 210 70 40 210 70 40 210 70 40 210 70 40 210 70 40 210 70 40 210 70 40 210 70 40 210 70 40 210 70 40 210 70 40 210 70 40 210 70 40 210 70 40 210 70 40 210 70 40 210 70 40 210 70 40 210 70 40 210 70 40 210 70 40 210 70 40 210 70 40 210 70 40 210 70 40 210 70 40 210 70 40 210 70 40 210 70 40 210 70 40 210 70 40 210 70 40 210 70 40 210 70 40 210 70 40 210 70 40 210 70 40 210 70 40 210 70 40 210 70 40 210 70 40 210 70 40 210 70 40 210 70 40 210 70 40 210 70 40 210 70 40 210 70 40 210 70 40 210 70 40 210 70 40 210 70 40 210 70 40 210 70 40 210 70 40 210 70 40 210 70 40 210 70 40 210 70 40 210 70 40 210 70 40 210 70 40 210 70 40 210 70 40 210 70 40 210 70 40 210 70 40 210 70 40 210 70 40 210 70 40 210 70 40 210 70 40 210 70 40 210 70 40 210 70 40 210 70 40 210 70 40 210 70 40 210 70 40 210 70 224 70 107 225 70 107 226 70 106 227 70 106 228 70 105 229 70 105 230 70 104 231 70 104 232 70 103 233 70 103 234 70 102 235 70 102 236 70 101 237 70 101 238 70 100 239 70 100 240 70 99 241 70 99 242 70 98 243 70 98 244 70 97 245 70 97 246 70 96 247 70 96 248 70 95 249 70 95 250 70 94 251 70 94 252 70 93 253 70 93 254 70 92 
0 71 219 0 71 218 1 71 218 2 71 217 3 71 217 4 71 216 5 71 216 6 71 215 7 71 215 8 71 214 9 71 214 10 71 213 11 71 213 12 71 212 13 71 212 14 71 211 15 71 211 16 71 210 17 71 210 18 71 209 19 71 209 20 71 208 21 71 208 22 71 207 23 71 207 24 71 206 25 71 206 26 71 205 27 71 205 28 71 204 29 71 204 30 71 203 31 71 203 32 71 202 33 71 202 34 71 201 35 71 201 36 71 200 37 71 200 38 71 199 39 71 199 220 40 40 220 40 40 220 40 40 220 40 40 220 40 40 220 40 40 220 40 40 220 40 40 220 40 40 220 40 40 220 40 40 220 40 40 220 40 40 220 40 40 220 40 40 220 40 40 220 40 40 220 40 40 220 40 40 220 40 40 220 40 40 220 40 40 220 40 40 220 40 40 220 40 40 220 40 40 220 40 40 220 40 40 220 40 40 220 40 40 220 40 40 220 40 40 220 40 40 220 40 40 220 40 40 220 40 40 220 40 40 220 40 40 220 40 40 220 40 40 220 40 40 220 40 40 220 40 40 220 40 40 220 40 40 220 40 40 220 40 40 220 40 40 220 40 40 220 40 40 220 40 40 220 40 40 220 40 40 220 40 40 220 40 40 220 40 40 220 40 40 220 40 40 220 40 40 220 40 40 220 40 40 220 40 40 220 40 40 220 40 40 220 40 40 220 40 40 220 40 40 220 40 40 220 40 40 220 40 40 220 40 40 220 40 40 220 40 40 220 40 40 220 40 40 220 40 40 220 40 40 220 40 40 220 40 40 119 71 159 120 71 158 121 71 158 122 71 157 123 71 157 124 71 156 125 71 156 126 71 155 127 71 155 128 71 154 129 71 154 130 71 153 131 71 153 132 71 152 133 71 152 134 71 151 40 210 70 40 210 70 40 210 70 40 210 70 40 210 70 40 210 70 40 210 70 40 210 70 40 210 70 40 210 70 40 210 70 40 210 70 40 210 70 40 210 70 40 210 70 40 210 70 40 210 70 40 210 70 40 210 70 40 210 70 40 210 70 40 210 70 40 210 70 40 210 70 40 210 70 40 210 70 40 210 70 40 210 70 40 210 70 40 210 70 40 210 70 40 210 70 40 210 70 40 210 70 40 210 70 40 210 70 40 210 70 40 210 70 40 210 70 40 210 70 40 210 70 40 210 70 40 210 70 40 210 70 40 210 70 40 210 70 40 210 70 40 210 70 40 210 70 40 210 70 40 210 70 40 210 70 40 210 70 40 210 70 40 210 70 40 210 70 40 210 70 40 210 70 40 210 70 40 210 70 40 210 70 40 210 70 40 210 70 40 210 70 40 210 70 40 210 70 40 210 70 40 210 70 40 210 70 40 210 70 40 210 70 40 210 70 40 210 70 40 210 70 40 210 70 40 210 70 40 210 70 40 210 70 40 210 70 40 210 70 40 210 70 40 210 70 40 210 70 40 210 70 40 210 70 40 210 70 40 210 70 40 210 70 40 210 70 224 71 107 225 71 106 226 71 106 227 71 105 228 71 105 229 71 104 230 71 104 231 71 103 232 71 103 233 71 102 234 71 102 235 71 101 236 71 101 237 71 100 238 71 100 239 71 99 240 71 99 241 71 98 242 71 98 243 71 97 244 71 97 245 71 96 246 71 96 247 71 95 248 71 95 249 71 94 250 71 94 251 71 93 252 71 93 253 71 92 254 71 92 
0 72 218 0 72 218 1 72 217 2 72 217 3 72 216 4 72 216 5 72 215 6 72 215 7 72 214 8 72 214 9 72 213 10 72 213 11 72 212 12 72 212 13 72 211 14 72 211 15 72 210 16 72 210 17 72 209 18 72 209 19 72 208 20 72 208 21 72 207 22 72 207 23 72 206 24 72 206 25 72 205 26 72 205 27 72 204 28 72 204 29 72 203 30 72 203 31 72 202 32 72 202 33 72 201 34 72 201 35 72 200 36 72 200 37 72 199 38 72 199 39 72 198 220 40 40 220 40 40 220 40 40 220 40 40 220 40 40 220 40 40 220 40 40 220 40 40 220 40 40 220 40 40 220 40 40 220 40 40 220 40 40 220 40 40 220 40 40 220 40 40 220 40 40 220 40 40 220 40 40 220 40 40 220 40 40 220 40 40 220 40 40 220 40 40 220 40 40 220 40 40 220 40 40 220 40 40 220 40 40 220 40 40 220 40 40 220 40 40 220 40 40 220 40 40 220 40 40 220 40 40 220 40 40 220 40 40 220 40 40 220 40 40 220 40 40 220 40 40 220 40 40 220 40 40 220 40 40 220 40 40 220 40 40 220 40 40 220 40 40 220 40 40 220 40 40 220 40 40 220 40 40 220 40 40 220 40 40 220 40 40 220 40 40 220 40 40 220 40 40 220 40 40 220 40 40 220 40 40 220 40 40 220 40 40 220 40 40 220 40 40 220 40 40 220 40 40 220 40 40 220 40 40 220 40 40 220 40 40 220 40 40 220 40 40 220 40 40 220 40 40 220 40 40 220 40 40 220 40 40 119 72 158 120 72 158 121 72 157 122 72 157 123 72 156 124 72 156 125 72 155 126 72 155 127 72 154 128 72 154 129 72 153 130 72 153 131 72 152 132 72 152 133 72 151 134 72 151 40 210 70 40 210 70 40 210 70 40 210 70 40 210 70 40 210 70 40 210 70 40 210 70 40 210 70 40 210 70 40 210 70 40 210 70 40 210 70 40 210 70 40 210 70 40 210 70 40 210 70 40 210 70 40 210 70 40 210 70 40 210 70 40 210 70 40 210 70 40 210 70 40 210 70 40 210 70 40 210 70 40 210 70 40 210 70 40 210 70 40 210 70 40 210 70 40 210 70 40 210 70 40 210 70 40 210 70 40 210 70 40 210 70 40 210 70 40 210 70 40 210 70 40 210 70 40 210 70 40 210 70 40 210 70 40 210 70 40 210 70 40 210 70 40 210 70 40 210 70 40 210 70 40 210 70 40 210 70 40 210 70 40 210 70 40 210 70 40 210 70 40 210 70 40 210 70 40 210 70 40 210 70 40 210 70 40 210 70 40 210 70 40 210 70 40 210 70 40 210 70 40 210 70 40 210 70 40 210 70 40 210 70 40 210 70 40 210 70 40 210 70 40 210 70 40 210 70 40 210 70 40 210 70 40 210 70 40 210 70 40 210 70 40 210 70 40 210 70 40 210 70 40 210 70 40 210 70 40 210 70 40 210 70 40 210 70 224 72 106 225 72 106 226 72 105 227 72 105 228 72 104 229 72 104 230 72 103 231 72 103 232 72 102 233 72 102 234 72 101 235 72 101 236 72 100 237 72 100 238 72 99 239 72 99 240 72 98 241 72 98 242 72 97 243 72 97 244 72 96 245 72 96 246 72 95 247 72 95 248 72 94 249 72 94 250 72 93 251 72 93 252 72 92 253 72 92 254 72 91 
0 73 218 0 73 217 1 73 217 2 73 216 3 73 216 4 73 215 5 73 215 6 73 214 7 73 214 8 73 213 9 73 213 10 73 212 11 73 212 12 73 211 13 73 211 14 73 210 15 73 210 16 73 209 17 73 209 18 73 208 19 73 208 20 73 207 21 73 207 22 73 206 23 73 206 24 73 205 25 73 205 26 73 204 27 73 204 28 73 203 29 73 203 30 73 202 31 73 202 32 73 201 33 73 201 34 73 200 35 73 200 36 73 199 37 73 199 38 73 198 39 73 198 220 40 40 220 40 40 220 40 40 220 40 40 220 40 40 220 40 40 220 40 40 220 40 40 220 40 40 220 40 40 220 40 40 220 40 40 220 40 40 220 40 40 220 40 40 220 40 40 220 40 40 220 40 40 220 40 40 220 40 40 220 40 40 220 40 40 220 40 40 220 40 40 220 40 40 220 40 40 220 40 40 220 40 40 220 40 40 220 40 40 220 40 40 220 40 40 220 40 40 220 40 40 220 40 40 220 40 40 220 40 40 220 40 40 220 40 40 220 40 40 220 40 40 220 40 40 220 40 40 220 40 40 220 40 40 220 40 40 220 40 40 220 40 40 220 40 40 220 40 40 220 40 40 220 40 40 220 40 40 220 40 40 220 40 40 220 40 40 220 40 40 220 40 40 220 40 40 220 40 40 220 40 40 220 40 40 220 40 40 220 40 40 220 40 40 220 40 40 220 40 40 220 40 40 220 40 40 220 40 40 220 40 40 220 40 40 220 40 40 220 40 40 220 40 40 220 40 40 220 40 40 220 40 40 220 40 40 119 73 158 120 73 157 121 73 157 122 73 156 123 73 156 124 73 155 125 73 155 126 73 154 127 73 154 128 73 153 129 73 153 130 73 152 131 73 152 132 73 151 133 73 151 134 73 150 40 210 70 40 210 70 40 210 70 40 210 70 40 210 70 40 210 70 40 210 70 40 210 70 40 210 70 40 210 70 40 210 70 40 210 70 40 210 70 40 210 70 40 210 70 40 210 70 40 210 70 40 210 70 40 210 70 40 210 70 40 210 70 40 210 70 40 210 70 40 210 70 40 210 70 40 210 70 40 210 70 40 210 70 40 210 70 40 210 70 40 210 70 40 210 70 40 210 70 40 210 70 40 210 70 40 210 70 40 210 70 40 210 70 40 210 70 40 210 70 40 210 70 40 210 70 40 210 70 40 210 70 40 210 70 40 210 70 40 210 70 40 210 70 40 210 70 40 210 70 40 210 70 40 210 70 40 210 70 40 210 70 40 210 70 40 210 70 40 210 70 40 210 70 40 210 70 40 210 70 40 210 70 40 210 70 40 210 70 40 210 70 40 210 70 40 210 70 40 210 70 40 210 70 40 210 70 40 210 70 40 210 70 40 210 70 40 210 70 40 210 70 40 210 70 40 210 70 40 210 70 40 210 70 40 210 70 40 210 70 40 210 70 40 210 70 40 210 70 40 210 70 40 210 70 40 210 70 40 210 70 40 210 70 40 210 70 224 73 106 225 73 105 226 73 105 227 73 104 228 73 104 229 73 103 230 73 103 231 73 102 232 73 102 233 73 101 234 73 101 235 73 100 236 73 100 237 73 99 238 73 99 239 73 98 240 73 98 241 73 97 242 73 97 243 73 96 244 73 96 245 73 95 246 73 95 247 73 94 248 73 94 249 73 93 250 73 93 251 73 92 252 73 92 253 73 91 254 73 91 
0 74 217 0 74 217 1 74 216 2 74 216 3 74 215 4 74 215 5 74 214 6 74 214 7 74 213 8 74 213 9 74 212 10 74 212 11 74 211 12 74 211 13 74 210 14 74 210 15 74 209 16 74 209 17 74 208 18 74 208 19 74 207 20 74 207 21 74 206 22 74 206 23 74 205 24 74 205 25 74 204 26 74 204 27 74 203 28 74 203 29 74 202 30 74 202 31 74 201 32 74 201 33 74 200 34 74 200 35 74 199 36 74 199 37 74 198 38 74 198 39 74 197 220 40 40 220 40 40 220 40 40 220 40 40 220 40 40 220 40 40 220 40 40 220 40 40 220 40 40 220 40 40 220 40 40 220 40 40 220 40 40 220 40 40 220 40 40 220 40 40 220 40 40 220 40 40 220 40 40 220 40 40 220 40 40 220 40 40 220 40 40 220 40 40 220 40 40 220 40 40 220 40 40 220 40 40 220 40 40 220 40 40 220 40 40 220 40 40 220 40 40 220 40 40 220 40 40 220 40 40 220 40 40 220 40 40 220 40 40 220 40 40 220 40 40 220 40 40 220 40 40 220 40 40 220 40 40 220 40 40 220 40 40 220 40 40 220 40 40 220 40 40 220 40 40 220 40 40 220 40 40 220 40 40 220 40 40 220 40 40 220 40 40 220 40 40 220 40 40 220 40 40 220 40 40 220 40 40 220 40 40 220 40 40 220 40 40 220 40 40 220 40 40 220 40 40 220 40 40 220 40 40 220 40 40 220 40 40 220 40 40 220 40 40 220 40 40 220 40 40 220 40 40 220 40 40 220 40 40 119 74 157 120 74 157 121 74 156 122 74 156 123 74 155 124 74 155 125 74 154 126 74 154 127 74 153 128 74 153 129 74 152 130 74 152 131 74 151 132 74 151 133 74 150 134 74 150 40 210 70 40 210 70 40 210 70 40 210 70 40 210 70 40 210 70 40 210 70 40 210 70 40 210 70 40 210 70 40 210 70 40 210 70 40 210 70 40 210 70 40 210 70 40 210 70 40 210 70 40 210 70 40 210 70 40 210 70 40 210 70 40 210 70 40 210 70 40 210 70 40 210 70 40 210 70 40 210 70 40 210 70 40 210 70 40 210 70 40 210 70 40 210 70 40 210 70 40 210 70 40 210 70 40 210 70 40 210 70 40 210 70 40 210 70 40 210 70 40 210 70 40 210 70 40 210 70 40 210 70 40 210 70 40 210 70 40 210 70 40 210 70 40 210 70 40 210 70 40 210 70 40 210 70 40 210 70 40 210 70 40 210 70 40 210 70 40 210 70 40 210 70 40 210 70 40 210 70 40 210 70 40 210 70 40 210 70 40 210 70 40 210 70 40 210 70 40 210 70 40 210 70 40 210 70 40 210 70 40 210 70 40 210 70 40 210 70 40 210 70 40 210 70 40 210 70 40 210 70 40 210 70 40 210 70 40 210 70 40 210 70 40 210 70 40 210 70 40 210 70 40 210 70 40 210 70 40 210 70 40 210 70 40 210 70 224 74 105 225 74 105 226 74 104 227 74 104 228 74 103 229 74 103 230 74 102 231 74 102 232 74 101 233 74 101 234 74 100 235 74 100 236 74 99 237 74 99 238 74 98 239 74 98 240 74 97 241 74 97 242 74 96 243 74 96 244 74 95 245 74 95 246 74 94 247 74 94 248 74 93 249 74 93 250 74 92 251 74 92 252 74 91 253 74 91 254 74 90 
0 75 217 0 75 216 1 75 216 2 75 215 3 75 215 4 75 214 5 75 214 6 75 213 7 75 213 8 75 212 9 75 212 10 75 211 11 75 211 12 75 210 13 75 210 14 75 209 15 75 209 16 75 208 17 75 208 18 75 207 19 75 207 20 75 206 21 75 206 22 75 205 23 75 205 24 75 204 25 75 204 26 75 203 27 75 203 28 75 202 29 75 202 30 75 201 31 75 201 32 75 200 33 75 200 34 75 199 35 75 199 36 75 198 37 75 198 38 75 197 39 75 197 220 40 40 220 40 40 220 40 40 220 40 40 220 40 40 220 40 40 220 40 40 220 40 40 220 40 40 220 40 40 220 40 40 220 40 40 220 40 40 220 40 40 220 40 40 220 40 40 220 40 40 220 40 40 220 40 40 220 40 40 220 40 40 220 40 40 220 40 40 220 40 40 220 40 40 220 40 40 220 40 40 220 40 40 220 40 40 220 40 40 220 40 40 220 40 40 220 40 40 220 40 40 220 40 40 220 40 40 220 40 40 220 40 40 220 40 40 220 40 40 220 40 40 220 40 40 220 40 40 220 40 40 220 40 40 220 40 40 220 40 40 220 40 40 220 40 40 220 40 40 220 40 40 220 40 40 220 40 40 220 40 40 220 40 40 220 40 40 220 40 40 220 40 40 220 40 40 220 40 40 220 40 40 220 40 40 220 40 40 220 40 40 220 40 40 220 40 40 220 40 40 220 40 40 220 40 40 220 40 40 220 40 40 220 40 40 220 40 40 220 40 40 220 40 40 220 40 40 220 40 40 220 40 40 220 40 40 119 75 157 120 75 156 121 75 156 122 75 155 123 75 155 124 75 154 125 75 154 126 75 153 127 75 153 128 75 152 129 75 152 130 75 151 131 75 151 132 75 150 133 75 150 134 75 149 40 210 70 40 210 70 40 210 70 40 210 70 40 210 70 40 210 70 40 210 70 40 210 70 40 210 70 40 210 70 40 210 70 40 210 70 40 210 70 40 210 70 40 210 70 40 210 70 40 210 70 40 210 70 40 210 70 40 210 70 40 210 70 40 210 70 40 210 70 40 210 70 40 210 70 40 210 70 40 210 70 40 210 70 40 210 70 40 210 70 40 210 70 40 210 70 40 210 70 40 210 70 40 210 70 40 210 70 40 210 70 40 210 70 40 210 70 40 210 70 40 210 70 40 210 70 40 210 70 40 210 70 40 210 70 40 210 70 40 210 70 40 210 70 40 210 70 40 210 70 40 210 70 40 210 70 40 210 70 40 210 70 40 210 70 40 210 70 40 210 70 40 210 70 40 210 70 40 210 70 40 210 70 40 210 70 40 210 70 40 210 70 40 210 70 40 210 70 40 210 70 40 210 70 40 210 70 40 210 70 40 210 70 40 210 70 40 210 70 40 210 70 40 210 70 40 210 70 40 210 70 40 210 70 40 210 70 40 210 70 40 210 70 40 210 70 40 210 70 40 210 70 40 210 70 40 210 70 40 210 70 40 210 70 40 210 70 224 75 105 225 75 104 226 75 104 227 75 103 228 75 103 229 75 102 230 75 102 231 75 101 232 75 101 233 75 100 234 75 100 235 75 99 236 75 99 237 75 98 238 75 98 239 75 97 240 75 97 241 75 96 242 75 96 243 75 95 244 75 95 245 75 94 246 75 94 247 75 93 248 75 93 249 75 92 250 75 92 251 75 91 252 75 91 253 75 90 254 75 90 
0 76 216 0 76 216 1 76 215 2 76 215 3 76 214 4 76 214 5 76 213 6 76 213 7 76 212 8 76 212 9 76 211 10 76 211 11 76 210 12 76 210 13 76 209 14 76 209 15 76 208 16 76 208 17 76 207 18 76 207 19 76 206 20 76 206 21 76 205 22 76 205 23 76 204 24 76 204 25 76 203 26 76 203 27 76 202 28 76 202 29 76 201 30 76 201 31 76 200 32 76 200 33 76 199 34 76 199 35 76 198 36 76 198 37 76 197 38 76 197 39 76 196 220 40 40 220 40 40 220 40 40 220 40 40 220 40 40 220 40 40 220 40 40 220 40 40 220 40 40 220 40 40 220 40 40 220 40 40 220 40 40 220 40 40 220 40 40 220 40 40 220 40 40 220 40 40 220 40 40 220 40 40 220 40 40 220 40 40 220 40 40 220 40 40 220 40 40 220 40 40 220 40 40 220 40 40 220 40 40 220 40 40 220 40 40 220 40 40 220 40 40 220 40 40 220 40 40 220 40 40 220 40 40 220 40 40 220 40 40 220 40 40 220 40 40 220 40 40 220 40 40 220 40 40 220 40 40 220 40 40 220 40 40 220 40 40 220 40 40 220 40 40 220 40 40 220 40 40 220 40 40 220 40 40 220 40 40 220 40 40 220 40 40 220 40 40 220 40 40 220 40 40 220 40 40 220 40 40 220 40 40 220 40 40 220 40 40 220 40 40 220 40 40 220 40 40 220 40 40 220 40 40 220 40 40 220 40 40 220 40 40 220 40 40 220 40 40 220 40 40 220 40 40 220 40 40 220 40 40 119 76 156 120 76 156 121 76 155 122 76 155 123 76 154 124 76 154 125 76 153 126 76 153 127 76 152 128 76 152 129 76 151 130 76 151 131 76 150 132 76 150 133 76 149 134 76 149 40 210 70 40 210 70 40 210 70 40 210 70 40 210 70 40 210 70 40 210 70 40 210 70 40 210 70 40 210 70 40 210 70 40 210 70 40 210 70 40 210 70 40 210 70 40 210 70 40 210 70 40 210 70 40 210 70 40 210 70 40 210 70 40 210 70 40 210 70 40 210 70 40 210 70 40 210 70 40 210 70 40 210 70 40 210 70 40 210 70 40 210 70 40 210 70 40 210 70 40 210 70 40 210 70 40 210 70 40 210 70 40 210 70 40 210 70 40 210 70 40 210 70 40 210 70 40 210 70 40 210 70 40 210 70 40 210 70 40 210 70 40 210 70 40 210 70 40 210 70 40 210 70 40 210 70 40 210 70 40 210 70 40 210 70 40 210 70 40 210 70 40 210 70 40 210 70 40 210 70 40 210 70 40 210 70 40 210 70 40 210 70 40 210 70 40 210 70 40 210 70 40 210 70 40 210 70 40 210 70 40 210 70 40 210 70 40 210 70 40 210 70 40 210 70 40 210 70 40 210 70 40 210 70 40 210 70 40 210 70 40 210 70 40 210 70 40 210 70 40 210 70 40 210 70 40 210 70 40 210 70 40 210 70 40 210 70 224 76 104 225 76 104 226 76 103 227 76 103 228 76 102 229 76 102 230 76 101 231 76 101 232 76 100 233 76 100 234 76 99 235 76 99 236 76 98 237 76 98 238 76 97 239 76 97 240 76 96 241 76 96 242 76 95 243 76 95 244 76 94 245 76 94 246 76 93 247 76 93 248 76 92 249 76 92 250 76 91 251 76 91 252 76 90 253 76 90 254 76 89 
0 77 216 0 77 215 1 77 215 2 77 214 3 77 214 4 77 213 5 77 213 6 77 212 7 77 212 8 77 211 9 77 211 10 77 210 11 77 210 12 77 209 13 77 209 14 77 208 15 77 208 16 77 207 17 77 207 18 77 206 19 77 206 20 77 205 21 77 205 22 77 204 23 77 204 24 77 203 25 77 203 26 77 202 27 77 202 28 77 201 29 77 201 30 77 200 31 77 200 32 77 199 33 77 199 34 77 198 35 77 198 36 77 197 37 77 197 38 77 196 39 77 196 220 40 40 220 40 40 220 40 40 220 40 40 220 40 40 220 40 40 220 40 40 220 40 40 220 40 40 220 40 40 220 40 40 220 40 40 220 40 40 220 40 40 220 40 40 220 40 40 220 40 40 220 40 40 220 40 40 220 40 40 220 40 40 220 40 40 220 40 40 220 40 40 220 40 40 220 40 40 220 40 40 220 40 40 220 40 40 220 40 40 220 40 40 220 40 40 220 40 40 220 40 40 220 40 40 220 40 40 220 40 40 220 40 40 220 40 40 220 40 40 220 40 40 220 40 40 220 40 40 220 40 40 220 40 40 220 40 40 220 40 40 220 40 40 220 40 40 220 40 40 220 40 40 220 40 40 220 40 40 220 40 40 220 40 40 220 40 40 220 40 40 220 40 40 220 40 40 220 40 40 220 40 40 220 40 40 220 40 40 220 40 40 220 40 40 220 40 40 220 40 40 220 40 40 220 40 40 220 40 40 220 40 40 220 40 40 220 40 40 220 40 40 220 40 40 220 40 40 220 40 40 220 40 40 220 40 40 119 77 156 120 77 155 121 77 155 122 77 154 123 77 154 124 77 153 125 77 153 126 77 152 127 77 152 128 77 151 129 77 151 130 77 150 131 77 150 132 77 149 133 77 149 134 77 148 40 210 70 40 210 70 40 210 70 40 210 70 40 210 70 40 210 70 40 210 70 40 210 70 40 210 70 40 210 70 40 210 70 40 210 70 40 210 70 40 210 70 40 210 70 40 210 70 40 210 70 40 210 70 40 210 70 40 210 70 40 210 70 40 210 70 40 210 70 40 210 70 40 210 70 40 210 70 40 210 70 40 210 70 40 210 70 40 210 70 40 210 70 40 210 70 40 210 70 40 210 70 40 210 70 40 210 70 40 210 70 40 210 70 40 210 70 40 210 70 40 210 70 40 210 70 40 210 70 40 210 70 40 210 70 40 210 70 40 210 70 40 210 70 40 210 70 40 210 70 40 210 70 40 210 70 40 210 70 40 210 70 40 210 70 40 210 70 40 210 70 40 210 70 40 210 70 40 210 70 40 210 70 40 210 70 40 210 70 40 210 70 40 210 70 40 210 70 40 210 70 40 210 70 40 210 70 40 210 70 40 210 70 40 210 70 40 210 70 40 210 70 40 210 70 40 210 70 40 210 70 40 210 70 40 210 70 40 210 70 40 210 70 40 210 70 40 210 70 40 210 70 40 210 70 40 210 70 40 210 70 40 210 70 40 210 70 224 77 104 225 77 103 226 77 103 227 77 102 228 77 102 229 77 101 230 77 101 231 77 100 232 77 100 233 77 99 234 77 99 235 77 98 236 77 98 237 77 97 238 77 97 239 77 96 240 77 96 241 77 95 242 77 95 243 77 94 244 77 94 245 77 93 246 77 93 247 77 92 248 77 92 249 77 91 250 77 91 251 77 90 252 77 90 253 77 89 254 77 89 
0 78 215 0 78 215 1 78 214 2 78 214 3 78 213 4 78 213 5 78 212 6 78 212 7 78 211 8 78 211 9 78 210 10 78 210 11 78 209 12 78 209 13 78 208 14 78 208 15 78 207 16 78 207 17 78 206 18 78 206 19 78 205 20 78 205 21 78 204 22 78 204 23 78 203 24 78 203 25 78 202 26 78 202 27 78 201 28 78 201 29 78 200 30 78 200 31 78 199 32 78 199 33 78 198 34 78 198 35 78 197 36 78 197 37 78 196 38 78 196 39 78 195 220 40 40 220 40 40 220 40 40 220 40 40 220 40 40 220 40 40 220 40 40 220 40 40 220 40 40 220 40 40 220 40 40 220 40 40 220 40 40 220 40 40 220 40 40 220 40 40 220 40 40 220 40 40 220 40 40 220 40 40 220 40 40 220 40 40 220 40 40 220 40 40 220 40 40 220 40 40 220 40 40 220 40 40 220 40 40 220 40 40 220 40 40 220 40 40 220 40 40 220 40 40 220 40 40 220 40 40 220 40 40 220 40 40 220 40 40 220 40 40 220 40 40 220 40 40 220 40 40 220 40 40 220 40 40 220 40 40 220 40 40 220 40 40 220 40 40 220 40 40 220 40 40 220 40 40 220 40 40 220 40 40 220 40 40 220 40 40 220 40 40 220 40 40 220 40 40 220 40 40 220 40 40 220 40 40 220 40 40 220 40 40 220 40 40 220 40 40 220 40 40 220 40 40 220 40 40 220 40 40 220 40 40 220 40 40 220 40 40 220 40 40 220 40 40 220 40 40 220 40 40 220 40 40 220 40 40 119 78 155 120 78 155 121 78 154 122 78 154 123 78 153 124 78 153 125 78 152 126 78 152 127 78 151 128 78 151 129 78 150 130 78 150 131 78 149 132 78 149 133 78 148 134 78 148 40 210 70 40 210 70 40 210 70 40 210 70 40 210 70 40 210 70 40 210 70 40 210 70 40 210 70 40 210 70 40 210 70 40 210 70 40 210 70 40 210 70 40 210 70 40 210 70 40 210 70 40 210 70 40 210 70 40 210 70 40 210 70 40 210 70 40 210 70 40 210 70 40 210 70 40 210 70 40 210 70 40 210 70 40 210 70 40 210 70 40 210 70 40 210 70 40 210 70 40 210 70 40 210 70 40 210 70 40 210 70 40 210 70 40 210 70 40 210 70 40 210 70 40 210 70 40 210 70 40 210 70 40 210 70 40 210 70 40 210 70 40 210 70 40 210 70 40 210 70 40 210 70 40 210 70 40 210 70 40 210 70 40 210 70 40 210 70 40 210 70 40 210 70 40 210 70 40 210 70 40 210 70 40 210 70 40 210 70 40 210 70 40 210 70 40 210 70 40 210 70 40 210 70 40 210 70 40 210 70 40 210 70 40 210 70 40 210 70 40 210 70 40 210 70 40 210 70 40 210 70 40 210 70 40 210 70 40 210 70 40 210 70 40 210 70 40 210 70 40 210 70 40 210 70 40 210 70 40 210 70 40 210 70 40 210 70 224 78 103 225 78 103 226 78 102 227 78 102 228 78 101 229 78 101 230 78 100 231 78 100 232 78 99 233 78 99 234 78 98 235 78 98 236 78 97 237 78 97 238 78 96 239 78 96 240 78 95 241 78 95 242 78 94 243 78 94 244 78 93 245 78 93 246 78 92 247 78 92 248 78 91 249 78 91 250 78 90 251 78 90 252 78 89 253 78 89 254 78 88 
0 79 215 0 79 214 1 79 214 2 79 213 3 79 213 4 79 212 5 79 212 6 79 211 7 79 211 8 79 210 9 79 210 10 79 209 11 79 209 12 79 208 13 79 208 14 79 207 15 79 207 16 79 206 17 79 206 18 79 205 19 79 205 20 79 204 21 79 204 22 79 203 23 79 203 24 79 202 25 79 202 26 79 201 27 79 201 28 79 200 29 79 200 30 79 199 31 79 199 32 79 198 33 79 198 34 79 197 35 79 197 36 79 196 37 79 196 38 79 195 39 79 195 220 40 40 220 40 40 220 40 40 220 40 40 220 40 40 220 40 40 220 40 40 220 40 40 220 40 40 220 40 40 220 40 40 220 40 40 220 40 40 220 40 40 220 40 40 220 40 40 220 40 40 220 40 40 220 40 40 220 40 40 220 40 40 220 40 40 220 40 40 220 40 40 220 40 40 220 40 40 220 40 40 220 40 40 220 40 40 220 40 40 220 40 40 220 40 40 220 40 40 220 40 40 220 40 40 220 40 40 220 40 40 220 40 40 220 40 40 220 40 40 220 40 40 220 40 40 220 40 40 220 40 40 220 40 40 220 40 40 220 40 40 220 40 40 220 40 40 220 40 40 220 40 40 220 40 40 220 40 40 220 40 40 220 40 40 220 40 40 220 40 40 220 40 40 220 40 40 220 40 40 220 40 40 220 40 40 220 40 40 220 40 40 220 40 40 220 40 40 220 40 40 220 40 40 220 40 40 220 40 40 220 40 40 220 40 40 220 40 40 220 40 40 220 40 40 220 40 40 220 40 40 220 40 40 220 40 40 119 79 155 120 79 154 121 79 154 122 79 153 123 79 153 124 79 152 125 79 152 126 79 151 127 79 151 128 79 150 129 79 150 130 79 149 131 79 149 132 79 148 133 79 148 134 79 147 40 210 70 40 210 70 40 210 70 40 210 70 40 210 70 40 210 70 40 210 70 40 210 70 40 210 70 40 210 70 40 210 70 40 210 70 40 210 70 40 210 70 40 210 70 40 210 70 40 210 70 40 210 70 40 210 70 40 210 70 40 210 70 40 210 70 40 210 70 40 210 70 40 210 70 40 210 70 40 210 70 40 210 70 40 210 70 40 210 70 40 210 70 40 210 70 40 210 70 40 210 70 40 210 70 40 210 70 40 210 70 40 210 70 40 210 70 40 210 70 40 210 70 40 210 70 40 210 70 40 210 70 40 210 70 40 210 70 40 210 70 40 210 70 40 210 70 40 210 70 40 210 70 40 210 70 40 210 70 40 210 70 40 210 70 40 210 70 40 210 70 40 210 70 40 210 70 40 210 70 40 210 70 40 210 70 40 210 70 40 210 70 40 210 70 40 210 70 40 210 70 40 210 70 40 210 70 40 210 70 40 210 70 40 210 70 40 210 70 40 210 70 40 210 70 40 210 70 40 210 70 40 210 70 40 210 70 40 210 70 40 210 70 40 210 70 40 210 70 40 210 70 40 210 70 40 210 70 40 210 70 40 210 70 40 210 70 224 79 103 225 79 102 226 79 102 227 79 101 228 79 101 229 79 100 230 79 100 231 79 99 232 79 99 233 79 98 234 79 98 235 79 97 236 79 97 237 79 96 238 79 96 239 79 95 240 79 95 241 79 94 242 79 94 243 79 93 244 79 93 245 79 92 246 79 92 247 79 91 248 79 91 249 79 90 250 79 90 251 79 89 252 79 89 253 79 88 254 79 88 
0 80 214 0 80 214 1 80 213 2 80 213 3 80 212 4 80 212 5 80 211 6 80 211 7 80 210 8 80 210 9 80 209 10 80 209 11 80 208 12 80 208 13 80 207 14 80 207 15 80 206 16 80 206 17 80 205 18 80 205 19 80 204 20 80 204 21 80 203 22 80 203 23 80 202 24 80 202 25 80 201 26 80 201 27 80 200 28 80 200 29 80 199 30 80 199 31 80 198 32 80 198 33 80 197 34 80 197 35 80 196 36 80 196 37 80 195 38 80 195 39 80 194 220 40 40 220 40 40 220 40 40 220 40 40 220 40 40 220 40 40 220 40 40 220 40 40 220 40 40 220 40 40 220 40 40 220 40 40 220 40 40 220 40 40 220 40 40 220 40 40 220 40 40 220 40 40 220 40 40 220 40 40 220 40 40 220 40 40 220 40 40 220 40 40 220 40 40 220 40 40 220 40 40 220 40 40 220 40 40 220 40 40 220 40 40 220 40 40 220 40 40 220 40 40 220 40 40 220 40 40 220 40 40 220 40 40 220 40 40 220 40 40 220 40 40 220 40 40 220 40 40 220 40 40 220 40 40 220 40 40 220 40 40 220 40 40 220 40 40 220 40 40 220 40 40 220 40 40 220 40 40 220 40 40 220 40 40 220 40 40 220 40 40 220 40 40 220 40 40 220 40 40 220 40 40 220 40 40 220 40 40 220 40 40 220 40 40 220 40 40 220 40 40 220 40 40 220 40 40 220 40 40 220 40 40 220 40 40 220 40 40 220 40 40 220 40 40 220 40 40 220 40 40 220 40 40 220 40 40 119 80 154 120 80 154 121 80 153 122 80 153 123 80 152 124 80 152 125 80 151 126 80 151 127 80 150 128 80 150 129 80 149 130 80 149 131 80 148 132 80 148 133 80 147 134 80 147 40 210 70 40 210 70 40 210 70 40 210 70 40 210 70 40 210 70 40 210 70 40 210 70 40 210 70 40 210 70 40 210 70 40 210 70 40 210 70 40 210 70 40 210 70 40 210 70 40 210 70 40 210 70 40 210 70 40 210 70 40 210 70 40 210 70 40 210 70 40 210 70 40 210 70 40 210 70 40 210 70 40 210 70 40 210 70 40 210 70 40 210 70 40 210 70 40 210 70 40 210 70 40 210 70 40 210 70 40 210 70 40 210 70 40 210 70 40 210 70 40 210 70 40 210 70 40 210 70 40 210 70 40 210 70 40 210 70 40 210 70 40 210 70 40 210 70 40 210 70 40 210 70 40 210 70 40 210 70 40 210 70 40 210 70 40 210 70 40 210 70 40 210 70 40 210 70 40 210 70 40 210 70 40 210 70 40 210 70 40 210 70 40 210 70 40 210 70 40 210 70 40 210 70 40 210 70 40 210 70 40 210 70 40 210 70 40 210 70 40 210 70 40 210 70 40 210 70 40 210 70 40 210 70 40 210 70 40 210 70 40 210 70 40 210 70 40 210 70 40 210 70 40 210 70 40 210 70 40 210 70 40 210 70 40 210 70 224 80 102 225 80 102 226 80 101 227 80 101 228 80 100 229 80 100 230 80 99 231 80 99 232 80 98 233 80 98 234 80 97 235 80 97 236 80 96 237 80 96 238 80 95 239 80 95 240 80 94 241 80 94 242 80 93 243 80 93 244 80 92 245 80 92 246 80 91 247 80 91 248 80 90 249 80 90 250 80 89 251 80 89 252 80 88 253 80 88 254 80 87 
0 81 214 0 81 213 1 81 213 2 81 212 3 81 212 4 81 211 5 81 211 6 81 210 7 81 210 8 81 209 9 81 209 10 81 208 11 81 208 12 81 207 13 81 207 14 81 206 15 81 206 16 81 205 17 81 205 18 81 204 19 81 204 20 81 203 21 81 203 22 81 202 23 81 202 24 81 201 25 81 201 26 81 200 27 81 200 28 81 199 29 81 199 30 81 198 31 81 198 32 81 197 33 81 197 34 81 196 35 81 196 36 81 195 37 81 195 38 81 194 39 81 194 220 40 40 220 40 40 220 40 40 220 40 40 220 40 40 220 40 40 220 40 40 220 40 40 220 40 40 220 40 40 220 40 40 220 40 40 220 40 40 220 40 40 220 40 40 220 40 40 220 40 40 220 40 40 220 40 40 220 40 40 220 40 40 220 40 40 220 40 40 220 40 40 220 40 40 220 40 40 220 40 40 220 40 40 220 40 40 220 40 40 220 40 40 220 40 40 220 40 40 220 40 40 220 40 40 220 40 40 220 40 40 220 40 40 220 40 40 220 40 40 220 40 40 220 40 40 220 40 40 220 40 40 220 40 40 220 40 40 220 40 40 220 40 40 220 40 40 220 40 40 220 40 40 220 40 40 220 40 40 220 40 40 220 40 40 220 40 40 220 40 40 220 40 40 220 40 40 220 40 40 220 40 40 220 40 40 220 40 40 220 40 40 220 40 40 220 40 40 220 40 40 220 40 40 220 40 40 220 40 40 220 40 40 220 40 40 220 40 40 220 40 40 220 40 40 220 40 40 220 40 40 220 40 40 220 40 40 119 81 154 120 81 153 121 81 153 122 81 152 123 81 152 124 81 151 125 81 151 126 81 150 127 81 150 128 81 149 129 81 149 130 81 148 131 81 148 132 81 147 133 81 147 134 81 146 40 210 70 40 210 70 40 210 70 40 210 70 40 210 70 40 210 70 40 210 70 40 210 70 40 210 70 40 210 70 40 210 70 40 210 70 40 210 70 40 210 70 40 210 70 40 210 70 40 210 70 40 210 70 40 210 70 40 210 70 40 210 70 40 210 70 40 210 70 40 210 70 40 210 70 40 210 70 40 210 70 40 210 70 40 210 70 40 210 70 40 210 70 40 210 70 40 210 70 40 210 70 40 210 70 40 210 70 40 210 70 40 210 70 40 210 70 40 210 70 40 210 70 40 210 70 40 210 70 40 210 70 40 210 70 40 210 70 40 210 70 40 210 70 40 210 70 40 210 70 40 210 70 40 210 70 40 210 70 40 210 70 40 210 70 40 210 70 40 210 70 40 210 70 40 210 70 40 210 70 40 210 70 40 210 70 40 210 70 40 210 70 40 210 70 40 210 70 40 210 70 40 210 70 40 210 70 40 210 70 40 210 70 40 210 70 40 210 70 40 210 70 40 210 70 40 210 70 40 210 70 40 210 70 40 210 70 40 210 70 40 210 70 40 210 70 40 210 70 40 210 70 40 210 70 40 210 70 40 210 70 40 210 70 40 210 70 224 81 102 225 81 101 226 81 101 227 81 100 228 81 100 229 81 99 230 81 99 231 81 98 232 81 98 233 81 97 234 81 97 235 81 96 236 81 96 237 81 95 238 81 95 239 81 94 240 81 94 241 81 93 242 81 93 243 81 92 244 81 92 245 81 91 246 81 91 247 81 90 248 81 90 249 81 89 250 81 89 251 81 88 252 81 88 253 81 87 254 81 87 
0 82 213 0 82 213 1 82 212 2 82 212 3 82 211 4 82 211 5 82 210 6 82 210 7 82 209 8 82 209 9 82 208 10 82 208 11 82 207 12 82 207 13 82 206 14 82 206 15 82 205 16 82 205 17 82 204 18 82 204 19 82 203 20 82 203 21 82 202 22 82 202 23 82 201 24 82 201 25 82 200 26 82 200 27 82 199 28 82 199 29 82 198 30 82 198 31 82 197 32 82 197 33 82 196 34 82 196 35 82 195 36 82 195 37 82 194 38 82 194 39 82 193 220 40 40 220 40 40 220 40 40 220 40 40 220 40 40 220 40 40 220 40 40 220 40 40 220 40 40 220 40 40 220 40 40 220 40 40 220 40 40 220 40 40 220 40 40 220 40 40 220 40 40 220 40 40 220 40 40 220 40 40 220 40 40 220 40 40 220 40 40 220 40 40 220 40 40 220 40 40 220 40 40 220 40 40 220 40 40 220 40 40 220 40 40 220 40 40 220 40 40 220 40 40 220 40 40 220 40 40 220 40 40 220 40 40 220 40 40 220 40 40 220 40 40 220 40 40 220 40 40 220 40 40 220 40 40 220 40 40 220 40 40 220 40 40 220 40 40 220 40 40 220 40 40 220 40 40 220 40 40 220 40 40 220 40 40 220 40 40 220 40 40 220 40 40 220 40 40 220 40 40 220 40 40 220 40 40 220 40 40 220 40 40 220 40 40 220 40 40 220 40 40 220 40 40 220 40 40 220 40 40 220 40 40 220 40 40 220 40 40 220 40 40 220 40 40 220 40 40 220 40 40 220 40 40 220 40 40 119 82 153 120 82 153 121 82 152 122 82 152 123 82 151 124 82 151 125 82 150 126 82 150 127 82 149 128 82 149 129 82 148 130 82 148 131 82 147 132 82 147 133 82 146 134 82 146 40 210 70 40 210 70 40 210 70 40 210 70 40 210 70 40 210 70 40 210 70 40 210 70 40 210 70 40 210 70 40 210 70 40 210 70 40 210 70 40 210 70 40 210 70 40 210 70 40 210 70 40 210 70 40 210 70 40 210 70 40 210 70 40 210 70 40 210 70 40 210 70 40 210 70 40 210 70 40 210 70 40 210 70 40 210 70 40 210 70 40 210 70 40 210 70 40 210 70 40 210 70 40 210 70 40 210 70 40 210 70 40 210 70 40 210 70 40 210 70 40 210 70 40 210 70 40 210 70 40 210 70 40 210 70 40 210 70 40 210 70 40 210 70 40 210 70 40 210 70 40 210 70 40 210 70 40 210 70 40 210 70 40 210 70 40 210 70 40 210 70 40 210 70 40 210 70 40 210 70 40 210 70 40 210 70 40 210 70 40 210 70 40 210 70 40 210 70 40 210 70 40 210 70 40 210 70 40 210 70 40 210 70 40 210 70 40 210 70 40 210 70 40 210 70 40 210 70 40 210 70 40 210 70 40 210 70 40 210 70 40 210 70 40 210 70 40 210 70 40 210 70 40 210 70 40 210 70 40 210 70 40 210 70 40 210 70 224 82 101 225 82 101 226 82 100 227 82 100 228 82 99 229 82 99 230 82 98 231 82 98 232 82 97 233 82 97 234 82 96 235 82 96 236 82 95 237 82 95 238 82 94 239 82 94 240 82 93 241 82 93 242 82 92 243 82 92 244 82 91 245 82 91 246 82 90 247 82 90 248 82 89 249 82 89 250 82 88 251 82 88 252 82 87 253 82 87 254 82 86 
0 83 213 0 83 212 1 83 212 2 83 211 3 83 211 4 83 210 5 83 210 6 83 209 7 83 209 8 83 208 9 83 208 10 83 207 11 83 207 12 83 206 13 83 206 14 83 205 15 83 205 16 83 204 17 83 204 18 83 203 19 83 203 20 83 202 21 83 202 22 83 201 23 83 201 24 83 200 25 83 200 26 83 199 27 83 199 28 83 198 29 83 198 30 83 197 31 83 197 32 83 196 33 83 196 34 83 195 35 83 195 36 83 194 37 83 194 38 83 193 39 83 193 220 40 40 220 40 40 220 40 40 220 40 40 220 40 40 220 40 40 220 40 40 220 40 40 220 40 40 220 40 40 220 40 40 220 40 40 220 40 40 220 40 40 220 40 40 220 40 40 220 40 40 220 40 40 220 40 40 220 40 40 220 40 40 220 40 40 220 40 40 220 40 40 220 40 40 220 40 40 220 40 40 220 40 40 220 40 40 220 40 40 220 40 40 220 40 40 220 40 40 220 40 40 220 40 40 220 40 40 220 40 40 220 40 40 220 40 40 220 40 40 220 40 40 220 40 40 220 40 40 220 40 40 220 40 40 220 40 40 220 40 40 220 40 40 220 40 40 220 40 40 220 40 40 220 40 40 220 40 40 220 40 40 220 40 40 220 40 40 220 40 40 220 40 40 220 40 40 220 40 40 220 40 40 220 40 40 220 40 40 220 40 40 220 40 40 220 40 40 220 40 40 220 40 40 220 40 40 220 40 40 220 40 40 220 40 40 220 40 40 220 40 40 220 40 40 220 40 40 220 40 40 220 40 40 220 40 40 119 83 153 120 83 152 121 83 152 122 83 151 123 83 151 124 83 150 125 83 150 126 83 149 127 83 149 128 83 148 129 83 148 130 83 147 131 83 147 132 83 146 133 83 146 134 83 145 40 210 70 40 210 70 40 210 70 40 210 70 40 210 70 40 210 70 40 210 70 40 210 70 40 210 70 40 210 70 40 210 70 40 210 70 40 210 70 40 210 70 40 210 70 40 210 70 40 210 70 40 210 70 40 210 70 40 210 70 40 210 70 40 210 70 40 210 70 40 210 70 40 210 70 40 210 70 40 210 70 40 210 70 40 210 70 40 210 70 40 210 70 40 210 70 40 210 70 40 210 70 40 210 70 40 210 70 40 210 70 40 210 70 40 210 70 40 210 70 40 210 70 40 210 70 40 210 70 40 210 70 40 210 70 40 210 70 40 210 70 40 210 70 40 210 70 40 210 70 40 210 70 40 210 70 40 210 70 40 210 70 40 210 70 40 210 70 40 210 70 40 210 70 40 210 70 40 210 70 40 210 70 40 210 70 40 210 70 40 210 70 40 210 70 40 210 70 40 210 70 40 210 70 40 210 70 40 210 70 40 210 70 40 210 70 40 210 70 40 210 70 40 210 70 40 210 70 40 210 70 40 210 70 40 210 70 40 210 70 40 210 70 40 210 70 40 210 70 40 210 70 40 210 70 40 210 70 40 210 70 40 210 70 40 210 70 224 83 101 225 83 100 226 83 100 227 83 99 228 83 99 229 83 98 230 83 98 231 83 97 232 83 97 233 83 96 234 83 96 235 83 95 236 83 95 237 83 94 238 83 94 239 83 93 240 83 93 241 83 92 242 83 92 243 83 91 244 83 91 245 83 90 246 83 90 247 83 89 248 83 89 249 83 88 250 83 88 251 83 87 252 83 87 253 83 86 254 83 86 
0 84 212 0 84 212 1 84 211 2 84 211 3 84 210 4 84 210 5 84 209 6 84 209 7 84 208 8 84 208 9 84 207 10 84 207 11 84 206 12 84 206 13 84 205 14 84 205 15 84 204 16 84 204 17 84 203 18 84 203 19 84 202 20 84 202 21 84 201 22 84 201 23 84 200 24 84 200 25 84 199 26 84 199 27 84 198 28 84 198 29 84 197 30 84 197 31 84 196 32 84 196 33 84 195 34 84 195 35 84 194 36 84 194 37 84 193 38 84 193 39 84 192 220 40 40 220 40 40 220 40 40 220 40 40 220 40 40 220 40 40 220 40 40 220 40 40 220 40 40 220 40 40 220 40 40 220 40 40 220 40 40 220 40 40 220 40 40 220 40 40 220 40 40 220 40 40 220 40 40 220 40 40 220 40 40 220 40 40 220 40 40 220 40 40 220 40 40 220 40 40 220 40 40 220 40 40 220 40 40 220 40 40 220 40 40 220 40 40 220 40 40 220 40 40 220 40 40 220 40 40 220 40 40 220 40 40 220 40 40 220 40 40 220 40 40 220 40 40 220 40 40 220 40 40 220 40 40 220 40 40 220 40 40 220 40 40 220 40 40 220 40 40 220 40 40 220 40 40 220 40 40 220 40 40 220 40 40 220 40 40 220 40 40 220 40 40 220 40 40 220 40 40 220 40 40 220 40 40 220 40 40 220 40 40 220 40 40 220 40 40 220 40 40 220 40 40 220 40 40 220 40 40 220 40 40 220 40 40 220 40 40 220 40 40 220 40 40 220 40 40 220 40 40 220 40 40 220 40 40 119 84 152 120 84 152 121 84 151 122 84 151 123 84 150 124 84 150 125 84 149 126 84 149 127 84 148 128 84 148 129 84 147 130 84 147 131 84 146 132 84 146 133 84 145 134 84 145 40 210 70 40 210 70 40 210 70 40 210 70 40 210 70 40 210 70 40 210 70 40 210 70 40 210 70 40 210 70 40 210 70 40 210 70 40 210 70 40 210 70 40 210 70 40 210 70 40 210 70 40 210 70 40 210 70 40 210 70 40 210 70 40 210 70 40 210 70 40 210 70 40 210 70 40 210 70 40 210 70 40 210 70 40 210 70 40 210 70 40 210 70 40 210 70 40 210 70 40 210 70 40 210 70 40 210 70 40 210 70 40 210 70 40 210 70 40 210 70 40 210 70 40 210 70 40 210 70 40 210 70 40 210 70 40 210 70 40 210 70 40 210 70 40 210 70 40 210 70 40 210 70 40 210 70 40 210 70 40 210 70 40 210 70 40 210 70 40 210 70 40 210 70 40 210 70 40 210 70 40 210 70 40 210 70 40 210 70 40 210 70 40 210 70 40 210 70 40 210 70 40 210 70 40 210 70 40 210 70 40 210 70 40 210 70 40 210 70 40 210 70 40 210 70 40 210 70 40 210 70 40 210 70 40 210 70 40 210 70 40 210 70 40 210 70 40 210 70 40 210 70 40 210 70 40 210 70 40 210 70 40 210 70 40 210 70 224 84 100 225 84 100 226 84 99 227 84 99 228 84 98 229 84 98 230 84 97 231 84 97 232 84 96 233 84 96 234 84 95 235 84 95 236 84 94 237 84 94 238 84 93 239 84 93 240 84 92 241 84 92 242 84 91 243 84 91 244 84 90 245 84 90 246 84 89 247 84 89 248 84 88 249 84 88 250 84 87 251 84 87 252 84 86 253 84 86 254 84 85 
0 85 212 0 85 211 1 85 211 2 85 210 3 85 210 4 85 209 5 85 209 6 85 208 7 85 208 8 85 207 9 85 207 10 85 206 11 85 206 12 85 205 13 85 205 14 85 204 15 85 204 16 85 203 17 85 203 18 85 202 19 85 202 20 85 201 21 85 201 22 85 200 23 85 200 24 85 199 25 85 199 26 85 198 27 85 198 28 85 197 29 85 197 30 85 196 31 85 196 32 85 195 33 85 195 34 85 194 35 85 194 36 85 193 37 85 193 38 85 192 39 85 192 220 40 40 220 40 40 220 40 40 220 40 40 220 40 40 220 40 40 220 40 40 220 40 40 220 40 40 220 40 40 220 40 40 220 40 40 220 40 40 220 40 40 220 40 40 220 40 40 220 40 40 220 40 40 220 40 40 220 40 40 220 40 40 220 40 40 220 40 40 220 40 40 220 40 40 220 40 40 220 40 40 220 40 40 220 40 40 220 40 40 220 40 40 220 40 40 220 40 40 220 40 40 220 40 40 220 40 40 220 40 40 220 40 40 220 40 40 220 40 40 220 40 40 220 40 40 220 40 40 220 40 40 220 40 40 220 40 40 220 40 40 220 40 40 220 40 40 220 40 40 220 40 40 220 40 40 220 40 40 220 40 40 220 40 40 220 40 40 220 40 40 220 40 40 220 40 40 220 40 40 220 40 40 220 40 40 220 40 40 220 40 40 220 40 40 220 40 40 220 40 40 220 40 40 220 40 40 220 40 40 220 40 40 220 40 40 220 40 40 220 40 40 220 40 40 220 40 40 220 40 40 220 40 40 220 40 40 119 85 152 120 85 151 121 85 151 122 85 150 123 85 150 124 85 149 125 85 149 126 85 148 127 85 148 128 85 147 129 85 147 130 85 146 131 85 146 132 85 145 133 85 145 134 85 144 40 210 70 40 210 70 40 210 70 40 210 70 40 210 70 40 210 70 40 210 70 40 210 70 40 210 70 40 210 70 40 210 70 40 210 70 40 210 70 40 210 70 40 210 70 40 210 70 40 210 70 40 210 70 40 210 70 40 210 70 40 210 70 40 210 70 40 210 70 40 210 70 40 210 70 40 210 70 40 210 70 40 210 70 40 210 70 40 210 70 40 210 70 40 210 70 40 210 70 40 210 70 40 210 70 40 210 70 40 210 70 40 210 70 40 210 70 40 210 70 40 210 70 40 210 70 40 210 70 40 210 70 40 210 70 40 210 70 40 210 70 40 210 70 40 210 70 40 210 70 40 210 70 40 210 70 40 210 70 40 210 70 40 210 70 40 210 70 40 210 70 40 210 70 40 210 70 40 210 70 40 210 70 40 210 70 40 210 70 40 210 70 40 210 70 40 210 70 40 210 70 40 210 70 40 210 70 40 210 70 40 210 70 40 210 70 40 210 70 40 210 70 40 210 70 40 210 70 40 210 70 40 210 70 40 210 70 40 210 70 40 210 70 40 210 70 40 210 70 40 210 70 40 210 70 40 210 70 40 210 70 40 210 70 40 210 70 224 85 100 225 85 99 226 85 99 227 85 98 228 85 98 229 85 97 230 85 97 231 85 96 232 85 96 233 85 95 234 85 95 235 85 94 236 85 94 237 85 93 238 85 93 239 85 92 240 85 92 241 85 91 242 85 91 243 85 90 244 85 90 245 85 89 246 85 89 247 85 88 248 85 88 249 85 87 250 85 87 251 85 86 252 85 86 253 85 85 254 85 85 
0 86 211 0 86 211 1 86 210 2 86 210 3 86 209 4 86 209 5 86 208 6 86 208 7 86 207 8 86 207 9 86 206 10 86 206 11 86 205 12 86 205 13 86 204 14 86 204 15 86 203 16 86 203 17 86 202 18 86 202 19 86 201 20 86 201 21 86 200 22 86 200 23 86 199 24 86 199 25 86 198 26 86 198 27 86 197 28 86 197 29 86 196 30 86 196 31 86 195 32 86 195 33 86 194 34 86 194 35 86 193 36 86 193 37 86 192 38 86 192 39 86 191 220 40 40 220 40 40 220 40 40 220 40 40 220 40 40 220 40 40 220 40 40 220 40 40 220 40 40 220 40 40 220 40 40 220 40 40 220 40 40 220 40 40 220 40 40 220 40 40 220 40 40 220 40 40 220 40 40 220 40 40 220 40 40 220 40 40 220 40 40 220 40 40 220 40 40 220 40 40 220 40 40 220 40 40 220 40 40 220 40 40 220 40 40 220 40 40 220 40 40 220 40 40 220 40 40 220 40 40 220 40 40 220 40 40 220 40 40 220 40 40 220 40 40 220 40 40 220 40 40 220 40 40 220 40 40 220 40 40 220 40 40 220 40 40 220 40 40 220 40 40 220 40 40 220 40 40 220 40 40 220 40 40 220 40 40 220 40 40 220 40 40 220 40 40 220 40 40 220 40 40 220 40 40 220 40 40 220 40 40 220 40 40 220 40 40 220 40 40 220 40 40 220 40 40 220 40 40 220 40 40 220 40 40 220 40 40 220 40 40 220 40 40 220 40 40 220 40 40 220 40 40 220 40 40 220 40 40 119 86 151 120 86 151 121 86 150 122 86 150 123 86 149 124 86 149 125 86 148 126 86 148 127 86 147 128 86 147 129 86 146 130 86 146 131 86 145 132 86 145 133 86 144 134 86 144 40 210 70 40 210 70 40 210 70 40 210 70 40 210 70 40 210 70 40 210 70 40 210 70 40 210 70 40 210 70 40 210 70 40 210 70 40 210 70 40 210 70 40 210 70 40 210 70 40 210 70 40 210 70 40 210 70 40 210 70 40 210 70 40 210 70 40 210 70 40 210 70 40 210 70 40 210 70 40 210 70 40 210 70 40 210 70 40 210 70 40 210 70 40 210 70 40 210 70 40 210 70 40 210 70 40 210 70 40 210 70 40 210 70 40 210 70 40 210 70 40 210 70 40 210 70 40 210 70 40 210 70 40 210 70 40 210 70 40 210 70 40 210 70 40 210 70 40 210 70 40 210 70 40 210 70 40 210 70 40 210 70 40 210 70 40 210 70 40 210 70 40 210 70 40 210 70 40 210 70 40 210 70 40 210 70 40 210 70 40 210 70 40 210 70 40 210 70 40 210 70 40 210 70 40 210 70 40 210 70 40 210 70 40 210 70 40 210 70 40 210 70 40 210 70 40 210 70 40 210 70 40 210 70 40 210 70 40 210 70 40 210 70 40 210 70 40 210 70 40 210 70 40 210 70 40 210 70 40 210 70 40 210 70 40 210 70 224 86 99 225 86 99 226 86 98 227 86 98 228 86 97 229 86 97 230 86 96 231 86 96 232 86 95 233 86 95 234 86 94 235 86 94 236 86 93 237 86 93 238 86 92 239 86 92 240 86 91 241 86 91 242 86 90 243 86 90 244 86 89 245 86 89 246 86 88 247 86 88 248 86 87 249 86 87 250 86 86 251 86 86 252 86 85 253 86 85 254 86 84 
0 87 211 0 87 210 1 87 210 2 87 209 3 87 209 4 87 208 5 87 208 6 87 207 7 87 207 8 87 206 9 87 206 10 87 205 11 87 205 12 87 204 13 87 204 14 87 203 15 87 203 16 87 202 17 87 202 18 87 201 19 87 201 20 87 200 21 87 200 22 87 199 23 87 199 24 87 198 25 87 198 26 87 197 27 87 197 28 87 196 29 87 196 30 87 195 31 87 195 32 87 194 33 87 194 34 87 193 35 87 193 36 87 192 37 87 192 38 87 191 39 87 191 220 40 40 220 40 40 220 40 40 220 40 40 220 40 40 220 40 40 220 40 40 220 40 40 220 40 40 220 40 40 220 40 40 220 40 40 220 40 40 220 40 40 220 40 40 220 40 40 220 40 40 220 40 40 220 40 40 220 40 40 220 40 40 220 40 40 220 40 40 220 40 40 220 40 40 220 40 40 220 40 40 220 40 40 220 40 40 220 40 40 220 40 40 220 40 40 220 40 40 220 40 40 220 40 40 220 40 40 220 40 40 220 40 40 220 40 40 220 40 40 220 40 40 220 40 40 220 40 40 220 40 40 220 40 40 220 40 40 220 40 40 220 40 40 220 40 40 220 40 40 220 40 40 220 40 40 220 40 40 220 40 40 220 40 40 220 40 40 220 40 40 220 40 40 220 40 40 220 40 40 220 40 40 220 40 40 220 40 40 220 40 40 220 40 40 220 40 40 220 40 40 220 40 40 220 40 40 220 40 40 220 40 40 220 40 40 220 40 40 220 40 40 220 40 40 220 40 40 220 40 40 220 40 40 220 40 40 119 87 151 120 87 150 121 87 150 122 87 149 123 87 149 124 87 148 125 87 148 126 87 147 127 87 147 128 87 146 129 87 146 130 87 145 131 87 145 132 87 144 133 87 144 134 87 143 40 210 70 40 210 70 40 210 70 40 210 70 40 210 70 40 210 70 40 210 70 40 210 70 40 210 70 40 210 70 40 210 70 40 210 70 40 210 70 40 210 70 40 210 70 40 210 70 40 210 70 40 210 70 40 210 70 40 210 70 40 210 70 40 210 70 40 210 70 40 210 70 40 210 70 40 210 70 40 210 70 40 210 70 40 210 70 40 210 70 40 210 70 40 210 70 40 210 70 40 210 70 40 210 70 40 210 70 40 210 70 40 210 70 40 210 70 40 210 70 40 210 70 40 210 70 40 210 70 40 210 70 40 210 70 40 210 70 40 210 70 40 210 70 40 210 70 40 210 70 40 210 70 40 210 70 40 210 70 40 210 70 40 210 70 40 210 70 40 210 70 40 210 70 40 210 70 40 210 70 40 210 70 40 210 70 40 210 70 40 210 70 40 210 70 40 210 70 40 210 70 40 210 70 40 210 70 40 210 70 40 210 70 40 210 70 40 210 70 40 210 70 40 210 70 40 210 70 40 210 70 40 210 70 40 210 70 40 210 70 40 210 70 40 210 70 40 210 70 40 210 70 40 210 70 40 210 70 40 210 70 40 210 70 40 210 70 224 87 99 225 87 98 226 87 98 227 87 97 228 87 97 229 87 96 230 87 96 231 87 95 232 87 95 233 87 94 234 87 94 235 87 93 236 87 93 237 87 92 238 87 92 239 87 91 240 87 91 241 87 90 242 87 90 243 87 89 244 87 89 245 87 88 246 87 88 247 87 87 248 87 87 249 87 86 250 87 86 251 87 85 252 87 85 253 87 84 254 87 84 
0 88 210 0 88 210 1 88 209 2 88 209 3 88 208 4 88 208 5 88 207 6 88 207 7 88 206 8 88 206 9 88 205 10 88 205 11 88 204 12 88 204 13 88 203 14 88 203 15 88 202 16 88 202 17 88 201 18 88 201 19 88 200 20 88 200 21 88 199 22 88 199 23 88 198 24 88 198 25 88 197 26 88 197 27 88 196 28 88 196 29 88 195 30 88 195 31 88 194 32 88 194 33 88 193 34 88 193 35 88 192 36 88 192 37 88 191 38 88 191 39 88 190 220 40 40 220 40 40 220 40 40 220 40 40 220 40 40 220 40 40 220 40 40 220 40 40 220 40 40 220 40 40 220 40 40 220 40 40 220 40 40 220 40 40 220 40 40 220 40 40 220 40 40 220 40 40 220 40 40 220 40 40 220 40 40 220 40 40 220 40 40 220 40 40 220 40 40 220 40 40 220 40 40 220 40 40 220 40 40 220 40 40 220 40 40 220 40 40 220 40 40 220 40 40 220 40 40 220 40 40 220 40 40 220 40 40 220 40 40 220 40 40 220 40 40 220 40 40 220 40 40 220 40 40 220 40 40 220 40 40 220 40 40 220 40 40 220 40 40 220 40 40 220 40 40 220 40 40 220 40 40 220 40 40 220 40 40 220 40 40 220 40 40 220 40 40 220 40 40 220 40 40 220 40 40 220 40 40 220 40 40 220 40 40 220 40 40 220 40 40 220 40 40 220 40 40 220 40 40 220 40 40 220 40 40 220 40 40 220 40 40 220 40 40 220 40 40 220 40 40 220 40 40 220 40 40 220 40 40 119 88 150 120 88 150 121 88 149 122 88 149 123 88 148 124 88 148 125 88 147 126 88 147 127 88 146 128 88 146 129 88 145 130 88 145 131 88 144 132 88 144 133 88 143 134 88 143 40 210 70 40 210 70 40 210 70 40 210 70 40 210 70 40 210 70 40 210 70 40 210 70 40 210 70 40 210 70 40 210 70 40 210 70 40 210 70 40 210 70 40 210 70 40 210 70 40 210 70 40 210 70 40 210 70 40 210 70 40 210 70 40 210 70 40 210 70 40 210 70 40 210 70 40 210 70 40 210 70 40 210 70 40 210 70 40 210 70 40 210 70 40 210 70 40 210 70 40 210 70 40 210 70 40 210 70 40 210 70 40 210 70 40 210 70 40 210 70 40 210 70 40 210 70 40 210 70 40 210 70 40 210 70 40 210 70 40 210 70 40 210 70 40 210 70 40 210 70 40 210 70 40 210 70 40 210 70 40 210 70 40 210 70 40 210 70 40 210 70 40 210 70 40 210 70 40 210 70 40 210 70 40 210 70 40 210 70 40 210 70 40 210 70 40 210 70 40 210 70 40 210 70 40 210 70 40 210 70 40 210 70 40 210 70 40 210 70 40 210 70 40 210 70 40 210 70 40 210 70 40 210 70 40 210 70 40 210 70 40 210 70 40 210 70 40 210 70 40 210 70 40 210 70 40 210 70 40 210 70 40 210 70 40 210 70 224 88 98 225 88 98 226 88 97 227 88 97 228 88 96 229 88 96 230 88 95 231 88 95 232 88 94 233 88 94 234 88 93 235 88 93 236 88 92 237 88 92 238 88 91 239 88 91 240 88 90 241 88 90 242 88 89 243 88 89 244 88 88 245 88 88 246 88 87 247 88 87 248 88 86 249 88 86 250 88 85 251 88 85 252 88 84 253 88 84 254 88 83 
0 89 210 0 89 209 1 89 209 2 89 208 3 89 208 4 89 207 5 89 207 6 89 206 7 89 206 8 89 205 9 89 205 10 89 204 11 89 204 12 89 203 13 89 203 14 89 202 15 89 202 16 89 201 17 89 201 18 89 200 19 89 200 20 89 199 21 89 199 22 89 198 23 89 198 24 89 197 25 89 197 26 89 196 27 89 196 28 89 195 29 89 195 30 89 194 31 89 194 32 89 193 33 89 193 34 89 192 35 89 192 36 89 191 37 89 191 38 89 190 39 89 190 220 40 40 220 40 40 220 40 40 220 40 40 220 40 40 220 40 40 220 40 40 220 40 40 220 40 40 220 40 40 220 40 40 220 40 40 220 40 40 220 40 40 220 40 40 220 40 40 220 40 40 220 40 40 220 40 40 220 40 40 220 40 40 220 40 40 220 40 40 220 40 40 220 40 40 220 40 40 220 40 40 220 40 40 220 40 40 220 40 40 220 40 40 220 40 40 220 40 40 220 40 40 220 40 40 220 40 40 220 40 40 220 40 40 220 40 40 220 40 40 220 40 40 220 40 40 220 40 40 220 40 40 220 40 40 220 40 40 220 40 40 220 40 40 220 40 40 220 40 40 220 40 40 220 40 40 220 40 40 220 40 40 220 40 40 220 40 40 220 40 40 220 40 40 220 40 40 220 40 40 220 40 40 220 40 40 220 40 40 220 40 40 220 40 40 220 40 40 220 40 40 220 40 40 220 40 40 220 40 40 220 40 40 220 40 40 220 40 40 220 40 40 220 40 40 220 40 40 220 40 40 220 40 40 220 40 40 119 89 150 120 89 149 121 89 149 122 89 148 123 89 148 124 89 147 125 89 147 126 89 146 127 89 146 128 89 145 129 89 145 130 89 144 131 89 144 132 89 143 133 89 143 134 89 142 135 89 142 40 210 70 40 210 70 40 210 70 40 210 70 40 210 70 40 210 70 40 210 70 40 210 70 40 210 70 40 210 70 40 210 70 40 210 70 40 210 70 40 210 70 40 210 70 40 210 70 40 210 70 40 210 70 40 210 70 40 210 70 40 210 70 40 210 70 40 210 70 40 210 70 40 210 70 40 210 70 40 210 70 40 210 70 40 210 70 40 210 70 40 210 70 40 210 70 40 210 70 40 210 70 40 210 70 40 210 70 40 210 70 40 210 70 40 210 70 40 210 70 40 210 70 40 210 70 40 210 70 40 210 70 40 210 70 40 210 70 40 210 70 40 210 70 40 210 70 40 210 70 40 210 70 40 210 70 40 210 70 40 210 70 40 210 70 40 210 70 40 210 70 40 210 70 40 210 70 40 210 70 40 210 70 40 210 70 40 210 70 40 210 70 40 210 70 40 210 70 40 210 70 40 210 70 40 210 70 40 210 70 40 210 70 40 210 70 40 210 70 40 210 70 40 210 70 40 210 70 40 210 70 40 210 70 40 210 70 40 210 70 40 210 70 40 210 70 40 210 70 40 210 70 40 210 70 40 210 70 40 210 70 223 89 98 224 89 98 225 89 97 226 89 97 227 89 96 228 89 96 229 89 95 230 89 95 231 89 94 232 89 94 233 89 93 234 89 93 235 89 92 236 89 92 237 89 91 238 89 91 239 89 90 240 89 90 241 89 89 242 89 89 243 89 88 244 89 88 245 89 87 246 89 87 247 89 86 248 89 86 249 89 85 250 89 85 251 89 84 252 89 84 253 89 83 254 89 83 
0 90 209 0 90 209 1 90 208 2 90 208 3 90 207 4 90 207 5 90 206 6 90 206 7 90 205 8 90 205 9 90 204 10 90 204 11 90 203 12 90 203 13 90 202 14 90 202 15 90 201 16 90 201 17 90 200 18 90 200 19 90 199 20 90 199 21 90 198 22 90 198 23 90 197 24 90 197 25 90 196 26 90 196 27 90 195 28 90 195 29 90 194 30 90 194 31 90 193 32 90 193 33 90 192 34 90 192 35 90 191 36 90 191 37 90 190 38 90 190 39 90 189 220 40 40 220 40 40 220 40 40 220 40 40 220 40 40 220 40 40 220 40 40 220 40 40 220 40 40 220 40 40 220 40 40 220 40 40 220 40 40 220 40 40 220 40 40 220 40 40 220 40 40 220 40 40 220 40 40 220 40 40 220 40 40 220 40 40 220 40 40 220 40 40 220 40 40 220 40 40 220 40 40 220 40 40 220 40 40 220 40 40 220 40 40 220 40 40 220 40 40 220 40 40 220 40 40 220 40 40 220 40 40 220 40 40 220 40 40 220 40 40 220 40 40 220 40 40 220 40 40 220 40 40 220 40 40 220 40 40 220 40 40 220 40 40 220 40 40 220 40 40 220 40 40 220 40 40 220 40 40 220 40 40 220 40 40 220 40 40 220 40 40 220 40 40 220 40 40 220 40 40 220 40 40 220 40 40 220 40 40 220 40 40 220 40 40 220 40 40 220 40 40 220 40 40 220 40 40 220 40 40 220 40 40 220 40 40 220 40 40 220 40 40 220 40 40 220 40 40 220 40 40 220 40 40 220 40 40 119 90 149 120 90 149 121 90 148 122 90 148 123 90 147 124 90 147 125 90 146 126 90 146 127 90 145 128 90 145 129 90 144 130 90 144 131 90 143 132 90 143 133 90 142 134 90 142 135 90 141 40 210 70 40 210 70 40 210 70 40 210 70 40 210 70 40 210 70 40 210 70 40 210 70 40 210 70 40 210 70 40 210 70 40 210 70 40 210 70 40 210 70 40 210 70 40 210 70 40 210 70 40 210 70 40 210 70 40 210 70 40 210 70 40 210 70 40 210 70 40 210 70 40 210 70 40 210 70 40 210 70 40 210 70 40 210 70 40 210 70 40 210 70 40 210 70 40 210 70 40 210 70 40 210 70 40 210 70 40 210 70 40 210 70 40 210 70 40 210 70 40 210 70 40 210 70 40 210 70 40 210 70 40 210 70 40 210 70 40 210 70 40 210 70 40 210 70 40 210 70 40 210 70 40 210 70 40 210 70 40 210 70 40 210 70 40 210 70 40 210 70 40 210 70 40 210 70 40 210 70 40 210 70 40 210 70 40 210 70 40 210 70 40 210 70 40 210 70 40 210 70 40 210 70 40 210 70 40 210 70 40 210 70 40 210 70 40 210 70 40 210 70 40 210 70 40 210 70 40 210 70 40 210 70 40 210 70 40 210 70 40 210 70 40 210 70 40 210 70 40 210 70 40 210 70 40 210 70 40 210 70 223 90 98 224 90 97 225 90 97 226 90 96 227 90 96 228 90 95 229 90 95 230 90 94 231 90 94 232 90 93 233 90 93 234 90 92 235 90 92 236 90 91 237 90 91 238 90 90 239 90 90 240 90 89 241 90 89 242 90 88 243 90 88 244 90 87 245 90 87 246 90 86 247 90 86 248 90 85 249 90 85 250 90 84 251 90 84 252 90 83 253 90 83 254 90 82 
0 91 209 0 91 208 1 91 208 2 91 207 3 91 207 4 91 206 5 91 206 6 91 205 7 91 205 8 91 204 9 91 204 10 91 203 11 91 203 12 91 202 13 91 202 14 91 201 15 91 201 16 91 200 17 91 200 18 91 199 19 91 199 20 91 198 21 91 198 22 91 197 23 91 197 24 91 196 25 91 196 26 91 195 27 91 195 28 91 194 29 91 194 30 91 193 31 91 193 32 91 192 33 91 192 34 91 191 35 91 191 36 91 190 37 91 190 38 91 189 39 91 189 220 40 40 220 40 40 220 40 40 220 40 40 220 40 40 220 40 40 220 40 40 220 40 40 220 40 40 220 40 40 220 40 40 220 40 40 220 40 40 220 40 40 220 40 40 220 40 40 220 40 40 220 40 40 220 40 40 220 40 40 220 40 40 220 40 40 220 40 40 220 40 40 220 40 40 220 40 40 220 40 40 220 40 40 220 40 40 220 40 40 220 40 40 220 40 40 220 40 40 220 40 40 220 40 40 220 40 40 220 40 40 220 40 40 220 40 40 220 40 40 220 40 40 220 40 40 220 40 40 220 40 40 220 40 40 220 40 40 220 40 40 220 40 40 220 40 40 220 40 40 220 40 40 220 40 40 220 40 40 220 40 40 220 40 40 220 40 40 220 40 40 220 40 40 220 40 40 220 40 40 220 40 40 220 40 40 220 40 40 220 40 40 220 40 40 220 40 40 220 40 40 220 40 40 220 40 40 220 40 40 220 40 40 220 40 40 220 40 40 220 40 40 220 40 40 220 40 40 220 40 40 220 40 40 220 40 40 119 91 149 120 91 148 121 91 148 122 91 147 123 91 147 124 91 146 125 91 146 126 91 145 127 91 145 128 91 144 129 91 144 130 91 143 131 91 143 132 91 142 133 91 142 134 91 141 135 91 141 40 210 70 40 210 70 40 210 70 40 210 70 40 210 70 40 210 70 40 210 70 40 210 70 40 210 70 40 210 70 40 210 70 40 210 70 40 210 70 40 210 70 40 210 70 40 210 70 40 210 70 40 210 70 40 210 70 40 210 70 40 210 70 40 210 70 40 210 70 40 210 70 40 210 70 40 210 70 40 210 70 40 210 70 40 210 70 40 210 70 40 210 70 40 210 70 40 210 70 40 210 70 40 210 70 40 210 70 40 210 70 40 210 70 40 210 70 40 210 70 40 210 70 40 210 70 40 210 70 40 210 70 40 210 70 40 210 70 40 210 70 40 210 70 40 210 70 40 210 70 40 210 70 40 210 70 40 210 70 40 210 70 40 210 70 40 210 70 40 210 70 40 210 70 40 210 70 40 210 70 40 210 70 40 210 70 40 210 70 40 210 70 40 210 70 40 210 70 40 210 70 40 210 70 40 210 70 40 210 70 40 210 70 40 210 70 40 210 70 40 210 70 40 210 70 40 210 70 40 210 70 40 210 70 40 210 70 40 210 70 40 210 70 40 210 70 40 210 70 40 210 70 40 210 70 40 210 70 40 210 70 223 91 97 224 91 97 225 91 96 226 91 96 227 91 95 228 91 95 229 91 94 230 91 94 231 91 93 232 91 93 233 91 92 234 91 92 235 91 91 236 91 91 237 91 90 238 91 90 239 91 89 240 91 89 241 91 88 242 91 88 243 91 87 244 91 87 245 91 86 246 91 86 247 91 85 248 91 85 249 91 84 250 91 84 251 91 83 252 91 83 253 91 82 254 91 82 
0 92 208 0 92 208 1 92 207 2 92 207 3 92 206 4 92 206 5 92 205 6 92 205 7 92 204 8 92 204 9 92 203 10 92 203 11 92 202 12 92 202 13 92 201 14 92 201 15 92 200 16 92 200 17 92 199 18 92 199 19 92 198 20 92 198 21 92 197 22 92 197 23 92 196 24 92 196 25 92 195 26 92 195 27 92 194 28 92 194 29 92 193 30 92 193 31 92 192 32 92 192 33 92 191 34 92 191 35 92 190 36 92 190 37 92 189 38 92 189 39 92 188 220 40 40 220 40 40 220 40 40 220 40 40 220 40 40 220 40 40 220 40 40 220 40 40 220 40 40 220 40 40 220 40 40 220 40 40 220 40 40 220 40 40 220 40 40 220 40 40 220 40 40 220 40 40 220 40 40 220 40 40 220 40 40 220 40 40 220 40 40 220 40 40 220 40 40 220 40 40 220 40 40 220 40 40 220 40 40 220 40 40 220 40 40 220 40 40 220 40 40 220 40 40 220 40 40 220 40 40 220 40 40 220 40 40 220 40 40 220 40 40 220 40 40 220 40 40 220 40 40 220 40 40 220 40 40 220 40 40 220 40 40 220 40 40 220 40 40 220 40 40 220 40 40 220 40 40 220 40 40 220 40 40 220 40 40 220 40 40 220 40 40 220 40 40 220 40 40 220 40 40 220 40 40 220 40 40 220 40 40 220 40 40 220 40 40 220 40 40 220 40 40 220 40 40 220 40 40 220 40 40 220 40 40 220 40 40 220 40 40 220 40 40 220 40 40 220 40 40 220 40 40 220 40 40 220 40 40 119 92 148 120 92 148 121 92 147 122 92 147 123 92 146 124 92 146 125 92 145 126 92 145 127 92 144 128 92 144 129 92 143 130 92 143 131 92 142 132 92 142 133 92 141 134 92 141 135 92 140 40 210 70 40 210 70 40 210 70 40 210 70 40 210 70 40 210 70 40 210 70 40 210 70 40 210 70 40 210 70 40 210 70 40 210 70 40 210 70 40 210 70 40 210 70 40 210 70 40 210 70 40 210 70 40 210 70 40 210 70 40 210 70 40 210 70 40 210 70 40 210 70 40 210 70 40 210 70 40 210 70 40 210 70 40 210 70 40 210 70 40 210 70 40 210 70 40 210 70 40 210 70 40 210 70 40 210 70 40 210 70 40 210 70 40 210 70 40 210 70 40 210 70 40 210 70 40 210 70 40 210 70 40 210 70 40 210 70 40 210 70 40 210 70 40 210 70 40 210 70 40 210 70 40 210 70 40 210 70 40 210 70 40 210 70 40 210 70 40 210 70 40 210 70 40 210 70 40 210 70 40 210 70 40 210 70 40 210 70 40 210 70 40 210 70 40 210 70 40 210 70 40 210 70 40 210 70 40 210 70 40 210 70 40 210 70 40 210 70 40 210 70 40 210 70 40 210 70 40 210 70 40 210 70 40 210 70 40 210 70 40 210 70 40 210 70 40 210 70 40 210 70 40 210 70 40 210 70 40 210 70 223 92 97 224 92 96 225 92 96 226 92 95 227 92 95 228 92 94 229 92 94 230 92 93 231 92 93 232 92 92 233 92 92 234 92 91 235 92 91 236 92 90 237 92 90 238 92 89 239 92 89 240 92 88 241 92 88 242 92 87 243 92 87 244 92 86 245 92 86 246 92 85 247 92 85 248 92 84 249 92 84 250 92 83 251 92 83 252 92 82 253 92 82 254 92 81 
0 93 208 0 93 207 1 93 207 2 93 206 3 93 206 4 93 205 5 93 205 6 93 204 7 93 204 8 93 203 9 93 203 10 93 202 11 93 202 12 93 201 13 93 201 14 93 200 15 93 200 16 93 199 17 93 199 18 93 198 19 93 198 20 93 197 21 93 197 22 93 196 23 93 196 24 93 195 25 93 195 26 93 194 27 93 194 28 93 193 29 93 193 30 93 192 31 93 192 32 93 191 33 93 191 34 93 190 35 93 190 36 93 189 37 93 189 38 93 188 39 93 188 220 40 40 220 40 40 220 40 40 220 40 40 220 40 40 220 40 40 220 40 40 220 40 40 220 40 40 220 40 40 220 40 40 220 40 40 220 40 40 220 40 40 220 40 40 220 40 40 220 40 40 220 40 40 220 40 40 220 40 40 220 40 40 220 40 40 220 40 40 220 40 40 220 40 40 220 40 40 220 40 40 220 40 40 220 40 40 220 40 40 220 40 40 220 40 40 220 40 40 220 40 40 220 40 40 220 40 40 220 40 40 220 40 40 220 40 40 220 40 40 220 40 40 220 40 40 220 40 40 220 40 40 220 40 40 220 40 40 220 40 40 220 40 40 220 40 40 220 40 40 220 40 40 220 40 40 220 40 40 220 40 40 220 40 40 220 40 40 220 40 40 220 40 40 220 40 40 220 40 40 220 40 40 220 40 40 220 40 40 220 40 40 220 40 40 220 40 40 220 40 40 220 40 40 220 40 40 220 40 40 220 40 40 220 40 40 220 40 40 220 40 40 220 40 40 220 40 40 220 40 40 220 40 40 220 40 40 119 93 148 120 93 147 121 93 147 122 93 146 123 93 146 124 93 145 125 93 145 126 93 144 127 93 144 128 93 143 129 93 143 130 93 142 131 93 142 132 93 141 133 93 141 134 93 140 135 93 140 136 93 139 40 210 70 40 210 70 40 210 70 40 210 70 40 210 70 40 210 70 40 210 70 40 210 70 40 210 70 40 210 70 40 210 70 40 210 70 40 210 70 40 210 70 40 210 70 40 210 70 40 210 70 40 210 70 40 210 70 40 210 70 40 210 70 40 210 70 40 210 70 40 210 70 40 210 70 40 210 70 40 210 70 40 210 70 40 210 70 40 210 70 40 210 70 40 210 70 40 210 70 40 210 70 40 210 70 40 210 70 40 210 70 40 210 70 40 210 70 40 210 70 40 210 70 40 210 70 40 210 70 40 210 70 40 210 70 40 210 70 40 210 70 40 210 70 40 210 70 40 210 70 40 210 70 40 210 70 40 210 70 40 210 70 40 210 70 40 210 70 40 210 70 40 210 70 40 210 70 40 210 70 40 210 70 40 210 70 40 210 70 40 210 70 40 210 70 40 210 70 40 210 70 40 210 70 40 210 70 40 210 70 40 210 70 40 210 70 40 210 70 40 210 70 40 210 70 40 210 70 40 210 70 40 210 70 40 210 70 40 210 70 40 210 70 40 210 70 40 210 70 40 210 70 40 210 70 222 93 97 223 93 96 224 93 96 225 93 95 226 93 95 227 93 94 228 93 94 229 93 93 230 93 93 231 93 92 232 93 92 233 93 91 234 93 91 235 93 90 236 93 90 237 93 89 238 93 89 239 93 88 240 93 88 241 93 87 242 93 87 243 93 86 244 93 86 245 93 85 246 93 85 247 93 84 248 93 84 249 93 83 250 93 83 251 93 82 252 93 82 253 93 81 254 93 81 
0 94 207 0 94 207 1 94 206 2 94 206 3 94 205 4 94 205 5 94 204 6 94 204 7 94 203 8 94 203 9 94 202 10 94 202 11 94 201 12 94 201 13 94 200 14 94 200 15 94 199 16 94 199 17 94 198 18 94 198 19 94 197 20 94 197 21 94 196 22 94 196 23 94 195 24 94 195 25 94 194 26 94 194 27 94 193 28 94 193 29 94 192 30 94 192 31 94 191 32 94 191 33 94 190 34 94 190 35 94 189 36 94 189 37 94 188 38 94 188 39 94 187 220 40 40 220 40 40 220 40 40 220 40 40 220 40 40 220 40 40 220 40 40 220 40 40 220 40 40 220 40 40 220 40 40 220 40 40 220 40 40 220 40 40 220 40 40 220 40 40 220 40 40 220 40 40 220 40 40 220 40 40 220 40 40 220 40 40 220 40 40 220 40 40 220 40 40 220 40 40 220 40 40 220 40 40 220 40 40 220 40 40 220 40 40 220 40 40 220 40 40 220 40 40 220 40 40 220 40 40 220 40 40 220 40 40 220 40 40 220 40 40 220 40 40 220 40 40 220 40 40 220 40 40 220 40 40 220 40 40 220 40 40 220 40 40 220 40 40 220 40 40 220 40 40 220 40 40 220 40 40 220 40 40 220 40 40 220 40 40 220 40 40 220 40 40 220 40 40 220 40 40 220 40 40 220 40 40 220 40 40 220 40 40 220 40 40 220 40 40 220 40 40 220 40 40 220 40 40 220 40 40 220 40 40 220 40 40 220 40 40 220 40 40 220 40 40 220 40 40 220 40 40 220 40 40 220 40 40 119 94 147 120 94 147 121 94 146 122 94 146 123 94 145 124 94 145 125 94 144 126 94 144 127 94 143 128 94 143 129 94 142 130 94 142 131 94 141 132 94 141 133 94 140 134 94 140 135 94 139 136 94 139 40 210 70 40 210 70 40 210 70 40 210 70 40 210 70 40 210 70 40 210 70 40 210 70 40 210 70 40 210 70 40 210 70 40 210 70 40 210 70 40 210 70 40 210 70 40 210 70 40 210 70 40 210 70 40 210 70 40 210 70 40 210 70 40 210 70 40 210 70 40 210 70 40 210 70 40 210 70 40 210 70 40 210 70 40 210 70 40 210 70 40 210 70 40 210 70 40 210 70 40 210 70 40 210 70 40 210 70 40 210 70 40 210 70 40 210 70 40 210 70 40 210 70 40 210 70 40 210 70 40 210 70 40 210 70 40 210 70 40 210 70 40 210 70 40 210 70 40 210 70 40 210 70 40 210 70 40 210 70 40 210 70 40 210 70 40 210 70 40 210 70 40 210 70 40 210 70 40 210 70 40 210 70 40 210 70 40 210 70 40 210 70 40 210 70 40 210 70 40 210 70 40 210 70 40 210 70 40 210 70 40 210 70 40 210 70 40 210 70 40 210 70 40 210 70 40 210 70 40 210 70 40 210 70 40 210 70 40 210 70 40 210 70 40 210 70 40 210 70 40 210 70 40 210 70 222 94 96 223 94 96 224 94 95 225 94 95 226 94 94 227 94 94 228 94 93 229 94 93 230 94 92 231 94 92 232 94 91 233 94 91 234 94 90 235 94 90 236 94 89 237 94 89 238 94 88 239 94 88 240 94 87 241 94 87 242 94 86 243 94 86 244 94 85 245 94 85 246 94 84 247 94 84 248 94 83 249 94 83 250 94 82 251 94 82 252 94 81 253 94 81 254 94 80 
0 95 207 0 95 206 1 95 206 2 95 205 3 95 205 4 95 204 5 95 204 6 95 203 7 95 203 8 95 202 9 95 202 10 95 201 11 95 201 12 95 200 13 95 200 14 95 199 15 95 199 16 95 198 17 95 198 18 95 197 19 95 197 20 95 196 21 95 196 22 95 195 23 95 195 24 95 194 25 95 194 26 95 193 27 95 193 28 95 192 29 95 192 30 95 191 31 95 191 32 95 190 33 95 190 34 95 189 35 95 189 36 95 188 37 95 188 38 95 187 39 95 187 220 40 40 220 40 40 220 40 40 220 40 40 220 40 40 220 40 40 220 40 40 220 40 40 220 40 40 220 40 40 220 40 40 220 40 40 220 40 40 220 40 40 220 40 40 220 40 40 220 40 40 220 40 40 220 40 40 220 40 40 220 40 40 220 40 40 220 40 40 220 40 40 220 40 40 220 40 40 220 40 40 220 40 40 220 40 40 220 40 40 220 40 40 220 40 40 220 40 40 220 40 40 220 40 40 220 40 40 220 40 40 220 40 40 220 40 40 220 40 40 220 40 40 220 40 40 220 40 40 220 40 40 220 40 40 220 40 40 220 40 40 220 40 40 220 40 40 220 40 40 220 40 40 220 40 40 220 40 40 220 40 40 220 40 40 220 40 40 220 40 40 220 40 40 220 40 40 220 40 40 220 40 40 220 40 40 220 40 40 220 40 40 220 40 40 220 40 40 220 40 40 220 40 40 220 40 40 220 40 40 220 40 40 220 40 40 220 40 40 220 40 40 220 40 40 220 40 40 220 40 40 220 40 40 220 40 40 119 95 147 120 95 146 121 95 146 122 95 145 123 95 145 124 95 144 125 95 144 126 95 143 127 95 143 128 95 142 129 95 142 130 95 141 131 95 141 132 95 140 133 95 140 134 95 139 135 95 139 136 95 138 40 210 70 40 210 70 40 210 70 40 210 70 40 210 70 40 210 70 40 210 70 40 210 70 40 210 70 40 210 70 40 210 70 40 210 70 40 210 70 40 210 70 40 210 70 40 210 70 40 210 70 40 210 70 40 210 70 40 210 70 40 210 70 40 210 70 40 210 70 40 210 70 40 210 70 40 210 70 40 210 70 40 210 70 40 210 70 40 210 70 40 210 70 40 210 70 40 210 70 40 210 70 40 210 70 40 210 70 40 210 70 40 210 70 40 210 70 40 210 70 40 210 70 40 210 70 40 210 70 40 210 70 40 210 70 40 210 70 40 210 70 40 210 70 40 210 70 40 210 70 40 210 70 40 210 70 40 210 70 40 210 70 40 210 70 40 210 70 40 210 70 40 210 70 40 210 70 40 210 70 40 210 70 40 210 70 40 210 70 40 210 70 40 210 70 40 210 70 40 210 70 40 210 70 40 210 70 40 210 70 40 210 70 40 210 70 40 210 70 40 210 70 40 210 70 40 210 70 40 210 70 40 210 70 40 210 70 40 210 70 40 210 70 40 210 70 40 210 70 40 210 70 40 210 70 222 95 96 223 95 95 224 95 95 225 95 94 226 95 94 227 95 93 228 95 93 229 95 92 230 95 92 231 95 91 232 95 91 233 95 90 234 95 90 235 95 89 236 95 89 237 95 88 238 95 88 239 95 87 240 95 87 241 95 86 242 95 86 243 95 85 244 95 85 245 95 84 246 95 84 247 95 83 248 95 83 249 95 82 250 95 82 251 95 81 252 95 81 253 95 80 254 95 80 
0 96 206 0 96 206 1 96 205 2 96 205 3 96 204 4 96 204 5 96 203 6 96 203 7 96 202 8 96 202 9 96 201 10 96 201 11 96 200 12 96 200 13 96 199 14 96 199 15 96 198 16 96 198 17 96 197 18 96 197 19 96 196 20 96 196 21 96 195 22 96 195 23 96 194 24 96 194 25 96 193 26 96 193 27 96 192 28 96 192 29 96 191 30 96 191 31 96 190 32 96 190 33 96 189 34 96 189 35 96 188 36 96 188 37 96 187 38 96 187 39 96 186 220 40 40 220 40 40 220 40 40 220 40 40 220 40 40 220 40 40 220 40 40 220 40 40 220 40 40 220 40 40 220 40 40 220 40 40 220 40 40 220 40 40 220 40 40 220 40 40 220 40 40 220 40 40 220 40 40 220 40 40 220 40 40 220 40 40 220 40 40 220 40 40 220 40 40 220 40 40 220 40 40 220 40 40 220 40 40 220 40 40 220 40 40 220 40 40 220 40 40 220 40 40 220 40 40 220 40 40 220 40 40 220 40 40 220 40 40 220 40 40 220 40 40 220 40 40 220 40 40 220 40 40 220 40 40 220 40 40 220 40 40 220 40 40 220 40 40 220 40 40 220 40 40 220 40 40 220 40 40 220 40 40 220 40 40 220 40 40 220 40 40 220 40 40 220 40 40 220 40 40 220 40 40 220 40 40 220 40 40 220 40 40 220 40 40 220 40 40 220 40 40 220 40 40 220 40 40 220 40 40 220 40 40 220 40 40 220 40 40 220 40 40 220 40 40 220 40 40 220 40 40 220 40 40 220 40 40 119 96 146 120 96 146 121 96 145 122 96 145 123 96 144 124 96 144 125 96 143 126 96 143 127 96 142 128 96 142 129 96 141 130 96 141 131 96 140 132 96 140 133 96 139 134 96 139 135 96 138 136 96 138 137 96 137 40 210 70 40 210 70 40 210 70 40 210 70 40 210 70 40 210 70 40 210 70 40 210 70 40 210 70 40 210 70 40 210 70 40 210 70 40 210 70 40 210 70 40 210 70 40 210 70 40 210 70 40 210 70 40 210 70 40 210 70 40 210 70 40 210 70 40 210 70 40 210 70 40 210 70 40 210 70 40 210 70 40 210 70 40 210 70 40 210 70 40 210 70 40 210 70 40 210 70 40 210 70 40 210 70 40 210 70 40 210 70 40 210 70 40 210 70 40 210 70 40 210 70 40 210 70 40 210 70 40 210 70 40 210 70 40 210 70 40 210 70 40 210 70 40 210 70 40 210 70 40 210 70 40 210 70 40 210 70 40 210 70 40 210 70 40 210 70 40 210 70 40 210 70 40 210 70 40 210 70 40 210 70 40 210 70 40 210 70 40 210 70 40 210 70 40 210 70 40 210 70 40 210 70 40 210 70 40 210 70 40 210 70 40 210 70 40 210 70 40 210 70 40 210 70 40 210 70 40 210 70 40 210 70 40 210 70 40 210 70 40 210 70 40 210 70 40 210 70 221 96 96 222 96 95 223 96 95 224 96 94 225 96 94 226 96 93 227 96 93 228 96 92 229 96 92 230 96 91 231 96 91 232 96 90 233 96 90 234 96 89 235 96 89 236 96 88 237 96 88 238 96 87 239 96 87 240 96 86 241 96 86 242 96 85 243 96 85 244 96 84 245 96 84 246 96 83 247 96 83 248 96 82 249 96 82 250 96 81 251 96 81 252 96 80 253 96 80 254 96 79 
0 97 206 0 97 205 1 97 205 2 97 204 3 97 204 4 97 203 5 97 203 6 97 202 7 97 202 8 97 201 9 97 201 10 97 200 11 97 200 12 97 199 13 97 199 14 97 198 15 97 198 16 97 197 17 97 197 18 97 196 19 97 196 20 97 195 21 97 195 22 97 194 23 97 194 24 97 193 25 97 193 26 97 192 27 97 192 28 97 191 29 97 191 30 97 190 31 97 190 32 97 189 33 97 189 34 97 188 35 97 188 36 97 187 37 97 187 38 97 186 39 97 186 220 40 40 220 40 40 220 40 40 220 40 40 220 40 40 220 40 40 220 40 40 220 40 40 220 40 40 220 40 40 220 40 40 220 40 40 220 40 40 220 40 40 220 40 40 220 40 40 220 40 40 220 40 40 220 40 40 220 40 40 220 40 40 220 40 40 220 40 40 220 40 40 220 40 40 220 40 40 220 40 40 220 40 40 220 40 40 220 40 40 220 40 40 220 40 40 220 40 40 220 40 40 220 40 40 220 40 40 220 40 40 220 40 40 220 40 40 220 40 40 220 40 40 220 40 40 220 40 40 220 40 40 220 40 40 220 40 40 220 40 40 220 40 40 220 40 40 220 40 40 220 40 40 220 40 40 220 40 40 220 40 40 220 40 40 220 40 40 220 40 40 220 40 40 220 40 40 220 40 40 220 40 40 220 40 40 220 40 40 220 40 40 220 40 40 220 40 40 220 40 40 220 40 40 220 40 40 220 40 40 220 40 40 220 40 40 220 40 40 220 40 40 220 40 40 220 40 40 220 40 40 220 40 40 220 40 40 119 97 146 120 97 145 121 97 145 122 97 144 123 97 144 124 97 143 125 97 143 126 97 142 127 97 142 128 97 141 129 97 141 130 97 140 131 97 140 132 97 139 133 97 139 134 97 138 135 97 138 136 97 137 137 97 137 40 210 70 40 210 70 40 210 70 40 210 70 40 210 70 40 210 70 40 210 70 40 210 70 40 210 70 40 210 70 40 210 70 40 210 70 40 210 70 40 210 70 40 210 70 40 210 70 40 210 70 40 210 70 40 210 70 40 210 70 40 210 70 40 210 70 40 210 70 40 210 70 40 210 70 40 210 70 40 210 70 40 210 70 40 210 70 40 210 70 40 210 70 40 210 70 40 210 70 40 210 70 40 210 70 40 210 70 40 210 70 40 210 70 40 210 70 40 210 70 40 210 70 40 210 70 40 210 70 40 210 70 40 210 70 40 210 70 40 210 70 40 210 70 40 210 70 40 210 70 40 210 70 40 210 70 40 210 70 40 210 70 40 210 70 40 210 70 40 210 70 40 210 70 40 210 70 40 210 70 40 210 70 40 210 70 40 210 70 40 210 70 40 210 70 40 210 70 40 210 70 40 210 70 40 210 70 40 210 70 40 210 70 40 210 70 40 210 70 40 210 70 40 210 70 40 210 70 40 210 70 40 210 70 40 210 70 40 210 70 40 210 70 40 210 70 40 210 70 221 97 95 222 97 95 223 97 94 224 97 94 225 97 93 226 97 93 227 97 92 228 97 92 229 97 91 230 97 91 231 97 90 232 97 90 233 97 89 234 97 89 235 97 88 236 97 88 237 97 87 238 97 87 239 97 86 240 97 86 241 97 85 242 97 85 243 97 84 244 97 84 245 97 83 246 97 83 247 97 82 248 97 82 249 97 81 250 97 81 251 97 80 252 97 80 253 97 79 254 97 79 
0 98 205 0 98 205 1 98 204 2 98 204 3 98 203 4 98 203 5 98 202 6 98 202 7 98 201 8 98 201 9 98 200 10 98 200 11 98 199 12 98 199 13 98 198 14 98 198 15 98 197 16 98 197 17 98 196 18 98 196 19 98 195 20 98 195 21 98 194 22 98 194 23 98 193 24 98 193 25 98 192 26 98 192 27 98 191 28 98 191 29 98 190 30 98 190 31 98 189 32 98 189 33 98 188 34 98 188 35 98 187 36 98 187 37 98 186 38 98 186 39 98 185 220 40 40 220 40 40 220 40 40 220 40 40 220 40 40 220 40 40 220 40 40 220 40 40 220 40 40 220 40 40 220 40 40 220 40 40 220 40 40 220 40 40 220 40 40 220 40 40 220 40 40 220 40 40 220 40 40 220 40 40 220 40 40 220 40 40 220 40 40 220 40 40 220 40 40 220 40 40 220 40 40 220 40 40 220 40 40 220 40 40 220 40 40 220 40 40 220 40 40 220 40 40 220 40 40 220 40 40 220 40 40 220 40 40 220 40 40 220 40 40 220 40 40 220 40 40 220 40 40 220 40 40 220 40 40 220 40 40 220 40 40 220 40 40 220 40 40 220 40 40 220 40 40 220 40 40 220 40 40 220 40 40 220 40 40 220 40 40 220 40 40 220 40 40 220 40 40 220 40 40 220 40 40 220 40 40 220 40 40 220 40 40 220 40 40 220 40 40 220 40 40 220 40 40 220 40 40 220 40 40 220 40 40 220 40 40 220 40 40 220 40 40 220 40 40 220 40 40 220 40 40 220 40 40 220 40 40 119 98 145 120 98 145 121 98 144 122 98 144 123 98 143 124 98 143 125 98 142 126 98 142 127 98 141 128 98 141 129 98 140 130 98 140 131 98 139 132 98 139 133 98 138 134 98 138 135 98 137 136 98 137 137 98 136 138 98 136 40 210 70 40 210 70 40 210 70 40 210 70 40 210 70 40 210 70 40 210 70 40 210 70 40 210 70 40 210 70 40 210 70 40 210 70 40 210 70 40 210 70 40 210 70 40 210 70 40 210 70 40 210 70 40 210 70 40 210 70 40 210 70 40 210 70 40 210 70 40 210 70 40 210 70 40 210 70 40 210 70 40 210 70 40 210 70 40 210 70 40 210 70 40 210 70 40 210 70 40 210 70 40 210 70 40 210 70 40 210 70 40 210 70 40 210 70 40 210 70 40 210 70 40 210 70 40 210 70 40 210 70 40 210 70 40 210 70 40 210 70 40 210 70 40 210 70 40 210 70 40 210 70 40 210 70 40 210 70 40 210 70 40 210 70 40 210 70 40 210 70 40 210 70 40 210 70 40 210 70 40 210 70 40 210 70 40 210 70 40 210 70 40 210 70 40 210 70 40 210 70 40 210 70 40 210 70 40 210 70 40 210 70 40 210 70 40 210 70 40 210 70 40 210 70 40 210 70 40 210 70 40 210 70 40 210 70 40 210 70 40 210 70 220 98 95 221 98 95 222 98 94 223 98 94 224 98 93 225 98 93 226 98 92 227 98 92 228 98 91 229 98 91 230 98 90 231 98 90 232 98 89 233 98 89 234 98 88 235 98 88 236 98 87 237 98 87 238 98 86 239 98 86 240 98 85 241 98 85 242 98 84 243 98 84 244 98 83 245 98 83 246 98 82 247 98 82 248 98 81 249 98 81 250 98 80 251 98 80 252 98 79 253 98 79 254 98 78 
0 99 205 0 99 204 1 99 204 2 99 203 3 99 203 4 99 202 5 99 202 6 99 201 7 99 201 8 99 200 9 99 200 10 99 199 11 99 199 12 99 198 13 99 198 14 99 197 15 99 197 16 99 196 17 99 196 18 99 195 19 99 195 20 99 194 21 99 194 22 99 193 23 99 193 24 99 192 25 99 192 26 99 191 27 99 191 28 99 190 29 99 190 30 99 189 31 99 189 32 99 188 33 99 188 34 99 187 35 99 187 36 99 186 37 99 186 38 99 185 39 99 185 220 40 40 220 40 40 220 40 40 220 40 40 220 40 40 220 40 40 220 40 40 220 40 40 220 40 40 220 40 40 220 40 40 220 40 40 220 40 40 220 40 40 220 40 40 220 40 40 220 40 40 220 40 40 220 40 40 220 40 40 220 40 40 220 40 40 220 40 40 220 40 40 220 40 40 220 40 40 220 40 40 220 40 40 220 40 40 220 40 40 220 40 40 220 40 40 220 40 40 220 40 40 220 40 40 220 40 40 220 40 40 220 40 40 220 40 40 220 40 40 220 40 40 220 40 40 220 40 40 220 40 40 220 40 40 220 40 40 220 40 40 220 40 40 220 40 40 220 40 40 220 40 40 220 40 40 220 40 40 220 40 40 220 40 40 220 40 40 220 40 40 220 40 40 220 40 40 220 40 40 220 40 40 220 40 40 220 40 40 220 40 40 220 40 40 220 40 40 220 40 40 220 40 40 220 40 40 220 40 40 220 40 40 220 40 40 220 40 40 220 40 40 220 40 40 220 40 40 220 40 40 220 40 40 220 40 40 119 99 145 120 99 144 121 99 144 122 99 143 123 99 143 124 99 142 125 99 142 126 99 141 127 99 141 128 99 140 129 99 140 130 99 139 131 99 139 132 99 138 133 99 138 134 99 137 135 99 137 136 99 136 137 99 136 138 99 135 40 210 70 40 210 70 40 210 70 40 210 70 40 210 70 40 210 70 40 210 70 40 210 70 40 210 70 40 210 70 40 210 70 40 210 70 40 210 70 40 210 70 40 210 70 40 210 70 40 210 70 40 210 70 40 210 70 40 210 70 40 210 70 40 210 70 40 210 70 40 210 70 40 210 70 40 210 70 40 210 70 40 210 70 40 210 70 40 210 70 40 210 70 40 210 70 40 210 70 40 210 70 40 210 70 40 210 70 40 210 70 40 210 70 40 210 70 40 210 70 40 210 70 40 210 70 40 210 70 40 210 70 40 210 70 40 210 70 40 210 70 40 210 70 40 210 70 40 210 70 40 210 70 40 210 70 40 210 70 40 210 70 40 210 70 40 210 70 40 210 70 40 210 70 40 210 70 40 210 70 40 210 70 40 210 70 40 210 70 40 210 70 40 210 70 40 210 70 40 210 70 40 210 70 40 210 70 40 210 70 40 210 70 40 210 70 40 210 70 40 210 70 40 210 70 40 210 70 40 210 70 40 210 70 40 210 70 40 210 70 40 210 70 220 99 95 221 99 94 222 99 94 223 99 93 224 99 93 225 99 92 226 99 92 227 99 91 228 99 91 229 99 90 230 99 90 231 99 89 232 99 89 233 99 88 234 99 88 235 99 87 236 99 87 237 99 86 238 99 86 239 99 85 240 99 85 241 99 84 242 99 84 243 99 83 244 99 83 245 99 82 246 99 82 247 99 81 248 99 81 249 99 80 250 99 80 251 99 79 252 99 79 253 99 78 254 99 78 
0 100 204 0 100 204 1 100 203 2 100 203 3 100 202 4 100 202 5 100 201 6 100 201 7 100 200 8 100 200 9 100 199 10 100 199 11 100 198 12 100 198 13 100 197 14 100 197 15 100 196 16 100 196 17 100 195 18 100 195 19 100 194 20 100 194 21 100 193 22 100 193 23 100 192 24 100 192 25 100 191 26 100 191 27 100 190 28 100 190 29 100 189 30 100 189 31 100 188 32 100 188 33 100 187 34 100 187 35 100 186 36 100 186 37 100 185 38 100 185 39 100 184 220 40 40 220 40 40 220 40 40 220 40 40 220 40 40 220 40 40 220 40 40 220 40 40 220 40 40 220 40 40 220 40 40 220 40 40 220 40 40 220 40 40 220 40 40 220 40 40 220 40 40 220 40 40 220 40 40 220 40 40 220 40 40 220 40 40 220 40 40 220 40 40 220 40 40 220 40 40 220 40 40 220 40 40 220 40 40 220 40 40 220 40 40 220 40 40 220 40 40 220 40 40 220 40 40 220 40 40 220 40 40 220 40 40 220 40 40 220 40 40 220 40 40 220 40 40 220 40 40 220 40 40 220 40 40 220 40 40 220 40 40 220 40 40 220 40 40 220 40 40 220 40 40 220 40 40 220 40 40 220 40 40 220 40 40 220 40 40 220 40 40 220 40 40 220 40 40 220 40 40 220 40 40 220 40 40 220 40 40 220 40 40 220 40 40 220 40 40 220 40 40 220 40 40 220 40 40 220 40 40 220 40 40 220 40 40 220 40 40 220 40 40 220 40 40 220 40 40 220 40 40 220 40 40 220 40 40 119 100 144 120 100 144 121 100 143 122 100 143 123 100 142 124 100 142 125 100 141 126 100 141 127 100 140 128 100 140 129 100 139 130 100 139 131 100 138 132 100 138 133 100 137 134 100 137 135 100 136 136 100 136 137 100 135 138 100 135 139 100 134 40 210 70 40 210 70 40 210 70 40 210 70 40 210 70 40 210 70 40 210 70 40 210 70 40 210 70 40 210 70 40 210 70 40 210 70 40 210 70 40 210 70 40 210 70 40 210 70 40 210 70 40 210 70 40 210 70 40 210 70 40 210 70 40 210 70 40 210 70 40 210 70 40 210 70 40 210 70 40 210 70 40 210 70 40 210 70 40 210 70 40 210 70 40 210 70 40 210 70 40 210 70 40 210 70 40 210 70 40 210 70 40 210 70 40 210 70 40 210 70 40 210 70 40 210 70 40 210 70 40 210 70 40 210 70 40 210 70 40 210 70 40 210 70 40 210 70 40 210 70 40 210 70 40 210 70 40 210 70 40 210 70 40 210 70 40 210 70 40 210 70 40 210 70 40 210 70 40 210 70 40 210 70 40 210 70 40 210 70 40 210 70 40 210 70 40 210 70 40 210 70 40 210 70 40 210 70 40 210 70 40 210 70 40 210 70 40 210 70 40 210 70 40 210 70 40 210 70 40 210 70 40 210 70 40 210 70 219 100 95 220 100 94 221 100 94 222 100 93 223 100 93 224 100 92 225 100 92 226 100 91 227 100 91 228 100 90 229 100 90 230 100 89 231 100 89 232 100 88 233 100 88 234 100 87 235 100 87 236 100 86 237 100 86 238 100 85 239 100 85 240 100 84 241 100 84 242 100 83 243 100 83 244 100 82 245 100 82 246 100 81 247 100 81 248 100 80 249 100 80 250 100 79 251 100 79 252 100 78 253 100 78 254 100 77 
0 101 204 0 101 203 1 101 203 2 101 202 3 101 202 4 101 201 5 101 201 6 101 200 7 101 200 8 101 199 9 101 199 10 101 198 11 101 198 12 101 197 13 101 197 14 101 196 15 101 196 16 101 195 17 101 195 18 101 194 19 101 194 20 101 193 21 101 193 22 101 192 23 101 192 24 101 191 25 101 191 26 101 190 27 101 190 28 101 189 29 101 189 30 101 188 31 101 188 32 101 187 33 101 187 34 101 186 35 101 186 36 101 185 37 101 185 38 101 184 39 101 184 220 40 40 220 40 40 220 40 40 220 40 40 220 40 40 220 40 40 220 40 40 220 40 40 220 40 40 220 40 40 220 40 40 220 40 40 220 40 40 220 40 40 220 40 40 220 40 40 220 40 40 220 40 40 220 40 40 220 40 40 220 40 40 220 40 40 220 40 40 220 40 40 220 40 40 220 40 40 220 40 40 220 40 40 220 40 40 220 40 40 220 40 40 220 40 40 220 40 40 220 40 40 220 40 40 220 40 40 220 40 40 220 40 40 220 40 40 220 40 40 220 40 40 220 40 40 220 40 40 220 40 40 220 40 40 220 40 40 220 40 40 220 40 40 220 40 40 220 40 40 220 40 40 220 40 40 220 40 40 220 40 40 220 40 40 220 40 40 220 40 40 220 40 40 220 40 40 220 40 40 220 40 40 220 40 40 220 40 40 220 40 40 220 40 40 220 40 40 220 40 40 220 40 40 220 40 40 220 40 40 220 40 40 220 40 40 220 40 40 220 40 40 220 40 40 220 40 40 220 40 40 220 40 40 220 40 40 119 101 144 120 101 143 121 101 143 122 101 142 123 101 142 124 101 141 125 101 141 126 101 140 127 101 140 128 101 139 129 101 139 130 101 138 131 101 138 132 101 137 133 101 137 134 101 136 135 101 136 136 101 135 137 101 135 138 101 134 139 101 134 40 210 70 40 210 70 40 210 70 40 210 70 40 210 70 40 210 70 40 210 70 40 210 70 40 210 70 40 210 70 40 210 70 40 210 70 40 210 70 40 210 70 40 210 70 40 210 70 40 210 70 40 210 70 40 210 70 40 210 70 40 210 70 40 210 70 40 210 70 40 210 70 40 210 70 40 210 70 40 210 70 40 210 70 40 210 70 40 210 70 40 210 70 40 210 70 40 210 70 40 210 70 40 210 70 40 210 70 40 210 70 40 210 70 40 210 70 40 210 70 40 210 70 40 210 70 40 210 70 40 210 70 40 210 70 40 210 70 40 210 70 40 210 70 40 210 70 40 210 70 40 210 70 40 210 70 40 210 70 40 210 70 40 210 70 40 210 70 40 210 70 40 210 70 40 210 70 40 210 70 40 210 70 40 210 70 40 210 70 40 210 70 40 210 70 40 210 70 40 210 70 40 210 70 40 210 70 40 210 70 40 210 70 40 210 70 40 210 70 40 210 70 40 210 70 40 210 70 40 210 70 40 210 70 40 210 70 219 101 94 220 101 94 221 101 93 222 101 93 223 101 92 224 101 92 225 101 91 226 101 91 227 101 90 228 101 90 229 101 89 230 101 89 231 101 88 232 101 88 233 101 87 234 101 87 235 101 86 236 101 86 237 101 85 238 101 85 239 101 84 240 101 84 241 101 83 242 101 83 243 101 82 244 101 82 245 101 81 246 101 81 247 101 80 248 101 80 249 101 79 250 101 79 251 101 78 252 101 78 253 101 77 254 101 77 
0 102 203 0 102 203 1 102 202 2 102 202 3 102 201 4 102 201 5 102 200 6 102 200 7 102 199 8 102 199 9 102 198 10 102 198 11 102 197 12 102 197 13 102 196 14 102 196 15 102 195 16 102 195 17 102 194 18 102 194 19 102 193 20 102 193 21 102 192 22 102 192 23 102 191 24 102 191 25 102 190 26 102 190 27 102 189 28 102 189 29 102 188 30 102 188 31 102 187 32 102 187 33 102 186 34 102 186 35 102 185 36 102 185 37 102 184 38 102 184 39 102 183 220 40 40 220 40 40 220 40 40 220 40 40 220 40 40 220 40 40 220 40 40 220 40 40 220 40 40 220 40 40 220 40 40 220 40 40 220 40 40 220 40 40 220 40 40 220 40 40 220 40 40 220 40 40 220 40 40 220 40 40 220 40 40 220 40 40 220 40 40 220 40 40 220 40 40 220 40 40 220 40 40 220 40 40 220 40 40 220 40 40 220 40 40 220 40 40 220 40 40 220 40 40 220 40 40 220 40 40 220 40 40 220 40 40 220 40 40 220 40 40 220 40 40 220 40 40 220 40 40 220 40 40 220 40 40 220 40 40 220 40 40 220 40 40 220 40 40 220 40 40 220 40 40 220 40 40 220 40 40 220 40 40 220 40 40 220 40 40 220 40 40 220 40 40 220 40 40 220 40 40 220 40 40 220 40 40 220 40 40 220 40 40 220 40 40 220 40 40 220 40 40 220 40 40 220 40 40 220 40 40 220 40 40 220 40 40 220 40 40 220 40 40 220 40 40 220 40 40 220 40 40 220 40 40 220 40 40 119 102 143 120 102 143 121 102 142 122 102 142 123 102 141 124 102 141 125 102 140 126 102 140 127 102 139 128 102 139 129 102 138 130 102 138 131 102 137 132 102 137 133 102 136 134 102 136 135 102 135 136 102 135 137 102 134 138 102 134 139 102 133 140 102 133 40 210 70 40 210 70 40 210 70 40 210 70 40 210 70 40 210 70 40 210 70 40 210 70 40 210 70 40 210 70 40 210 70 40 210 70 40 210 70 40 210 70 40 210 70 40 210 70 40 210 70 40 210 70 40 210 70 40 210 70 40 210 70 40 210 70 40 210 70 40 210 70 40 210 70 40 210 70 40 210 70 40 210 70 40 210 70 40 210 70 40 210 70 40 210 70 40 210 70 40 210 70 40 210 70 40 210 70 40 210 70 40 210 70 40 210 70 40 210 70 40 210 70 40 210 70 40 210 70 40 210 70 40 210 70 40 210 70 40 210 70 40 210 70 40 210 70 40 210 70 40 210 70 40 210 70 40 210 70 40 210 70 40 210 70 40 210 70 40 210 70 40 210 70 40 210 70 40 210 70 40 210 70 40 210 70 40 210 70 40 210 70 40 210 70 40 210 70 40 210 70 40 210 70 40 210 70 40 210 70 40 210 70 40 210 70 40 210 70 40 210 70 40 210 70 40 210 70 40 210 70 218 102 94 219 102 94 220 102 93 221 102 93 222 102 92 223 102 92 224 102 91 225 102 91 226 102 90 227 102 90 228 102 89 229 102 89 230 102 88 231 102 88 232 102 87 233 102 87 234 102 86 235 102 86 236 102 85 237 102 85 238 102 84 239 102 84 240 102 83 241 102 83 242 102 82 243 102 82 244 102 81 245 102 81 246 102 80 247 102 80 248 102 79 249 102 79 250 102 78 251 102 78 252 102 77 253 102 77 254 102 76 
0 103 203 0 103 202 1 103 202 2 103 201 3 103 201 4 103 200 5 103 200 6 103 199 7 103 199 8 103 198 9 103 198 10 103 197 11 103 197 12 103 196 13 103 196 14 103 195 15 103 195 16 103 194 17 103 194 18 103 193 19 103 193 20 103 192 21 103 192 22 103 191 23 103 191 24 103 190 25 103 190 26 103 189 27 103 189 28 103 188 29 103 188 30 103 187 31 103 187 32 103 186 33 103 186 34 103 185 35 103 185 36 103 184 37 103 184 38 103 183 39 103 183 220 40 40 220 40 40 220 40 40 220 40 40 220 40 40 220 40 40 220 40 40 220 40 40 220 40 40 220 40 40 220 40 40 220 40 40 220 40 40 220 40 40 220 40 40 220 40 40 220 40 40 220 40 40 220 40 40 220 40 40 220 40 40 220 40 40 220 40 40 220 40 40 220 40 40 220 40 40 220 40 40 220 40 40 220 40 40 220 40 40 220 40 40 220 40 40 220 40 40 220 40 40 220 40 40 220 40 40 220 40 40 220 40 40 220 40 40 220 40 40 220 40 40 220 40 40 220 40 40 220 40 40 220 40 40 220 40 40 220 40 40 220 40 40 220 40 40 220 40 40 220 40 40 220 40 40 220 40 40 220 40 40 220 40 40 220 40 40 220 40 40 220 40 40 220 40 40 220 40 40 220 40 40 220 40 40 220 40 40 220 40 40 220 40 40 220 40 40 220 40 40 220 40 40 220 40 40 220 40 40 220 40 40 220 40 40 220 40 40 220 40 40 220 40 40 220 40 40 220 40 40 220 40 40 220 40 40 119 103 143 120 103 142 121 103 142 122 103 141 123 103 141 124 103 140 125 103 140 126 103 139 127 103 139 128 103 138 129 103 138 130 103 137 131 103 137 132 103 136 133 103 136 134 103 135 135 103 135 136 103 134 137 103 134 138 103 133 139 103 133 140 103 132 40 210 70 40 210 70 40 210 70 40 210 70 40 210 70 40 210 70 40 210 70 40 210 70 40 210 70 40 210 70 40 210 70 40 210 70 40 210 70 40 210 70 40 210 70 40 210 70 40 210 70 40 210 70 40 210 70 40 210 70 40 210 70 40 210 70 40 210 70 40 210 70 40 210 70 40 210 70 40 210 70 40 210 70 40 210 70 40 210 70 40 210 70 40 210 70 40 210 70 40 210 70 40 210 70 40 210 70 40 210 70 40 210 70 40 210 70 40 210 70 40 210 70 40 210 70 40 210 70 40 210 70 40 210 70 40 210 70 40 210 70 40 210 70 40 210 70 40 210 70 40 210 70 40 210 70 40 210 70 40 210 70 40 210 70 40 210 70 40 210 70 40 210 70 40 210 70 40 210 70 40 210 70 40 210 70 40 210 70 40 210 70 40 210 70 40 210 70 40 210 70 40 210 70 40 210 70 40 210 70 40 210 70 40 210 70 40 210 70 40 210 70 40 210 70 40 210 70 40 210 70 218 103 94 219 103 93 220 103 93 221 103 92 222 103 92 223 103 91 224 103 91 225 103 90 226 103 90 227 103 89 228 103 89 229 103 88 230 103 88 231 103 87 232 103 87 233 103 86 234 103 86 235 103 85 236 103 85 237 103 84 238 103 84 239 103 83 240 103 83 241 103 82 242 103 82 243 103 81 244 103 81 245 103 80 246 103 80 247 103 79 248 103 79 249 103 78 250 103 78 251 103 77 252 103 77 253 103 76 254 103 76 
0 104 202 0 104 202 1 104 201 2 104 201 3 104 200 4 104 200 5 104 199 6 104 199 7 104 198 8 104 198 9 104 197 10 104 197 11 104 196 12 104 196 13 104 195 14 104 195 15 104 194 16 104 194 17 104 193 18 104 193 19 104 192 20 104 192 21 104 191 22 104 191 23 104 190 24 104 190 25 104 189 26 104 189 27 104 188 28 104 188 29 104 187 30 104 187 31 104 186 32 104 186 33 104 185 34 104 185 35 104 184 36 104 184 37 104 183 38 104 183 39 104 182 220 40 40 220 40 40 220 40 40 220 40 40 220 40 40 220 40 40 220 40 40 220 40 40 220 40 40 220 40 40 220 40 40 220 40 40 220 40 40 220 40 40 220 40 40 220 40 40 220 40 40 220 40 40 220 40 40 220 40 40 220 40 40 220 40 40 220 40 40 220 40 40 220 40 40 220 40 40 220 40 40 220 40 40 220 40 40 220 40 40 220 40 40 220 40 40 220 40 40 220 40 40 220 40 40 220 40 40 220 40 40 220 40 40 220 40 40 220 40 40 220 40 40 220 40 40 220 40 40 220 40 40 220 40 40 220 40 40 220 40 40 220 40 40 220 40 40 220 40 40 220 40 40 220 40 40 220 40 40 220 40 40 220 40 40 220 40 40 220 40 40 220 40 40 220 40 40 220 40 40 220 40 40 220 40 40 220 40 40 220 40 40 220 40 40 220 40 40 220 40 40 220 40 40 220 40 40 220 40 40 220 40 40 220 40 40 220 40 40 220 40 40 220 40 40 220 40 40 220 40 40 220 40 40 220 40 40 119 104 142 120 104 142 121 104 141 122 104 141 123 104 140 124 104 140 125 104 139 126 104 139 127 104 138 128 104 138 129 104 137 130 104 137 131 104 136 132 104 136 133 104 135 134 104 135 135 104 134 136 104 134 137 104 133 138 104 133 139 104 132 140 104 132 141 104 131 40 210 70 40 210 70 40 210 70 40 210 70 40 210 70 40 210 70 40 210 70 40 210 70 40 210 70 40 210 70 40 210 70 40 210 70 40 210 70 40 210 70 40 210 70 40 210 70 40 210 70 40 210 70 40 210 70 40 210 70 40 210 70 40 210 70 40 210 70 40 210 70 40 210 70 40 210 70 40 210 70 40 210 70 40 210 70 40 210 70 40 210 70 40 210 70 40 210 70 40 210 70 40 210 70 40 210 70 40 210 70 40 210 70 40 210 70 40 210 70 40 210 70 40 210 70 40 210 70 40 210 70 40 210 70 40 210 70 40 210 70 40 210 70 40 210 70 40 210 70 40 210 70 40 210 70 40 210 70 40 210 70 40 210 70 40 210 70 40 210 70 40 210 70 40 210 70 40 210 70 40 210 70 40 210 70 40 210 70 40 210 70 40 210 70 40 210 70 40 210 70 40 210 70 40 210 70 40 210 70 40 210 70 40 210 70 40 210 70 40 210 70 40 210 70 217 104 94 218 104 93 219 104 93 220 104 92 221 104 92 222 104 91 223 104 91 224 104 90 225 104 90 226 104 89 227 104 89 228 104 88 229 104 88 230 104 87 231 104 87 232 104 86 233 104 86 234 104 85 235 104 85 236 104 84 237 104 84 238 104 83 239 104 83 240 104 82 241 104 82 242 104 81 243 104 81 244 104 80 245 104 80 246 104 79 247 104 79 248 104 78 249 104 78 250 104 77 251 104 77 252 104 76 253 104 76 254 104 75 
0 105 202 0 105 201 1 105 201 2 105 200 3 105 200 4 105 199 5 105 199 6 105 198 7 105 198 8 105 197 9 105 197 10 105 196 11 105 196 12 105 195 13 105 195 14 105 194 15 105 194 16 105 193 17 105 193 18 105 192 19 105 192 20 105 191 21 105 191 22 105 190 23 105 190 24 105 189 25 105 189 26 105 188 27 105 188 28 105 187 29 105 187 30 105 186 31 105 186 32 105 185 33 105 185 34 105 184 35 105 184 36 105 183 37 105 183 38 105 182 39 105 182 220 40 40 220 40 40 220 40 40 220 40 40 220 40 40 220 40 40 220 40 40 220 40 40 220 40 40 220 40 40 220 40 40 220 40 40 220 40 40 220 40 40 220 40 40 220 40 40 220 40 40 220 40 40 220 40 40 220 40 40 220 40 40 220 40 40 220 40 40 220 40 40 220 40 40 220 40 40 220 40 40 220 40 40 220 40 40 220 40 40 220 40 40 220 40 40 220 40 40 220 40 40 220 40 40 220 40 40 220 40 40 220 40 40 220 40 40 220 40 40 220 40 40 220 40 40 220 40 40 220 40 40 220 40 40 220 40 40 220 40 40 220 40 40 220 40 40 220 40 40 220 40 40 220 40 40 220 40 40 220 40 40 220 40 40 220 40 40 220 40 40 220 40 40 220 40 40 220 40 40 220 40 40 220 40 40 220 40 40 220 40 40 220 40 40 220 40 40 220 40 40 220 40 40 220 40 40 220 40 40 220 40 40 220 40 40 220 40 40 220 40 40 220 40 40 220 40 40 220 40 40 220 40 40 220 40 40 119 105 142 120 105 141 121 105 141 122 105 140 123 105 140 124 105 139 125 105 139 126 105 138 127 105 138 128 105 137 129 105 137 130 105 136 131 105 136 132 105 135 133 105 135 134 105 134 135 105 134 136 105 133 137 105 133 138 105 132 139 105 132 140 105 131 141 105 131 142 105 130 40 210 70 40 210 70 40 210 70 40 210 70 40 210 70 40 210 70 40 210 70 40 210 70 40 210 70 40 210 70 40 210 70 40 210 70 40 210 70 40 210 70 40 210 70 40 210 70 40 210 70 40 210 70 40 210 70 40 210 70 40 210 70 40 210 70 40 210 70 40 210 70 40 210 70 40 210 70 40 210 70 40 210 70 40 210 70 40 210 70 40 210 70 40 210 70 40 210 70 40 210 70 40 210 70 40 210 70 40 210 70 40 210 70 40 210 70 40 210 70 40 210 70 40 210 70 40 210 70 40 210 70 40 210 70 40 210 70 40 210 70 40 210 70 40 210 70 40 210 70 40 210 70 40 210 70 40 210 70 40 210 70 40 210 70 40 210 70 40 210 70 40 210 70 40 210 70 40 210 70 40 210 70 40 210 70 40 210 70 40 210 70 40 210 70 40 210 70 40 210 70 40 210 70 40 210 70 40 210 70 40 210 70 40 210 70 40 210 70 216 105 94 217 105 93 218 105 93 219 105 92 220 105 92 221 105 91 222 105 91 223 105 90 224 105 90 225 105 89 226 105 89 227 105 88 228 105 88 229 105 87 230 105 87 231 105 86 232 105 86 233 105 85 234 105 85 235 105 84 236 105 84 237 105 83 238 105 83 239 105 82 240 105 82 241 105 81 242 105 81 243 105 80 244 105 80 245 105 79 246 105 79 247 105 78 248 105 78 249 105 77 250 105 77 251 105 76 252 105 76 253 105 75 254 105 75 
0 106 201 0 106 201 1 106 200 2 106 200 3 106 199 4 106 199 5 106 198 6 106 198 7 106 197 8 106 197 9 106 196 10 106 196 11 106 195 12 106 195 13 106 194 14 106 194 15 106 193 16 106 193 17 106 192 18 106 192 19 106 191 20 106 191 21 106 190 22 106 190 23 106 189 24 106 189 25 106 188 26 106 188 27 106 187 28 106 187 29 106 186 30 106 186 31 106 185 32 106 185 33 106 184 34 106 184 35 106 183 36 106 183 37 106 182 38 106 182 39 106 181 220 40 40 220 40 40 220 40 40 220 40 40 220 40 40 220 40 40 220 40 40 220 40 40 220 40 40 220 40 40 220 40 40 220 40 40 220 40 40 220 40 40 220 40 40 220 40 40 220 40 40 220 40 40 220 40 40 220 40 40 220 40 40 220 40 40 220 40 40 220 40 40 220 40 40 220 40 40 220 40 40 220 40 40 220 40 40 220 40 40 220 40 40 220 40 40 220 40 40 220 40 40 220 40 40 220 40 40 220 40 40 220 40 40 220 40 40 220 40 40 220 40 40 220 40 40 220 40 40 220 40 40 220 40 40 220 40 40 220 40 40 220 40 40 220 40 40 220 40 40 220 40 40 220 40 40 220 40 40 220 40 40 220 40 40 220 40 40 220 40 40 220 40 40 220 40 40 220 40 40 220 40 40 220 40 40 220 40 40 220 40 40 220 40 40 220 40 40 220 40 40 220 40 40 220 40 40 220 40 40 220 40 40 220 40 40 220 40 40 220 40 40 220 40 40 220 40 40 220 40 40 220 40 40 220 40 40 119 106 141 120 106 141 121 106 140 122 106 140 123 106 139 124 106 139 125 106 138 126 106 138 127 106 137 128 106 137 129 106 136 130 106 136 131 106 135 132 106 135 133 106 134 134 106 134 135 106 133 136 106 133 137 106 132 138 106 132 139 106 131 140 106 131 141 106 130 142 106 130 143 106 129 40 210 70 40 210 70 40 210 70 40 210 70 40 210 70 40 210 70 40 210 70 40 210 70 40 210 70 40 210 70 40 210 70 40 210 70 40 210 70 40 210 70 40 210 70 40 210 70 40 210 70 40 210 70 40 210 70 40 210 70 40 210 70 40 210 70 40 210 70 40 210 70 40 210 70 40 210 70 40 210 70 40 210 70 40 210 70 40 210 70 40 210 70 40 210 70 40 210 70 40 210 70 40 210 70 40 210 70 40 210 70 40 210 70 40 210 70 40 210 70 40 210 70 40 210 70 40 210 70 40 210 70 40 210 70 40 210 70 40 210 70 40 210 70 40 210 70 40 210 70 40 210 70 40 210 70 40 210 70 40 210 70 40 210 70 40 210 70 40 210 70 40 210 70 40 210 70 40 210 70 40 210 70 40 210 70 40 210 70 40 210 70 40 210 70 40 210 70 40 210 70 40 210 70 40 210 70 40 210 70 40 210 70 215 106 94 216 106 93 217 106 93 218 106 92 219 106 92 220 106 91 221 106 91 222 106 90 223 106 90 224 106 89 225 106 89 226 106 88 227 106 88 228 106 87 229 106 87 230 106 86 231 106 86 232 106 85 233 106 85 234 106 84 235 106 84 236 106 83 237 106 83 238 106 82 239 106 82 240 106 81 241 106 81 242 106 80 243 106 80 244 106 79 245 106 79 246 106 78 247 106 78 248 106 77 249 106 77 250 106 76 251 106 76 252 106 75 253 106 75 254 106 74 
0 107 201 0 107 200 1 107 200 2 107 199 3 107 199 4 107 198 5 107 198 6 107 197 7 107 197 8 107 196 9 107 196 10 107 195 11 107 195 12 107 194 13 107 194 14 107 193 15 107 193 16 107 192 17 107 192 18 107 191 19 107 191 20 107 190 21 107 190 22 107 189 23 107 189 24 107 188 25 107 188 26 107 187 27 107 187 28 107 186 29 107 186 30 107 185 31 107 185 32 107 184 33 107 184 34 107 183 35 107 183 36 107 182 37 107 182 38 107 181 39 107 181 220 40 40 220 40 40 220 40 40 220 40 40 220 40 40 220 40 40 220 40 40 220 40 40 220 40 40 220 40 40 220 40 40 220 40 40 220 40 40 220 40 40 220 40 40 220 40 40 220 40 40 220 40 40 220 40 40 220 40 40 220 40 40 220 40 40 220 40 40 220 40 40 220 40 40 220 40 40 220 40 40 220 40 40 220 40 40 220 40 40 220 40 40 220 40 40 220 40 40 220 40 40 220 40 40 220 40 40 220 40 40 220 40 40 220 40 40 220 40 40 220 40 40 220 40 40 220 40 40 220 40 40 220 40 40 220 40 40 220 40 40 220 40 40 220 40 40 220 40 40 220 40 40 220 40 40 220 40 40 220 40 40 220 40 40 220 40 40 220 40 40 220 40 40 220 40 40 220 40 40 220 40 40 220 40 40 220 40 40 220 40 40 220 40 40 220 40 40 220 40 40 220 40 40 220 40 40 220 40 40 220 40 40 220 40 40 220 40 40 220 40 40 220 40 40 220 40 40 220 40 40 220 40 40 220 40 40 119 107 141 120 107 140 121 107 140 122 107 139 123 107 139 124 107 138 125 107 138 126 107 137 127 107 137 128 107 136 129 107 136 130 107 135 131 107 135 132 107 134 133 107 134 134 107 133 135 107 133 136 107 132 137 107 132 138 107 131 139 107 131 140 107 130 141 107 130 142 107 129 143 107 129 40 210 70 40 210 70 40 210 70 40 210 70 40 210 70 40 210 70 40 210 70 40 210 70 40 210 70 40 210 70 40 210 70 40 210 70 40 210 70 40 210 70 40 210 70 40 210 70 40 210 70 40 210 70 40 210 70 40 210 70 40 210 70 40 210 70 40 210 70 40 210 70 40 210 70 40 210 70 40 210 70 40 210 70 40 210 70 40 210 70 40 210 70 40 210 70 40 210 70 40 210 70 40 210 70 40 210 70 40 210 70 40 210 70 40 210 70 40 210 70 40 210 70 40 210 70 40 210 70 40 210 70 40 210 70 40 210 70 40 210 70 40 210 70 40 210 70 40 210 70 40 210 70 40 210 70 40 210 70 40 210 70 40 210 70 40 210 70 40 210 70 40 210 70 40 210 70 40 210 70 40 210 70 40 210 70 40 210 70 40 210 70 40 210 70 40 210 70 40 210 70 40 210 70 40 210 70 40 210 70 40 210 70 215 107 93 216 107 93 217 107 92 218 107 92 219 107 91 220 107 91 221 107 90 222 107 90 223 107 89 224 107 89 225 107 88 226 107 88 227 107 87 228 107 87 229 107 86 230 107 86 231 107 85 232 107 85 233 107 84 234 107 84 235 107 83 236 107 83 237 107 82 238 107 82 239 107 81 240 107 81 241 107 80 242 107 80 243 107 79 244 107 79 245 107 78 246 107 78 247 107 77 248 107 77 249 107 76 250 107 76 251 107 75 252 107 75 253 107 74 254 107 74 
0 108 200 0 108 200 1 108 199 2 108 199 3 108 198 4 108 198 5 108 197 6 108 197 7 108 196 8 108 196 9 108 195 10 108 195 11 108 194 12 108 194 13 108 193 14 108 193 15 108 192 16 108 192 17 108 191 18 108 191 19 108 190 20 108 190 21 108 189 22 108 189 23 108 188 24 108 188 25 108 187 26 108 187 27 108 186 28 108 186 29 108 185 30 108 185 31 108 184 32 108 184 33 108 183 34 108 183 35 108 182 36 108 182 37 108 181 38 108 181 39 108 180 220 40 40 220 40 40 220 40 40 220 40 40 220 40 40 220 40 40 220 40 40 220 40 40 220 40 40 220 40 40 220 40 40 220 40 40 220 40 40 220 40 40 220 40 40 220 40 40 220 40 40 220 40 40 220 40 40 220 40 40 220 40 40 220 40 40 220 40 40 220 40 40 220 40 40 220 40 40 220 40 40 220 40 40 220 40 40 220 40 40 220 40 40 220 40 40 220 40 40 220 40 40 220 40 40 220 40 40 220 40 40 220 40 40 220 40 40 220 40 40 220 40 40 220 40 40 220 40 40 220 40 40 220 40 40 220 40 40 220 40 40 220 40 40 220 40 40 220 40 40 220 40 40 220 40 40 220 40 40 220 40 40 220 40 40 220 40 40 220 40 40 220 40 40 220 40 40 220 40 40 220 40 40 220 40 40 220 40 40 220 40 40 220 40 40 220 40 40 220 40 40 220 40 40 220 40 40 220 40 40 220 40 40 220 40 40 220 40 40 220 40 40 220 40 40 220 40 40 220 40 40 220 40 40 220 40 40 119 108 140 120 108 140 121 108 139 122 108 139 123 108 138 124 108 138 125 108 137 126 108 137 127 108 136 128 108 136 129 108 135 130 108 135 131 108 134 132 108 134 133 108 133 134 108 133 135 108 132 136 108 132 137 108 131 138 108 131 139 108 130 140 108 130 141 108 129 142 108 129 143 108 128 144 108 128 40 210 70 40 210 70 40 210 70 40 210 70 40 210 70 40 210 70 40 210 70 40 210 70 40 210 70 40 210 70 40 210 70 40 210 70 40 210 70 40 210 70 40 210 70 40 210 70 40 210 70 40 210 70 40 210 70 40 210 70 40 210 70 40 210 70 40 210 70 40 210 70 40 210 70 40 210 70 40 210 70 40 210 70 40 210 70 40 210 70 40 210 70 40 210 70 40 210 70 40 210 70 40 210 70 40 210 70 40 210 70 40 210 70 40 210 70 40 210 70 40 210 70 40 210 70 40 210 70 40 210 70 40 210 70 40 210 70 40 210 70 40 210 70 40 210 70 40 210 70 40 210 70 40 210 70 40 210 70 40 210 70 40 210 70 40 210 70 40 210 70 40 210 70 40 210 70 40 210 70 40 210 70 40 210 70 40 210 70 40 210 70 40 210 70 40 210 70 40 210 70 40 210 70 40 210 70 214 108 93 215 108 93 216 108 92 217 108 92 218 108 91 219 108 91 220 108 90 221 108 90 222 108 89 223 108 89 224 108 88 225 108 88 226 108 87 227 108 87 228 108 86 229 108 86 230 108 85 231 108 85 232 108 84 233 108 84 234 108 83 235 108 83 236 108 82 237 108 82 238 108 81 239 108 81 240 108 80 241 108 80 242 108 79 243 108 79 244 108 78 245 108 78 246 108 77 247 108 77 248 108 76 249 108 76 250 108 75 251 108 75 252 108 74 253 108 74 254 108 73 
0 109 200 0 109 199 1 109 199 2 109 198 3 109 198 4 109 197 5 109 197 6 109 196 7 109 196 8 109 195 9 109 195 10 109 194 11 109 194 12 109 193 13 109 193 14 109 192 15 109 192 16 109 191 17 109 191 18 109 190 19 109 190 20 109 189 21 109 189 22 109 188 23 109 188 24 109 187 25 109 187 26 109 186 27 109 186 28 109 185 29 109 185 30 109 184 31 109 184 32 109 183 33 109 183 34 109 182 35 109 182 36 109 181 37 109 181 38 109 180 39 109 180 220 40 40 220 40 40 220 40 40 220 40 40 220 40 40 220 40 40 220 40 40 220 40 40 220 40 40 220 40 40 220 40 40 220 40 40 220 40 40 220 40 40 220 40 40 220 40 40 220 40 40 220 40 40 220 40 40 220 40 40 220 40 40 220 40 40 220 40 40 220 40 40 220 40 40 220 40 40 220 40 40 220 40 40 220 40 40 220 40 40 220 40 40 220 40 40 220 40 40 220 40 40 220 40 40 220 40 40 220 40 40 220 40 40 220 40 40 220 40 40 220 40 40 220 40 40 220 40 40 220 40 40 220 40 40 220 40 40 220 40 40 220 40 40 220 40 40 220 40 40 220 40 40 220 40 40 220 40 40 220 40 40 220 40 40 220 40 40 220 40 40 220 40 40 220 40 40 220 40 40 220 40 40 220 40 40 220 40 40 220 40 40 220 40 40 220 40 40 220 40 40 220 40 40 220 40 40 220 40 40 220 40 40 220 40 40 220 40 40 220 40 40 220 40 40 220 40 40 220 40 40 220 40 40 220 40 40 119 109 140 120 109 139 121 109 139 122 109 138 123 109 138 124 109 137 125 109 137 126 109 136 127 109 136 128 109 135 129 109 135 130 109 134 131 109 134 132 109 133 133 109 133 134 109 132 135 109 132 136 109 131 137 109 131 138 109 130 139 109 130 140 109 129 141 109 129 142 109 128 143 109 128 144 109 127 145 109 127 40 210 70 40 210 70 40 210 70 40 210 70 40 210 70 40 210 70 40 210 70 40 210 70 40 210 70 40 210 70 40 210 70 40 210 70 40 210 70 40 210 70 40 210 70 40 210 70 40 210 70 40 210 70 40 210 70 40 210 70 40 210 70 40 210 70 40 210 70 40 210 70 40 210 70 40 210 70 40 210 70 40 210 70 40 210 70 40 210 70 40 210 70 40 210 70 40 210 70 40 210 70 40 210 70 40 210 70 40 210 70 40 210 70 40 210 70 40 210 70 40 210 70 40 210 70 40 210 70 40 210 70 40 210 70 40 210 70 40 210 70 40 210 70 40 210 70 40 210 70 40 210 70 40 210 70 40 210 70 40 210 70 40 210 70 40 210 70 40 210 70 40 210 70 40 210 70 40 210 70 40 210 70 40 210 70 40 210 70 40 210 70 40 210 70 40 210 70 40 210 70 213 109 93 214 109 93 215 109 92 216 109 92 217 109 91 218 109 91 219 109 90 220 109 90 221 109 89 222 109 89 223 109 88 224 109 88 225 109 87 226 109 87 227 109 86 228 109 86 229 109 85 230 109 85 231 109 84 232 109 84 233 109 83 234 109 83 235 109 82 236 109 82 237 109 81 238 109 81 239 109 80 240 109 80 241 109 79 242 109 79 243 109 78 244 109 78 245 109 77 246 109 77 247 109 76 248 109 76 249 109 75 250 109 75 251 109 74 252 109 74 253 109 73 254 109 73 
0 110 199 0 110 199 1 110 198 2 110 198 3 110 197 4 110 197 5 110 196 6 110 196 7 110 195 8 110 195 9 110 194 10 110 194 11 110 193 12 110 193 13 110 192 14 110 192 15 110 191 16 110 191 17 110 190 18 110 190 19 110 189 20 110 189 21 110 188 22 110 188 23 110 187 24 110 187 25 110 186 26 110 186 27 110 185 28 110 185 29 110 184 30 110 184 31 110 183 32 110 183 33 110 182 34 110 182 35 110 181 36 110 181 37 110 180 38 110 180 39 110 179 220 40 40 220 40 40 220 40 40 220 40 40 220 40 40 220 40 40 220 40 40 220 40 40 220 40 40 220 40 40 220 40 40 220 40 40 220 40 40 220 40 40 220 40 40 220 40 40 220 40 40 220 40 40 220 40 40 220 40 40 220 40 40 220 40 40 220 40 40 220 40 40 220 40 40 220 40 40 220 40 40 220 40 40 220 40 40 220 40 40 220 40 40 220 40 40 220 40 40 220 40 40 220 40 40 220 40 40 220 40 40 220 40 40 220 40 40 220 40 40 220 40 40 220 40 40 220 40 40 220 40 40 220 40 40 220 40 40 220 40 40 220 40 40 220 40 40 220 40 40 220 40 40 220 40 40 220 40 40 220 40 40 220 40 40 220 40 40 220 40 40 220 40 40 220 40 40 220 40 40 220 40 40 220 40 40 220 40 40 220 40 40 220 40 40 220 40 40 220 40 40 220 40 40 220 40 40 220 40 40 220 40 40 220 40 40 220 40 40 220 40 40 220 40 40 220 40 40 220 40 40 220 40 40 220 40 40 119 110 139 120 110 139 121 110 138 122 110 138 123 110 137 124 110 137 125 110 136 126 110 136 127 110 135 128 110 135 129 110 134 130 110 134 131 110 133 132 110 133 133 110 132 134 110 132 135 110 131 136 110 131 137 110 130 138 110 130 139 110 129 140 110 129 141 110 128 142 110 128 143 110 127 144 110 127 145 110 127 146 110 126 40 210 70 40 210 70 40 210 70 40 210 70 40 210 70 40 210 70 40 210 70 40 210 70 40 210 70 40 210 70 40 210 70 40 210 70 40 210 70 40 210 70 40 210 70 40 210 70 40 210 70 40 210 70 40 210 70 40 210 70 40 210 70 40 210 70 40 210 70 40 210 70 40 210 70 40 210 70 40 210 70 40 210 70 40 210 70 40 210 70 40 210 70 40 210 70 40 210 70 40 210 70 40 210 70 40 210 70 40 210 70 40 210 70 40 210 70 40 210 70 40 210 70 40 210 70 40 210 70 40 210 70 40 210 70 40 210 70 40 210 70 40 210 70 40 210 70 40 210 70 40 210 70 40 210 70 40 210 70 40 210 70 40 210 70 40 210 70 40 210 70 40 210 70 40 210 70 40 210 70 40 210 70 40 210 70 40 210 70 40 210 70 40 210 70 212 110 93 213 110 93 214 110 92 215 110 92 216 110 91 217 110 91 218 110 90 219 110 90 220 110 89 221 110 89 222 110 88 223 110 88 224 110 87 225 110 87 226 110 86 227 110 86 228 110 85 229 110 85 230 110 84 231 110 84 232 110 83 233 110 83 234 110 82 235 110 82 236 110 81 237 110 81 238 110 80 239 110 80 240 110 79 241 110 79 242 110 78 243 110 78 244 110 77 245 110 77 246 110 76 247 110 76 248 110 75 249 110 75 250 110 74 251 110 74 252 110 73 253 110 73 254 110 72 
0 111 199 0 111 198 1 111 198 2 111 197 3 111 197 4 111 196 5 111 196 6 111 195 7 111 195 8 111 194 9 111 194 10 111 193 11 111 193 12 111 192 13 111 192 14 111 191 15 111 191 16 111 190 17 111 190 18 111 189 19 111 189 20 111 188 21 111 188 22 111 187 23 111 187 24 111 186 25 111 186 26 111 185 27 111 185 28 111 184 29 111 184 30 111 183 31 111 183 32 111 182 33 111 182 34 111 181 35 111 181 36 111 180 37 111 180 38 111 179 39 111 179 220 40 40 220 40 40 220 40 40 220 40 40 220 40 40 220 40 40 220 40 40 220 40 40 220 40 40 220 40 40 220 40 40 220 40 40 220 40 40 220 40 40 220 40 40 220 40 40 220 40 40 220 40 40 220 40 40 220 40 40 220 40 40 220 40 40 220 40 40 220 40 40 220 40 40 220 40 40 220 40 40 220 40 40 220 40 40 220 40 40 220 40 40 220 40 40 220 40 40 220 40 40 220 40 40 220 40 40 220 40 40 220 40 40 220 40 40 220 40 40 220 40 40 220 40 40 220 40 40 220 40 40 220 40 40 220 40 40 220 40 40 220 40 40 220 40 40 220 40 40 220 40 40 220 40 40 220 40 40 220 40 40 220 40 40 220 40 40 220 40 40 220 40 40 220 40 40 220 40 40 220 40 40 220 40 40 220 40 40 220 40 40 220 40 40 220 40 40 220 40 40 220 40 40 220 40 40 220 40 40 220 40 40 220 40 40 220 40 40 220 40 40 220 40 40 220 40 40 220 40 40 220 40 40 220 40 40 119 111 139 120 111 138 121 111 138 122 111 137 123 111 137 124 111 136 125 111 136 126 111 135 127 111 135 128 111 134 129 111 134 130 111 133 131 111 133 132 111 132 133 111 132 134 111 131 135 111 131 136 111 130 137 111 130 138 111 129 139 111 129 140 111 128 141 111 128 142 111 127 143 111 127 144 111 127 145 111 126 146 111 126 147 111 125 40 210 70 40 210 70 40 210 70 40 210 70 40 210 70 40 210 70 40 210 70 40 210 70 40 210 70 40 210 70 40 210 70 40 210 70 40 210 70 40 210 70 40 210 70 40 210 70 40 210 70 40 210 70 40 210 70 40 210 70 40 210 70 40 210 70 40 210 70 40 210 70 40 210 70 40 210 70 40 210 70 40 210 70 40 210 70 40 210 70 40 210 70 40 210 70 40 210 70 40 210 70 40 210 70 40 210 70 40 210 70 40 210 70 40 210 70 40 210 70 40 210 70 40 210 70 40 210 70 40 210 70 40 210 70 40 210 70 40 210 70 40 210 70 40 210 70 40 210 70 40 210 70 40 210 70 40 210 70 40 210 70 40 210 70 40 210 70 40 210 70 40 210 70 40 210 70 40 210 70 40 210 70 40 210 70 40 210 70 211 111 93 212 111 93 213 111 92 214 111 92 215 111 91 216 111 91 217 111 90 218 111 90 219 111 89 220 111 89 221 111 88 222 111 88 223 111 87 224 111 87 225 111 86 226 111 86 227 111 85 228 111 85 229 111 84 230 111 84 231 111 83 232 111 83 233 111 82 234 111 82 235 111 81 236 111 81 237 111 80 238 111 80 239 111 79 240 111 79 241 111 78 242 111 78 243 111 77 244 111 77 245 111 76 246 111 76 247 111 75 248 111 75 249 111 74 250 111 74 251 111 73 252 111 73 253 111 72 254 111 72 
0 112 198 0 112 198 1 112 197 2 112 197 3 112 196 4 112 196 5 112 195 6 112 195 7 112 194 8 112 194 9 112 193 10 112 193 11 112 192 12 112 192 13 112 191 14 112 191 15 112 190 16 112 190 17 112 189 18 112 189 19 112 188 20 112 188 21 112 187 22 112 187 23 112 186 24 112 186 25 112 185 26 112 185 27 112 184 28 112 184 29 112 183 30 112 183 31 112 182 32 112 182 33 112 181 34 112 181 35 112 180 36 112 180 37 112 179 38 112 179 39 112 178 220 40 40 220 40 40 220 40 40 220 40 40 220 40 40 220 40 40 220 40 40 220 40 40 220 40 40 220 40 40 220 40 40 220 40 40 220 40 40 220 40 40 220 40 40 220 40 40 220 40 40 220 40 40 220 40 40 220 40 40 220 40 40 220 40 40 220 40 40 220 40 40 220 40 40 220 40 40 220 40 40 220 40 40 220 40 40 220 40 40 220 40 40 220 40 40 220 40 40 220 40 40 220 40 40 220 40 40 220 40 40 220 40 40 220 40 40 220 40 40 220 40 40 220 40 40 220 40 40 220 40 40 220 40 40 220 40 40 220 40 40 220 40 40 220 40 40 220 40 40 220 40 40 220 40 40 220 40 40 220 40 40 220 40 40 220 40 40 220 40 40 220 40 40 220 40 40 220 40 40 220 40 40 220 40 40 220 40 40 220 40 40 220 40 40 220 40 40 220 40 40 220 40 40 220 40 40 220 40 40 220 40 40 220 40 40 220 40 40 220 40 40 220 40 40 220 40 40 220 40 40 220 40 40 220 40 40 119 112 138 120 112 138 121 112 137 122 112 137 123 112 136 124 112 136 125 112 135 126 112 135 127 112 134 128 112 134 129 112 133 130 112 133 131 112 132 132 112 132 133 112 131 134 112 131 135 112 130 136 112 130 137 112 129 138 112 129 139 112 128 140 112 128 141 112 127 142 112 127 143 112 127 144 112 126 145 112 126 146 112 125 147 112 125 148 112 124 40 210 70 40 210 70 40 210 70 40 210 70 40 210 70 40 210 70 40 210 70 40 210 70 40 210 70 40 210 70 40 210 70 40 210 70 40 210 70 40 210 70 40 210 70 40 210 70 40 210 70 40 210 70 40 210 70 40 210 70 40 210 70 40 210 70 40 210 70 40 210 70 40 210 70 40 210 70 40 210 70 40 210 70 40 210 70 40 210 70 40 210 70 40 210 70 40 210 70 40 210 70 40 210 70 40 210 70 40 210 70 40 210 70 40 210 70 40 210 70 40 210 70 40 210 70 40 210 70 40 210 70 40 210 70 40 210 70 40 210 70 40 210 70 40 210 70 40 210 70 40 210 70 40 210 70 40 210 70 40 210 70 40 210 70 40 210 70 40 210 70 40 210 70 40 210 70 40 210 70 40 210 70 210 112 93 211 112 93 212 112 92 213 112 92 214 112 91 215 112 91 216 112 90 217 112 90 218 112 89 219 112 89 220 112 88 221 112 88 222 112 87 223 112 87 224 112 86 225 112 86 226 112 85 227 112 85 228 112 84 229 112 84 230 112 83 231 112 83 232 112 82 233 112 82 234 112 81 235 112 81 236 112 80 237 112 80 238 112 79 239 112 79 240 112 78 241 112 78 242 112 77 243 112 77 244 112 76 245 112 76 246 112 75 247 112 75 248 112 74 249 112 74 250 112 73 251 112 73 252 112 72 253 112 72 254 112 71 
0 113 198 0 113 197 1 113 197 2 113 196 3 113 196 4 113 195 5 113 195 6 113 194 7 113 194 8 113 193 9 113 193 10 113 192 11 113 192 12 113 191 13 113 191 14 113 190 15 113 190 16 113 189 17 113 189 18 113 188 19 113 188 20 113 187 21 113 187 22 113 186 23 113 186 24 113 185 25 113 185 26 113 184 27 113 184 28 113 183 29 113 183 30 113 182 31 113 182 32 113 181 33 113 181 34 113 180 35 113 180 36 113 179 37 113 179 38 113 178 39 113 178 220 40 40 220 40 40 220 40 40 220 40 40 220 40 40 220 40 40 220 40 40 220 40 40 220 40 40 220 40 40 220 40 40 220 40 40 220 40 40 220 40 40 220 40 40 220 40 40 220 40 40 220 40 40 220 40 40 220 40 40 220 40 40 220 40 40 220 40 40 220 40 40 220 40 40 220 40 40 220 40 40 220 40 40 220 40 40 220 40 40 220 40 40 220 40 40 220 40 40 220 40 40 220 40 40 220 40 40 220 40 40 220 40 40 220 40 40 220 40 40 220 40 40 220 40 40 220 40 40 220 40 40 220 40 40 220 40 40 220 40 40 220 40 40 220 40 40 220 40 40 220 40 40 220 40 40 220 40 40 220 40 40 220 40 40 220 40 40 220 40 40 220 40 40 220 40 40 220 40 40 220 40 40 220 40 40 220 40 40 220 40 40 220 40 40 220 40 40 220 40 40 220 40 40 220 40 40 220 40 40 220 40 40 220 40 40 220 40 40 220 40 40 220 40 40 220 40 40 220 40 40 220 40 40 220 40 40 119 113 138 120 113 137 121 113 137 122 113 136 123 113 136 124 113 135 125 113 135 126 113 134 127 113 134 128 113 133 129 113 133 130 113 132 131 113 132 132 113 131 133 113 131 134 113 130 135 113 130 136 113 129 137 113 129 138 113 128 139 113 128 140 113 127 141 113 127 142 113 127 143 113 126 144 113 126 145 113 125 146 113 125 147 113 124 148 113 124 149 113 123 40 210 70 40 210 70 40 210 70 40 210 70 40 210 70 40 210 70 40 210 70 40 210 70 40 210 70 40 210 70 40 210 70 40 210 70 40 210 70 40 210 70 40 210 70 40 210 70 40 210 70 40 210 70 40 210 70 40 210 70 40 210 70 40 210 70 40 210 70 40 210 70 40 210 70 40 210 70 40 210 70 40 210 70 40 210 70 40 210 70 40 210 70 40 210 70 40 210 70 40 210 70 40 210 70 40 210 70 40 210 70 40 210 70 40 210 70 40 210 70 40 210 70 40 210 70 40 210 70 40 210 70 40 210 70 40 210 70 40 210 70 40 210 70 40 210 70 40 210 70 40 210 70 40 210 70 40 210 70 40 210 70 40 210 70 40 210 70 40 210 70 40 210 70 40 210 70 209 113 93 210 113 93 211 113 92 212 113 92 213 113 91 214 113 91 215 113 90 216 113 90 217 113 89 218 113 89 219 113 88 220 113 88 221 113 87 222 113 87 223 113 86 224 113 86 225 113 85 226 113 85 227 113 84 228 113 84 229 113 83 230 113 83 231 113 82 232 113 82 233 113 81 234 113 81 235 113 80 236 113 80 237 113 79 238 113 79 239 113 78 240 113 78 241 113 77 242 113 77 243 113 76 244 113 76 245 113 75 246 113 75 247 113 74 248 113 74 249 113 73 250 113 73 251 113 72 252 113 72 253 113 71 254 113 71 
0 114 197 0 114 197 1 114 196 2 114 196 3 114 195 4 114 195 5 114 194 6 114 194 7 114 193 8 114 193 9 114 192 10 114 192 11 114 191 12 114 191 13 114 190 14 114 190 15 114 189 16 114 189 17 114 188 18 114 188 19 114 187 20 114 187 21 114 186 22 114 186 23 114 185 24 114 185 25 114 184 26 114 184 27 114 183 28 114 183 29 114 182 30 114 182 31 114 181 32 114 181 33 114 180 34 114 180 35 114 179 36 114 179 37 114 178 38 114 178 39 114 177 220 40 40 220 40 40 220 40 40 220 40 40 220 40 40 220 40 40 220 40 40 220 40 40 220 40 40 220 40 40 220 40 40 220 40 40 220 40 40 220 40 40 220 40 40 220 40 40 220 40 40 220 40 40 220 40 40 220 40 40 220 40 40 220 40 40 220 40 40 220 40 40 220 40 40 220 40 40 220 40 40 220 40 40 220 40 40 220 40 40 220 40 40 220 40 40 220 40 40 220 40 40 220 40 40 220 40 40 220 40 40 220 40 40 220 40 40 220 40 40 220 40 40 220 40 40 220 40 40 220 40 40 220 40 40 220 40 40 220 40 40 220 40 40 220 40 40 220 40 40 220 40 40 220 40 40 220 40 40 220 40 40 220 40 40 220 40 40 220 40 40 220 40 40 220 40 40 220 40 40 220 40 40 220 40 40 220 40 40 220 40 40 220 40 40 220 40 40 220 40 40 220 40 40 220 40 40 220 40 40 220 40 40 220 40 40 220 40 40 220 40 40 220 40 40 220 40 40 220 40 40 220 40 40 220 40 40 119 114 137 120 114 137 121 114 136 122 114 136 123 114 135 124 114 135 125 114 134 126 114 134 127 114 133 128 114 133 129 114 132 130 114 132 131 114 131 132 114 131 133 114 130 134 114 130 135 114 129 136 114 129 137 114 128 138 114 128 139 114 127 140 114 127 141 114 127 142 114 126 143 114 126 144 114 125 145 114 125 146 114 124 147 114 124 148 114 123 149 114 123 150 114 122 40 210 70 40 210 70 40 210 70 40 210 70 40 210 70 40 210 70 40 210 70 40 210 70 40 210 70 40 210 70 40 210 70 40 210 70 40 210 70 40 210 70 40 210 70 40 210 70 40 210 70 40 210 70 40 210 70 40 210 70 40 210 70 40 210 70 40 210 70 40 210 70 40 210 70 40 210 70 40 210 70 40 210 70 40 210 70 40 210 70 40 210 70 40 210 70 40 210 70 40 210 70 40 210 70 40 210 70 40 210 70 40 210 70 40 210 70 40 210 70 40 210 70 40 210 70 40 210 70 40 210 70 40 210 70 40 210 70 40 210 70 40 210 70 40 210 70 40 210 70 40 210 70 40 210 70 40 210 70 40 210 70 40 210 70 40 210 70 40 210 70 208 114 93 209 114 93 210 114 92 211 114 92 212 114 91 213 114 91 214 114 90 215 114 90 216 114 89 217 114 89 218 114 88 219 114 88 220 114 87 221 114 87 222 114 86 223 114 86 224 114 85 225 114 85 226 114 84 227 114 84 228 114 83 229 114 83 230 114 82 231 114 82 232 114 81 233 114 81 234 114 80 235 114 80 236 114 79 237 114 79 238 114 78 239 114 78 240 114 77 241 114 77 242 114 76 243 114 76 244 114 75 245 114 75 246 114 74 247 114 74 248 114 73 249 114 73 250 114 72 251 114 72 252 114 71 253 114 71 254 114 70 
0 115 197 0 115 196 1 115 196 2 115 195 3 115 195 4 115 194 5 115 194 6 115 193 7 115 193 8 115 192 9 115 192 10 115 191 11 115 191 12 115 190 13 115 190 14 115 189 15 115 189 16 115 188 17 115 188 18 115 187 19 115 187 20 115 186 21 115 186 22 115 185 23 115 185 24 115 184 25 115 184 26 115 183 27 115 183 28 115 182 29 115 182 30 115 181 31 115 181 32 115 180 33 115 180 34 115 179 35 115 179 36 115 178 37 115 178 38 115 177 39 115 177 220 40 40 220 40 40 220 40 40 220 40 40 220 40 40 220 40 40 220 40 40 220 40 40 220 40 40 220 40 40 220 40 40 220 40 40 220 40 40 220 40 40 220 40 40 220 40 40 220 40 40 220 40 40 220 40 40 220 40 40 220 40 40 220 40 40 220 40 40 220 40 40 220 40 40 220 40 40 220 40 40 220 40 40 220 40 40 220 40 40 220 40 40 220 40 40 220 40 40 220 40 40 220 40 40 220 40 40 220 40 40 220 40 40 220 40 40 220 40 40 220 40 40 220 40 40 220 40 40 220 40 40 220 40 40 220 40 40 220 40 40 220 40 40 220 40 40 220 40 40 220 40 40 220 40 40 220 40 40 220 40 40 220 40 40 220 40 40 220 40 40 220 40 40 220 40 40 220 40 40 220 40 40 220 40 40 220 40 40 220 40 40 220 40 40 220 40 40 220 40 40 220 40 40 220 40 40 220 40 40 220 40 40 220 40 40 220 40 40 220 40 40 220 40 40 220 40 40 220 40 40 220 40 40 220 40 40 119 115 137 120 115 136 121 115 136 122 115 135 123 115 135 124 115 134 125 115 134 126 115 133 127 115 133 128 115 132 129 115 132 130 115 131 131 115 131 132 115 130 133 115 130 134 115 129 135 115 129 136 115 128 137 115 128 138 115 127 139 115 127 140 115 127 141 115 126 142 115 126 143 115 125 144 115 125 145 115 124 146 115 124 147 115 123 148 115 123 149 115 122 150 115 122 151 115 121 152 115 121 40 210 70 40 210 70 40 210 70 40 210 70 40 210 70 40 210 70 40 210 70 40 210 70 40 210 70 40 210 70 40 210 70 40 210 70 40 210 70 40 210 70 40 210 70 40 210 70 40 210 70 40 210 70 40 210 70 40 210 70 40 210 70 40 210 70 40 210 70 40 210 70 40 210 70 40 210 70 40 210 70 40 210 70 40 210 70 40 210 70 40 210 70 40 210 70 40 210 70 40 210 70 40 210 70 40 210 70 40 210 70 40 210 70 40 210 70 40 210 70 40 210 70 40 210 70 40 210 70 40 210 70 40 210 70 40 210 70 40 210 70 40 210 70 40 210 70 40 210 70 40 210 70 40 210 70 40 210 70 206 115 94 207 115 93 208 115 93 209 115 92 210 115 92 211 115 91 212 115 91 213 115 90 214 115 90 215 115 89 216 115 89 217 115 88 218 115 88 219 115 87 220 115 87 221 115 86 222 115 86 223 115 85 224 115 85 225 115 84 226 115 84 227 115 83 228 115 83 229 115 82 230 115 82 231 115 81 232 115 81 233 115 80 234 115 80 235 115 79 236 115 79 237 115 78 238 115 78 239 115 77 240 115 77 241 115 76 242 115 76 243 115 75 244 115 75 245 115 74 246 115 74 247 115 73 248 115 73 249 115 72 250 115 72 251 115 71 252 115 71 253 115 70 254 115 70 
0 116 196 0 116 196 1 116 195 2 116 195 3 116 194 4 116 194 5 116 193 6 116 193 7 116 192 8 116 192 9 116 191 10 116 191 11 116 190 12 116 190 13 116 189 14 116 189 15 116 188 16 116 188 17 116 187 18 116 187 19 116 186 20 116 186 21 116 185 22 116 185 23 116 184 24 116 184 25 116 183 26 116 183 27 116 182 28 116 182 29 116 181 30 116 181 31 116 180 32 116 180 33 116 179 34 116 179 35 116 178 36 116 178 37 116 177 38 116 177 39 116 176 220 40 40 220 40 40 220 40 40 220 40 40 220 40 40 220 40 40 220 40 40 220 40 40 220 40 40 220 40 40 220 40 40 220 40 40 220 40 40 220 40 40 220 40 40 220 40 40 220 40 40 220 40 40 220 40 40 220 40 40 220 40 40 220 40 40 220 40 40 220 40 40 220 40 40 220 40 40 220 40 40 220 40 40 220 40 40 220 40 40 220 40 40 220 40 40 220 40 40 220 40 40 220 40 40 220 40 40 220 40 40 220 40 40 220 40 40 220 40 40 220 40 40 220 40 40 220 40 40 220 40 40 220 40 40 220 40 40 220 40 40 220 40 40 220 40 40 220 40 40 220 40 40 220 40 40 220 40 40 220 40 40 220 40 40 220 40 40 220 40 40 220 40 40 220 40 40 220 40 40 220 40 40 220 40 40 220 40 40 220 40 40 220 40 40 220 40 40 220 40 40 220 40 40 220 40 40 220 40 40 220 40 40 220 40 40 220 40 40 220 40 40 220 40 40 220 40 40 220 40 40 220 40 40 220 40 40 119 116 136 120 116 136 121 116 135 122 116 135 123 116 134 124 116 134 125 116 133 126 116 133 127 116 132 128 116 132 129 116 131 130 116 131 131 116 130 132 116 130 133 116 129 134 116 129 135 116 128 136 116 128 137 116 127 138 116 127 139 116 127 140 116 126 141 116 126 142 116 125 143 116 125 144 116 124 145 116 124 146 116 123 147 116 123 148 116 122 149 116 122 150 116 121 151 116 121 152 116 120 153 116 120 40 210 70 40 210 70 40 210 70 40 210 70 40 210 70 40 210 70 40 210 70 40 210 70 40 210 70 40 210 70 40 210 70 40 210 70 40 210 70 40 210 70 40 210 70 40 210 70 40 210 70 40 210 70 40 210 70 40 210 70 40 210 70 40 210 70 40 210 70 40 210 70 40 210 70 40 210 70 40 210 70 40 210 70 40 210 70 40 210 70 40 210 70 40 210 70 40 210 70 40 210 70 40 210 70 40 210 70 40 210 70 40 210 70 40 210 70 40 210 70 40 210 70 40 210 70 40 210 70 40 210 70 40 210 70 40 210 70 40 210 70 40 210 70 40 210 70 40 210 70 40 210 70 205 116 94 206 116 93 207 116 93 208 116 92 209 116 92 210 116 91 211 116 91 212 116 90 213 116 90 214 116 89 215 116 89 216 116 88 217 116 88 218 116 87 219 116 87 220 116 86 221 116 86 222 116 85 223 116 85 224 116 84 225 116 84 226 116 83 227 116 83 228 116 82 229 116 82 230 116 81 231 116 81 232 116 80 233 116 80 234 116 79 235 116 79 236 116 78 237 116 78 238 116 77 239 116 77 240 116 76 241 116 76 242 116 75 243 116 75 244 116 74 245 116 74 246 116 73 247 116 73 248 116 72 249 116 72 250 116 71 251 116 71 252 116 70 253 116 70 254 116 69 
0 117 196 0 117 195 1 117 195 2 117 194 3 117 194 4 117 193 5 117 193 6 117 192 7 117 192 8 117 191 9 117 191 10 117 190 11 117 190 12 117 189 13 117 189 14 117 188 15 117 188 16 117 187 17 117 187 18 117 186 19 117 186 20 117 185 21 117 185 22 117 184 23 117 184 24 117 183 25 117 183 26 117 182 27 117 182 28 117 181 29 117 181 30 117 180 31 117 180 32 117 179 33 117 179 34 117 178 35 117 178 36 117 177 37 117 177 38 117 176 39 117 176 220 40 40 220 40 40 220 40 40 220 40 40 220 40 40 220 40 40 220 40 40 220 40 40 220 40 40 220 40 40 220 40 40 220 40 40 220 40 40 220 40 40 220 40 40 220 40 40 220 40 40 220 40 40 220 40 40 220 40 40 220 40 40 220 40 40 220 40 40 220 40 40 220 40 40 220 40 40 220 40 40 220 40 40 220 40 40 220 40 40 220 40 40 220 40 40 220 40 40 220 40 40 220 40 40 220 40 40 220 40 40 220 40 40 220 40 40 220 40 40 220 40 40 220 40 40 220 40 40 220 40 40 220 40 40 220 40 40 220 40 40 220 40 40 220 40 40 220 40 40 220 40 40 220 40 40 220 40 40 220 40 40 220 40 40 220 40 40 220 40 40 220 40 40 220 40 40 220 40 40 220 40 40 220 40 40 220 40 40 220 40 40 220 40 40 220 40 40 220 40 40 220 40 40 220 40 40 220 40 40 220 40 40 220 40 40 220 40 40 220 40 40 220 40 40 220 40 40 220 40 40 220 40 40 220 40 40 119 117 136 120 117 135 121 117 135 122 117 134 123 117 134 124 117 133 125 117 133 126 117 132 127 117 132 128 117 131 129 117 131 130 117 130 131 117 130 132 117 129 133 117 129 134 117 128 135 117 128 136 117 127 137 117 127 138 117 127 139 117 126 140 117 126 141 117 125 142 117 125 143 117 124 144 117 124 145 117 123 146 117 123 147 117 122 148 117 122 149 117 121 150 117 121 151 117 120 152 117 120 153 117 119 154 117 119 40 210 70 40 210 70 40 210 70 40 210 70 40 210 70 40 210 70 40 210 70 40 210 70 40 210 70 40 210 70 40 210 70 40 210 70 40 210 70 40 210 70 40 210 70 40 210 70 40 210 70 40 210 70 40 210 70 40 210 70 40 210 70 40 210 70 40 210 70 40 210 70 40 210 70 40 210 70 40 210 70 40 210 70 40 210 70 40 210 70 40 210 70 40 210 70 40 210 70 40 210 70 40 210 70 40 210 70 40 210 70 40 210 70 40 210 70 40 210 70 40 210 70 40 210 70 40 210 70 40 210 70 40 210 70 40 210 70 40 210 70 40 210 70 40 210 70 204 117 94 205 117 93 206 117 93 207 117 92 208 117 92 209 117 91 210 117 91 211 117 90 212 117 90 213 117 89 214 117 89 215 117 88 216 117 88 217 117 87 218 117 87 219 117 86 220 117 86 221 117 85 222 117 85 223 117 84 224 117 84 225 117 83 226 117 83 227 117 82 228 117 82 229 117 81 230 117 81 231 117 80 232 117 80 233 117 79 234 117 79 235 117 78 236 117 78 237 117 77 238 117 77 239 117 76 240 117 76 241 117 75 242 117 75 243 117 74 244 117 74 245 117 73 246 117 73 247 117 72 248 117 72 249 117 71 250 117 71 251 117 70 252 117 70 253 117 69 254 117 69 
0 118 195 0 118 195 1 118 194 2 118 194 3 118 193 4 118 193 5 118 192 6 118 192 7 118 191 8 118 191 9 118 190 10 118 190 11 118 189 12 118 189 13 118 188 14 118 188 15 118 187 16 118 187 17 118 186 18 118 186 19 118 185 20 118 185 21 118 184 22 118 184 23 118 183 24 118 183 25 118 182 26 118 182 27 118 181 28 118 181 29 118 180 30 118 180 31 118 179 32 118 179 33 118 178 34 118 178 35 118 177 36 118 177 37 118 176 38 118 176 39 118 175 220 40 40 220 40 40 220 40 40 220 40 40 220 40 40 220 40 40 220 40 40 220 40 40 220 40 40 220 40 40 220 40 40 220 40 40 220 40 40 220 40 40 220 40 40 220 40 40 220 40 40 220 40 40 220 40 40 220 40 40 220 40 40 220 40 40 220 40 40 220 40 40 220 40 40 220 40 40 220 40 40 220 40 40 220 40 40 220 40 40 220 40 40 220 40 40 220 40 40 220 40 40 220 40 40 220 40 40 220 40 40 220 40 40 220 40 40 220 40 40 220 40 40 220 40 40 220 40 40 220 40 40 220 40 40 220 40 40 220 40 40 220 40 40 220 40 40 220 40 40 220 40 40 220 40 40 220 40 40 220 40 40 220 40 40 220 40 40 220 40 40 220 40 40 220 40 40 220 40 40 220 40 40 220 40 40 220 40 40 220 40 40 220 40 40 220 40 40 220 40 40 220 40 40 220 40 40 220 40 40 220 40 40 220 40 40 220 40 40 220 40 40 220 40 40 220 40 40 220 40 40 220 40 40 220 40 40 119 118 135 120 118 135 121 118 134 122 118 134 123 118 133 124 118 133 125 118 132 126 118 132 127 118 131 128 118 131 129 118 130 130 118 130 131 118 129 132 118 129 133 118 128 134 118 128 135 118 127 136 118 127 137 118 127 138 118 126 139 118 126 140 118 125 141 118 125 142 118 124 143 118 124 144 118 123 145 118 123 146 118 122 147 118 122 148 118 121 149 118 121 150 118 120 151 118 120 152 118 119 153 118 119 154 118 118 155 118 118 156 118 117 40 210 70 40 210 70 40 210 70 40 210 70 40 210 70 40 210 70 40 210 70 40 210 70 40 210 70 40 210 70 40 210 70 40 210 70 40 210 70 40 210 70 40 210 70 40 210 70 40 210 70 40 210 70 40 210 70 40 210 70 40 210 70 40 210 70 40 210 70 40 210 70 40 210 70 40 210 70 40 210 70 40 210 70 40 210 70 40 210 70 40 210 70 40 210 70 40 210 70 40 210 70 40 210 70 40 210 70 40 210 70 40 210 70 40 210 70 40 210 70 40 210 70 40 210 70 40 210 70 40 210 70 40 210 70 202 118 94 203 118 94 204 118 93 205 118 93 206 118 92 207 118 92 208 118 91 209 118 91 210 118 90 211 118 90 212 118 89 213 118 89 214 118 88 215 118 88 216 118 87 217 118 87 218 118 86 219 118 86 220 118 85 221 118 85 222 118 84 223 118 84 224 118 83 225 118 83 226 118 82 227 118 82 228 118 81 229 118 81 230 118 80 231 118 80 232 118 79 233 118 79 234 118 78 235 118 78 236 118 77 237 118 77 238 118 76 239 118 76 240 118 75 241 118 75 242 118 74 243 118 74 244 118 73 245 118 73 246 118 72 247 118 72 248 118 71 249 118 71 250 118 70 251 118 70 252 118 69 253 118 69 254 118 68 
0 119 195 0 119 194 1 119 194 2 119 193 3 119 193 4 119 192 5 119 192 6 119 191 7 119 191 8 119 190 9 119 190 10 119 189 11 119 189 12 119 188 13 119 188 14 119 187 15 119 187 16 119 186 17 119 186 18 119 185 19 119 185 20 119 184 21 119 184 22 119 183 23 119 183 24 119 182 25 119 182 26 119 181 27 119 181 28 119 180 29 119 180 30 119 179 31 119 179 32 119 178 33 119 178 34 119 177 35 119 177 36 119 176 37 119 176 38 119 175 39 119 175 40 119 174 41 119 174 42 119 173 43 119 173 44 119 172 45 119 172 46 119 171 47 119 171 48 119 170 49 119 170 50 119 169 51 119 169 52 119 168 53 119 168 54 119 167 55 119 167 56 119 166 57 119 166 58 119 165 59 119 165 60 119 164 61 119 164 62 119 163 63 119 163 64 119 162 65 119 162 66 119 161 67 119 161 68 119 160 69 119 160 70 119 159 71 119 159 72 119 158 73 119 158 74 119 157 75 119 157 76 119 156 77 119 156 78 119 155 79 119 155 80 119 154 81 119 154 82 119 153 83 119 153 84 119 152 85 119 152 86 119 151 87 119 151 88 119 150 89 119 150 90 119 149 91 119 149 92 119 148 93 119 148 94 119 147 95 119 147 96 119 146 97 119 146 98 119 145 99 119 145 100 119 144 101 119 144 102 119 143 103 119 143 104 119 142 105 119 142 106 119 141 107 119 141 108 119 140 109 119 140 110 119 139 111 119 139 112 119 138 113 119 138 114 119 137 115 119 137 116 119 136 117 119 136 118 119 135 119 119 135 120 119 134 121 119 134 122 119 133 123 119 133 124 119 132 125 119 132 126 119 131 127 119 131 128 119 130 129 119 130 130 119 129 131 119 129 132 119 128 133 119 128 134 119 127 135 119 127 136 119 127 137 119 126 138 119 126 139 119 125 140 119 125 141 119 124 142 119 124 143 119 123 144 119 123 145 119 122 146 119 122 147 119 121 148 119 121 149 119 120 150 119 120 151 119 119 152 119 119 153 119 118 154 119 118 155 119 117 156 119 117 157 119 116 158 119 116 40 210 70 40 210 70 40 210 70 40 210 70 40 210 70 40 210 70 40 210 70 40 210 70 40 210 70 40 210 70 40 210 70 40 210 70 40 210 70 40 210 70 40 210 70 40 210 70 40 210 70 40 210 70 40 210 70 40 210 70 40 210 70 40 210 70 40 210 70 40 210 70 40 210 70 40 210 70 40 210 70 40 210 70 40 210 70 40 210 70 40 210 70 40 210 70 40 210 70 40 210 70 40 210 70 40 210 70 40 210 70 40 210 70 40 210 70 40 210 70 40 210 70 200 119 95 201 119 94 202 119 94 203 119 93 204 119 93 205 119 92 206 119 92 207 119 91 208 119 91 209 119 90 210 119 90 211 119 89 212 119 89 213 119 88 214 119 88 215 119 87 216 119 87 217 119 86 218 119 86 219 119 85 220 119 85 221 119 84 222 119 84 223 119 83 224 119 83 225 119 82 226 119 82 227 119 81 228 119 81 229 119 80 230 119 80 231 119 79 232 119 79 233 119 78 234 119 78 235 119 77 236 119 77 237 119 76 238 119 76 239 119 75 240 119 75 241 119 74 242 119 74 243 119 73 244 119 73 245 119 72 246 119 72 247 119 71 248 119 71 249 119 70 250 119 70 251 119 69 252 119 69 253 119 68 254 119 68 
0 120 194 0 120 194 1 120 193 2 120 193 3 120 192 4 120 192 5 120 191 6 120 191 7 120 190 8 120 190 9 120 189 10 120 189 11 120 188 12 120 188 13 120 187 14 120 187 15 120 186 16 120 186 17 120 185 18 120 185 19 120 184 20 120 184 21 120 183 22 120 183 23 120 182 24 120 182 25 120 181 26 120 181 27 120 180 28 120 180 29 120 179 30 120 179 31 120 178 32 120 178 33 120 177 34 120 177 35 120 176 36 120 176 37 120 175 38 120 175 39 120 174 40 120 174 41 120 173 42 120 173 43 120 172 44 120 172 45 120 171 46 120 171 47 120 170 48 120 170 49 120 169 50 120 169 51 120 168 52 120 168 53 120 167 54 120 167 55 120 166 56 120 166 57 120 165 58 120 165 59 120 164 60 120 164 61 120 163 62 120 163 63 120 162 64 120 162 65 120 161 66 120 161 67 120 160 68 120 160 69 120 159 70 120 159 71 120 158 72 120 158 73 120 157 74 120 157 75 120 156 76 120 156 77 120 155 78 120 155 79 120 154 80 120 154 81 120 153 82 120 153 83 120 152 84 120 152 85 120 151 86 120 151 87 120 150 88 120 150 89 120 149 90 120 149 91 120 148 92 120 148 93 120 147 94 120 147 95 120 146 96 120 146 97 120 145 98 120 145 99 120 144 100 120 144 101 120 143 102 120 143 103 120 142 104 120 142 105 120 141 106 120 141 107 120 140 108 120 140 109 120 139 110 120 139 111 120 138 112 120 138 113 120 137 114 120 137 115 120 136 116 120 136 117 120 135 118 120 135 119 120 134 120 120 134 121 120 133 122 120 133 123 120 132 124 120 132 125 120 131 126 120 131 127 120 130 128 120 130 129 120 129 130 120 129 131 120 128 132 120 128 133 120 127 134 120 127 135 120 127 136 120 126 137 120 126 138 120 125 139 120 125 140 120 124 141 120 124 142 120 123 143 120 123 144 120 122 145 120 122 146 120 121 147 120 121 148 120 120 149 120 120 150 120 119 151 120 119 152 120 118 153 120 118 154 120 117 155 120 117 156 120 116 157 120 116 158 120 115 159 120 115 160 120 114 40 210 70 40 210 70 40 210 70 40 210 70 40 210 70 40 210 70 40 210 70 40 210 70 40 210 70 40 210 70 40 210 70 40 210 70 40 210 70 40 210 70 40 210 70 40 210 70 40 210 70 40 210 70 40 210 70 40 210 70 40 210 70 40 210 70 40 210 70 40 210 70 40 210 70 40 210 70 40 210 70 40 210 70 40 210 70 40 210 70 40 210 70 40 210 70 40 210 70 40 210 70 40 210 70 40 210 70 40 210 70 198 120 95 199 120 95 200 120 94 201 120 94 202 120 93 203 120 93 204 120 92 205 120 92 206 120 91 207 120 91 208 120 90 209 120 90 210 120 89 211 120 89 212 120 88 213 120 88 214 120 87 215 120 87 216 120 86 217 120 86 218 120 85 219 120 85 220 120 84 221 120 84 222 120 83 223 120 83 224 120 82 225 120 82 226 120 81 227 120 81 228 120 80 229 120 80 230 120 79 231 120 79 232 120 78 233 120 78 234 120 77 235 120 77 236 120 76 237 120 76 238 120 75 239 120 75 240 120 74 241 120 74 242 120 73 243 120 73 244 120 72 245 120 72 246 120 71 247 120 71 248 120 70 249 120 70 250 120 69 251 120 69 252 120 68 253 120 68 254 120 67 
0 121 194 0 121 193 1 121 193 2 121 192 3 121 192 4 121 191 5 121 191 6 121 190 7 121 190 8 121 189 9 121 189 10 121 188 11 121 188 12 121 187 13 121 187 14 121 186 15 121 186 16 121 185 17 121 185 18 121 184 19 121 184 20 121 183 21 121 183 22 121 182 23 121 182 24 121 181 25 121 181 26 121 180 27 121 180 28 121 179 29 121 179 30 121 178 31 121 178 32 121 177 33 121 177 34 121 176 35 121 176 36 121 175 37 121 175 38 121 174 39 121 174 40 121 173 41 121 173 42 121 172 43 121 172 44 121 171 45 121 171 46 121 170 47 121 170 48 121 169 49 121 169 50 121 168 51 121 168 52 121 167 53 121 167 54 121 166 55 121 166 56 121 165 57 121 165 58 121 164 59 121 164 60 121 163 61 121 163 62 121 162 63 121 162 64 121 161 65 121 161 66 121 160 67 121 160 68 121 159 69 121 159 70 121 158 71 121 158 72 121 157 73 121 157 74 121 156 75 121 156 76 121 155 77 121 155 78 121 154 79 121 154 80 121 153 81 121 153 82 121 152 83 121 152 84 121 151 85 121 151 86 121 150 87 121 150 88 121 149 89 121 149 90 121 148 91 121 148 92 121 147 93 121 147 94 121 146 95 121 146 96 121 145 97 121 145 98 121 144 99 121 144 100 121 143 101 121 143 102 121 142 103 121 142 104 121 141 105 121 141 106 121 140 107 121 140 108 121 139 109 121 139 110 121 138 111 121 138 112 121 137 113 121 137 114 121 136 115 121 136 116 121 135 117 121 135 118 121 134 119 121 134 120 121 133 121 121 133 122 121 132 123 121 132 124 121 131 125 121 131 126 121 130 127 121 130 128 121 129 129 121 129 130 121 128 131 121 128 132 121 127 133 121 127 134 121 127 135 121 126 136 121 126 137 121 125 138 121 125 139 121 124 140 121 124 141 121 123 142 121 123 143 121 122 144 121 122 145 121 121 146 121 121 147 121 120 148 121 120 149 121 119 150 121 119 151 121 118 152 121 118 153 121 117 154 121 117 155 121 116 156 121 116 157 121 115 158 121 115 159 121 114 160 121 114 161 121 113 162 121 113 40 210 70 40 210 70 40 210 70 40 210 70 40 210 70 40 210 70 40 210 70 40 210 70 40 210 70 40 210 70 40 210 70 40 210 70 40 210 70 40 210 70 40 210 70 40 210 70 40 210 70 40 210 70 40 210 70 40 210 70 40 210 70 40 210 70 40 210 70 40 210 70 40 210 70 40 210 70 40 210 70 40 210 70 40 210 70 40 210 70 40 210 70 40 210 70 40 210 70 196 121 96 197 121 95 198 121 95 199 121 94 200 121 94 201 121 93 202 121 93 203 121 92 204 121 92 205 121 91 206 121 91 207 121 90 208 121 90 209 121 89 210 121 89 211 121 88 212 121 88 213 121 87 214 121 87 215 121 86 216 121 86 217 121 85 218 121 85 219 121 84 220 121 84 221 121 83 222 121 83 223 121 82 224 121 82 225 121 81 226 121 81 227 121 80 228 121 80 229 121 79 230 121 79 231 121 78 232 121 78 233 121 77 234 121 77 235 121 76 236 121 76 237 121 75 238 121 75 239 121 74 240 121 74 241 121 73 242 121 73 243 121 72 244 121 72 245 121 71 246 121 71 247 121 70 248 121 70 249 121 69 250 121 69 251 121 68 252 121 68 253 121 67 254 121 67 
0 122 193 0 122 193 1 122 192 2 122 192 3 122 191 4 122 191 5 122 190 6 122 190 7 122 189 8 122 189 9 122 188 10 122 188 11 122 187 12 122 187 13 122 186 14 122 186 15 122 185 16 122 185 17 122 184 18 122 184 19 122 183 20 122 183 21 122 182 22 122 182 23 122 181 24 122 181 25 122 180 26 122 180 27 122 179 28 122 179 29 122 178 30 122 178 31 122 177 32 122 177 33 122 176 34 122 176 35 122 175 36 122 175 37 122 174 38 122 174 39 122 173 40 122 173 41 122 172 42 122 172 43 122 171 44 122 171 45 122 170 46 122 170 47 122 169 48 122 169 49 122 168 50 122 168 51 122 167 52 122 167 53 122 166 54 122 166 55 122 165 56 122 165 57 122 164 58 122 164 59 122 163 60 122 163 61 122 162 62 122 162 63 122 161 64 122 161 65 122 160 66 122 160 67 122 159 68 122 159 69 122 158 70 122 158 71 122 157 72 122 157 73 122 156 74 122 156 75 122 155 76 122 155 77 122 154 78 122 154 79 122 153 80 122 153 81 122 152 82 122 152 83 122 151 84 122 151 85 122 150 86 122 150 87 122 149 88 122 149 89 122 148 90 122 148 91 122 147 92 122 147 93 122 146 94 122 146 95 122 145 96 122 145 97 122 144 98 122 144 99 122 143 100 122 143 101 122 142 102 122 142 103 122 141 104 122 141 105 122 140 106 122 140 107 122 139 108 122 139 109 122 138 110 122 138 111 122 137 112 122 137 113 122 136 114 122 136 115 122 135 116 122 135 117 122 134 118 122 134 119 122 133 120 122 133 121 122 132 122 122 132 123 122 131 124 122 131 125 122 130 126 122 130 127 122 129 128 122 129 129 122 128 130 122 128 131 122 127 132 122 127 133 122 127 134 122 126 135 122 126 136 122 125 137 122 125 138 122 124 139 122 124 140 122 123 141 122 123 142 122 122 143 122 122 144 122 121 145 122 121 146 122 120 147 122 120 148 122 119 149 122 119 150 122 118 151 122 118 152 122 117 153 122 117 154 122 116 155 122 116 156 122 115 157 122 115 158 122 114 159 122 114 160 122 113 161 122 113 162 122 112 163 122 112 164 122 111 165 122 111 40 210 70 40 210 70 40 210 70 40 210 70 40 210 70 40 210 70 40 210 70 40 210 70 40 210 70 40 210 70 40 210 70 40 210 70 40 210 70 40 210 70 40 210 70 40 210 70 40 210 70 40 210 70 40 210 70 40 210 70 40 210 70 40 210 70 40 210 70 40 210 70 40 210 70 40 210 70 40 210 70 193 122 97 194 122 96 195 122 96 196 122 95 197 122 95 198 122 94 199 122 94 200 122 93 201 122 93 202 122 92 203 122 92 204 122 91 205 122 91 206 122 90 207 122 90 208 122 89 209 122 89 210 122 88 211 122 88 212 122 87 213 122 87 214 122 86 215 122 86 216 122 85 217 122 85 218 122 84 219 122 84 220 122 83 221 122 83 222 122 82 223 122 82 224 122 81 225 122 81 226 122 80 227 122 80 228 122 79 229 122 79 230 122 78 231 122 78 232 122 77 233 122 77 234 122 76 235 122 76 236 122 75 237 122 75 238 122 74 239 122 74 240 122 73 241 122 73 242 122 72 243 122 72 244 122 71 245 122 71 246 122 70 247 122 70 248 122 69 249 122 69 250 122 68 251 122 68 252 122 67 253 122 67 254 122 66 
0 123 193 0 123 192 1 123 192 2 123 191 3 123 191 4 123 190 5 123 190 6 123 189 7 123 189 8 123 188 9 123 188 10 123 187 11 123 187 12 123 186 13 123 186 14 123 185 15 123 185 16 123 184 17 123 184 18 123 183 19 123 183 20 123 182 21 123 182 22 123 181 23 123 181 24 123 180 25 123 180 26 123 179 27 123 179 28 123 178 29 123 178 30 123 177 31 123 177 32 123 176 33 123 176 34 123 175 35 123 175 36 123 174 37 123 174 38 123 173 39 123 173 40 123 172 41 123 172 42 123 171 43 123 171 44 123 170 45 123 170 46 123 169 47 123 169 48 123 168 49 123 168 50 123 167 51 123 167 52 123 166 53 123 166 54 123 165 55 123 165 56 123 164 57 123 164 58 123 163 59 123 163 60 123 162 61 123 162 62 123 161 63 123 161 64 123 160 65 123 160 66 123 159 67 123 159 68 123 158 69 123 158 70 123 157 71 123 157 72 123 156 73 123 156 74 123 155 75 123 155 76 123 154 77 123 154 78 123 153 79 123 153 80 123 152 81 123 152 82 123 151 83 123 151 84 123 150 85 123 150 86 123 149 87 123 149 88 123 148 89 123 148 90 123 147 91 123 147 92 123 146 93 123 146 94 123 145 95 123 145 96 123 144 97 123 144 98 123 143 99 123 143 100 123 142 101 123 142 102 123 141 103 123 141 104 123 140 105 123 140 106 123 139 107 123 139 108 123 138 109 123 138 110 123 137 111 123 137 112 123 136 113 123 136 114 123 135 115 123 135 116 123 134 117 123 134 118 123 133 119 123 133 120 123 132 121 123 132 122 123 131 123 123 131 124 123 130 125 123 130 126 123 129 127 123 129 128 123 128 129 123 128 130 123 127 131 123 127 132 123 127 133 123 126 134 123 126 135 123 125 136 123 125 137 123 124 138 123 124 139 123 123 140 123 123 141 123 122 142 123 122 143 123 121 144 123 121 145 123 120 146 123 120 147 123 119 148 123 119 149 123 118 150 123 118 151 123 117 152 123 117 153 123 116 154 123 116 155 123 115 156 123 115 157 123 114 158 123 114 159 123 113 160 123 113 161 123 112 162 123 112 163 123 111 164 123 111 165 123 110 166 123 110 167 123 109 168 123 109 169 123 108 40 210 70 40 210 70 40 210 70 40 210 70 40 210 70 40 210 70 40 210 70 40 210 70 40 210 70 40 210 70 40 210 70 40 210 70 40 210 70 40 210 70 40 210 70 40 210 70 40 210 70 40 210 70 40 210 70 189 123 98 190 123 98 191 123 97 192 123 97 193 123 96 194 123 96 195 123 95 196 123 95 197 123 94 198 123 94 199 123 93 200 123 93 201 123 92 202 123 92 203 123 91 204 123 91 205 123 90 206 123 90 207 123 89 208 123 89 209 123 88 210 123 88 211 123 87 212 123 87 213 123 86 214 123 86 215 123 85 216 123 85 217 123 84 218 123 84 219 123 83 220 123 83 221 123 82 222 123 82 223 123 81 224 123 81 225 123 80 226 123 80 227 123 79 228 123 79 229 123 78 230 123 78 231 123 77 232 123 77 233 123 76 234 123 76 235 123 75 236 123 75 237 123 74 238 123 74 239 123 73 240 123 73 241 123 72 242 123 72 243 123 71 244 123 71 245 123 70 246 123 70 247 123 69 248 123 69 249 123 68 250 123 68 251 123 67 252 123 67 253 123 66 254 123 66 
0 124 192 0 124 192 1 124 191 2 124 191 3 124 190 4 124 190 5 124 189 6 124 189 7 124 188 8 124 188 9 124 187 10 124 187 11 124 186 12 124 186 13 124 185 14 124 185 15 124 184 16 124 184 17 124 183 18 124 183 19 124 182 20 124 182 21 124 181 22 124 181 23 124 180 24 124 180 25 124 179 26 124 179 27 124 178 28 124 178 29 124 177 30 124 177 31 124 176 32 124 176 33 124 175 34 124 175 35 124 174 36 124 174 37 124 173 38 124 173 39 124 172 40 124 172 41 124 171 42 124 171 43 124 170 44 124 170 45 124 169 46 124 169 47 124 168 48 124 168 49 124 167 50 124 167 51 124 166 52 124 166 53 124 165 54 124 165 55 124 164 56 124 164 57 124 163 58 124 163 59 124 162 60 124 162 61 124 161 62 124 161 63 124 160 64 124 160 65 124 159 66 124 159 67 124 158 68 124 158 69 124 157 70 124 157 71 124 156 72 124 156 73 124 155 74 124 155 75 124 154 76 124 154 77 124 153 78 124 153 79 124 152 80 124 152 81 124 151 82 124 151 83 124 150 84 124 150 85 124 149 86 124 149 87 124 148 88 124 148 89 124 147 90 124 147 91 124 146 92 124 146 93 124 145 94 124 145 95 124 144 96 124 144 97 124 143 98 124 143 99 124 142 100 124 142 101 124 141 102 124 141 103 124 140 104 124 140 105 124 139 106 124 139 107 124 138 108 124 138 109 124 137 110 124 137 111 124 136 112 124 136 113 124 135 114 124 135 115 124 134 116 124 134 117 124 133 118 124 133 119 124 132 120 124 132 121 124 131 122 124 131 123 124 130 124 124 130 125 124 129 126 124 129 127 124 128 128 124 128 129 124 127 130 124 127 131 124 127 132 124 126 133 124 126 134 124 125 135 124 125 136 124 124 137 124 124 138 124 123 139 124 123 140 124 122 141 124 122 142 124 121 143 124 121 144 124 120 145 124 120 146 124 119 147 124 119 148 124 118 149 124 118 150 124 117 151 124 117 152 124 116 153 124 116 154 124 115 155 124 115 156 124 114 157 124 114 158 124 113 159 124 113 160 124 112 161 124 112 162 124 111 163 124 111 164 124 110 165 124 110 166 124 109 167 124 109 168 124 108 169 124 108 170 124 107 171 124 107 172 124 106 173 124 106 174 124 105 175 124 105 176 124 104 177 124 104 178 124 103 179 124 103 180 124 102 181 124 102 182 124 101 183 124 101 184 124 100 185 124 100 186 124 99 187 124 99 188 124 98 189 124 98 190 124 97 191 124 97 192 124 96 193 124 96 194 124 95 195 124 95 196 124 94 197 124 94 198 124 93 199 124 93 200 124 92 201 124 92 202 124 91 203 124 91 204 124 90 205 124 90 206 124 89 207 124 89 208 124 88 209 124 88 210 124 87 211 124 87 212 124 86 213 124 86 214 124 85 215 124 85 216 124 84 217 124 84 218 124 83 219 124 83 220 124 82 221 124 82 222 124 81 223 124 81 224 124 80 225 124 80 226 124 79 227 124 79 228 124 78 229 124 78 230 124 77 231 124 77 232 124 76 233 124 76 234 124 75 235 124 75 236 124 74 237 124 74 238 124 73 239 124 73 240 124 72 241 124 72 242 124 71 243 124 71 244 124 70 245 124 70 246 124 69 247 124 69 248 124 68 249 124 68 250 124 67 251 124 67 252 124 66 253 124 66 254 124 65 
0 125 192 0 125 191 1 125 191 2 125 190 3 125 190 4 125 189 5 125 189 6 125 188 7 125 188 8 125 187 9 125 187 10 125 186 11 125 186 12 125 185 13 125 185 14 125 184 15 125 184 16 125 183 17 125 183 18 125 182 19 125 182 20 125 181 21 125 181 22 125 180 23 125 180 24 125 179 25 125 179 26 125 178 27 125 178 28 125 177 29 125 177 30 125 176 31 125 176 32 125 175 33 125 175 34 125 174 35 125 174 36 125 173 37 125 173 38 125 172 39 125 172 40 125 171 41 125 171 42 125 170 43 125 170 44 125 169 45 125 169 46 125 168 47 125 168 48 125 167 49 125 167 50 125 166 51 125 166 52 125 165 53 125 165 54 125 164 55 125 164 56 125 163 57 125 163 58 125 162 59 125 162 60 125 161 61 125 161 62 125 160 63 125 160 64 125 159 65 125 159 66 125 158 67 125 158 68 125 157 69 125 157 70 125 156 71 125 156 72 125 155 73 125 155 74 125 154 75 125 154 76 125 153 77 125 153 78 125 152 79 125 152 80 125 151 81 125 151 82 125 150 83 125 150 84 125 149 85 125 149 86 125 148 87 125 148 88 125 147 89 125 147 90 125 146 91 125 146 92 125 145 93 125 145 94 125 144 95 125 144 96 125 143 97 125 143 98 125 142 99 125 142 100 125 141 101 125 141 102 125 140 103 125 140 104 125 139 105 125 139 106 125 138 107 125 138 108 125 137 109 125 137 110 125 136 111 125 136 112 125 135 113 125 135 114 125 134 115 125 134 116 125 133 117 125 133 118 125 132 119 125 132 120 125 131 121 125 131 122 125 130 123 125 130 124 125 129 125 125 129 126 125 128 127 125 128 128 125 127 129 125 127 130 125 127 131 125 126 132 125 126 133 125 125 134 125 125 135 125 124 136 125 124 137 125 123 138 125 123 139 125 122 140 125 122 141 125 121 142 125 121 143 125 120 144 125 120 145 125 119 146 125 119 147 125 118 148 125 118 149 125 117 150 125 117 151 125 116 152 125 116 153 125 115 154 125 115 155 125 114 156 125 114 157 125 113 158 125 113 159 125 112 160 125 112 161 125 111 162 125 111 163 125 110 164 125 110 165 125 109 166 125 109 167 125 108 168 125 108 169 125 107 170 125 107 171 125 106 172 125 106 173 125 105 174 125 105 175 125 104 176 125 104 177 125 103 178 125 103 179 125 102 180 125 102 181 125 101 182 125 101 183 125 100 184 125 100 185 125 99 186 125 99 187 125 98 188 125 98 189 125 97 190 125 97 191 125 96 192 125 96 193 125 95 194 125 95 195 125 94 196 125 94 197 125 93 198 125 93 199 125 92 200 125 92 201 125 91 202 125 91 203 125 90 204 125 90 205 125 89 206 125 89 207 125 88 208 125 88 209 125 87 210 125 87 211 125 86 212 125 86 213 125 85 214 125 85 215 125 84 216 125 84 217 125 83 218 125 83 219 125 82 220 125 82 221 125 81 222 125 81 223 125 80 224 125 80 225 125 79 226 125 79 227 125 78 228 125 78 229 125 77 230 125 77 231 125 76 232 125 76 233 125 75 234 125 75 235 125 74 236 125 74 237 125 73 238 125 73 239 125 72 240 125 72 241 125 71 242 125 71 243 125 70 244 125 70 245 125 69 246 125 69 247 125 68 248 125 68 249 125 67 250 125 67 251 125 66 252 125 66 253 125 65 254 125 65 
0 126 191 0 126 191 1 126 190 2 126 190 3 126 189 4 126 189 5 126 188 6 126 188 7 126 187 8 126 187 9 126 186 10 126 186 11 126 185 12 126 185 13 126 184 14 126 184 15 126 183 16 126 183 17 126 182 18 126 182 19 126 181 20 126 181 21 126 180 22 126 180 23 126 179 24 126 179 25 126 178 26 126 178 27 126 177 28 126 177 29 126 176 30 126 176 31 126 175 32 126 175 33 126 174 34 126 174 35 126 173 36 126 173 37 126 172 38 126 172 39 126 171 40 126 171 41 126 170 42 126 170 43 126 169 44 126 169 45 126 168 46 126 168 47 126 167 48 126 167 49 126 166 50 126 166 51 126 165 52 126 165 53 126 164 54 126 164 55 126 163 56 126 163 57 126 162 58 126 162 59 126 161 60 126 161 61 126 160 62 126 160 63 126 159 64 126 159 65 126 158 66 126 158 67 126 157 68 126 157 69 126 156 70 126 156 71 126 155 72 126 155 73 126 154 74 126 154 75 126 153 76 126 153 77 126 152 78 126 152 79 126 151 80 126 151 81 126 150 82 126 150 83 126 149 84 126 149 85 126 148 86 126 148 87 126 147 88 126 147 89 126 146 90 126 146 91 126 145 92 126 145 93 126 144 94 126 144 95 126 143 96 126 143 97 126 142 98 126 142 99 126 141 100 126 141 101 126 140 102 126 140 103 126 139 104 126 139 105 126 138 106 126 138 107 126 137 108 126 137 109 126 136 110 126 136 111 126 135 112 126 135 113 126 134 114 126 134 115 126 133 116 126 133 117 126 132 118 126 132 119 126 131 120 126 131 121 126 130 122 126 130 123 126 129 124 126 129 125 126 128 126 126 128 127 126 127 128 126 127 129 126 127 130 126 126 131 126 126 132 126 125 133 126 125 134 126 124 135 126 124 136 126 123 137 126 123 138 126 122 139 126 122 140 126 121 141 126 121 142 126 120 143 126 120 144 126 119 145 126 119 146 126 118 147 126 118 148 126 117 149 126 117 150 126 116 151 126 116 152 126 115 153 126 115 154 126 114 155 126 114 156 126 113 157 126 113 158 126 112 159 126 112 160 126 111 161 126 111 162 126 110 163 126 110 164 126 109 165 126 109 166 126 108 167 126 108 168 126 107 169 126 107 170 126 106 171 126 106 172 126 105 173 126 105 174 126 104 175 126 104 176 126 103 177 126 103 178 126 102 179 126 102 180 126 101 181 126 101 182 126 100 183 126 100 184 126 99 185 126 99 186 126 98 187 126 98 188 126 97 189 126 97 190 126 96 191 126 96 192 126 95 193 126 95 194 126 94 195 126 94 196 126 93 197 126 93 198 126 92 199 126 92 200 126 91 201 126 91 202 126 90 203 126 90 204 126 89 205 126 89 206 126 88 207 126 88 208 126 87 209 126 87 210 126 86 211 126 86 212 126 85 213 126 85 214 126 84 215 126 84 216 126 83 217 126 83 218 126 82 219 126 82 220 126 81 221 126 81 222 126 80 223 126 80 224 126 79 225 126 79 226 126 78 227 126 78 228 126 77 229 126 77 230 126 76 231 126 76 232 126 75 233 126 75 234 126 74 235 126 74 236 126 73 237 126 73 238 126 72 239 126 72 240 126 71 241 126 71 242 126 70 243 126 70 244 126 69 245 126 69 246 126 68 247 126 68 248 126 67 249 126 67 250 126 66 251 126 66 252 126 65 253 126 65 254 126 64 
0 127 191 0 127 190 1 127 190 2 127 189 3 127 189 4 127 188 5 127 188 6 127 187 7 127 187 8 127 186 9 127 186 10 127 185 11 127 185 12 127 184 13 127 184 14 127 183 15 127 183 16 127 182 17 127 182 18 127 181 19 127 181 20 127 180 21 127 180 22 127 179 23 127 179 24 127 178 25 127 178 26 127 177 27 127 177 28 127 176 29 127 176 30 127 175 31 127 175 32 127 174 33 127 174 34 127 173 35 127 173 36 127 172 37 127 172 38 127 171 39 127 171 40 127 170 41 127 170 42 127 169 43 127 169 44 127 168 45 127 168 46 127 167 47 127 167 48 127 166 49 127 166 50 127 165 51 127 165 52 127 164 53 127 164 54 127 163 55 127 163 56 127 162 57 127 162 58 127 161 59 127 161 60 127 160 61 127 160 62 127 159 63 127 159 64 127 158 65 127 158 66 127 157 67 127 157 68 127 156 69 127 156 70 127 155 71 127 155 72 127 154 73 127 154 74 127 153 75 127 153 76 127 152 77 127 152 78 127 151 79 127 151 80 127 150 81 127 150 82 127 149 83 127 149 84 127 148 85 127 148 86 127 147 87 127 147 88 127 146 89 127 146 90 127 145 91 127 145 92 127 144 93 127 144 94 127 143 95 127 143 96 127 142 97 127 142 98 127 141 99 127 141 100 127 140 101 127 140 102 127 139 103 127 139 104 127 138 105 127 138 106 127 137 107 127 137 108 127 136 109 127 136 110 127 135 111 127 135 112 127 134 113 127 134 114 127 133 115 127 133 116 127 132 117 127 132 118 127 131 119 127 131 120 127 130 121 127 130 122 127 129 123 127 129 124 127 128 125 127 128 126 127 127 127 127 127 128 127 127 129 127 126 130 127 126 131 127 125 132 127 125 133 127 124 134 127 124 135 127 123 136 127 123 137 127 122 138 127 122 139 127 121 140 127 121 141 127 120 142 127 120 143 127 119 144 127 119 145 127 118 146 127 118 147 127 117 148 127 117 149 127 116 150 127 116 151 127 115 152 127 115 153 127 114 154 127 114 155 127 113 156 127 113 157 127 112 158 127 112 159 127 111 160 127 111 161 127 110 162 127 110 163 127 109 164 127 109 165 127 108 166 127 108 167 127 107 168 127 107 169 127 106 170 127 106 171 127 105 172 127 105 173 127 104 174 127 104 175 127 103 176 127 103 177 127 102 178 127 102 179 127 101 180 127 101 181 127 100 182 127 100 183 127 99 184 127 99 185 127 98 186 127 98 187 127 97 188 127 97 189 127 96 190 127 96 191 127 95 192 127 95 193 127 94 194 127 94 195 127 93 196 127 93 197 127 92 198 127 92 199 127 91 200 127 91 201 127 90 202 127 90 203 127 89 204 127 89 205 127 88 206 127 88 207 127 87 208 127 87 209 127 86 210 127 86 211 127 85 212 127 85 213 127 84 214 127 84 215 127 83 216 127 83 217 127 82 218 127 82 219 127 81 220 127 81 221 127 80 222 127 80 223 127 79 224 127 79 225 127 78 226 127 78 227 127 77 228 127 77 229 127 76 230 127 76 231 127 75 232 127 75 233 127 74 234 127 74 235 127 73 236 127 73 237 127 72 238 127 72 239 127 71 240 127 71 241 127 70 242 127 70 243 127 69 244 127 69 245 127 68 246 127 68 247 127 67 248 127 67 249 127 66 250 127 66 251 127 65 252 127 65 253 127 64 254 127 64 
0 128 190 0 128 190 1 128 189 2 128 189 3 128 188 4 128 188 5 128 187 6 128 187 7 128 186 8 128 186 9 128 185 10 128 185 11 128 184 12 128 184 13 128 183 14 128 183 15 128 182 16 128 182 17 128 181 18 128 181 19 128 180 20 128 180 21 128 179 22 128 179 23 128 178 24 128 178 25 128 177 26 128 177 27 128 176 28 128 176 29 128 175 30 128 175 31 128 174 32 128 174 33 128 173 34 128 173 35 128 172 36 128 172 37 128 171 38 128 171 39 128 170 40 128 170 41 128 169 42 128 169 43 128 168 44 128 168 45 128 167 46 128 167 47 128 166 48 128 166 49 128 165 50 128 165 51 128 164 52 128 164 53 128 163 54 128 163 55 128 162 56 128 162 57 128 161 58 128 161 59 128 160 60 128 160 61 128 159 62 128 159 63 128 158 64 128 158 65 128 157 66 128 157 67 128 156 68 128 156 69 128 155 70 128 155 71 128 154 72 128 154 73 128 153 74 128 153 75 128 152 76 128 152 77 128 151 78 128 151 79 128 150 80 128 150 81 128 149 82 128 149 83 128 148 84 128 148 85 128 147 86 128 147 87 128 146 88 128 146 89 128 145 90 128 145 91 128 144 92 128 144 93 128 143 94 128 143 95 128 142 96 128 142 97 128 141 98 128 141 99 128 140 100 128 140 101 128 139 102 128 139 103 128 138 104 128 138 105 128 137 106 128 137 107 128 136 108 128 136 109 128 135 110 128 135 111 128 134 112 128 134 113 128 133 114 128 133 115 128 132 116 128 132 117 128 131 118 128 131 119 128 130 120 128 130 121 128 129 122 128 129 123 128 128 124 128 128 125 128 127 126 128 127 127 128 127 128 128 126 129 128 126 130 128 125 131 128 125 132 128 124 133 128 124 134 128 123 135 128 123 136 128 122 137 128 122 138 128 121 139 128 121 140 128 120 141 128 120 142 128 119 143 128 119 144 128 118 145 128 118 146 128 117 147 128 117 148 128 116 149 128 116 150 128 115 151 128 115 152 128 114 153 128 114 154 128 113 155 128 113 156 128 112 157 128 112 158 128 111 159 128 111 160 128 110 161 128 110 162 128 109 163 128 109 164 128 108 165 128 108 166 128 107 167 128 107 168 128 106 169 128 106 170 128 105 171 128 105 172 128 104 173 128 104 174 128 103 175 128 103 176 128 102 177 128 102 178 128 101 179 128 101 180 128 100 181 128 100 182 128 99 183 128 99 184 128 98 185 128 98 186 128 97 187 128 97 188 128 96 189 128 96 190 128 95 191 128 95 192 128 94 193 128 94 194 128 93 195 128 93 196 128 92 197 128 92 198 128 91 199 128 91 200 128 90 201 128 90 202 128 89 203 128 89 204 128 88 205 128 88 206 128 87 207 128 87 208 128 86 209 128 86 210 128 85 211 128 85 212 128 84 213 128 84 214 128 83 215 128 83 216 128 82 217 128 82 218 128 81 219 128 81 220 128 80 221 128 80 222 128 79 223 128 79 224 128 78 225 128 78 226 128 77 227 128 77 228 128 76 229 128 76 230 128 75 231 128 75 232 128 74 233 128 74 234 128 73 235 128 73 236 128 72 237 128 72 238 128 71 239 128 71 240 128 70 241 128 70 242 128 69 243 128 69 244 128 68 245 128 68 246 128 67 247 128 67 248 128 66 249 128 66 250 128 65 251 128 65 252 128 64 253 128 64 254 128 63 
0 129 190 0 129 189 1 129 189 2 129 188 3 129 188 4 129 187 5 129 187 6 129 186 7 129 186 8 129 185 9 129 185 10 129 184 11 129 184 12 129 183 13 129 183 14 129 182 15 129 182 16 129 181 17 129 181 18 129 180 19 129 180 20 129 179 21 129 179 22 129 178 23 129 178 24 129 177 25 129 177 26 129 176 27 129 176 28 129 175 29 129 175 30 129 174 31 129 174 32 129 173 33 129 173 34 129 172 35 129 172 36 129 171 37 129 171 38 129 170 39 129 170 40 129 169 41 129 169 42 129 168 43 129 168 44 129 167 45 129 167 46 129 166 47 129 166 48 129 165 49 129 165 50 129 164 51 129 164 52 129 163 53 129 163 54 129 162 55 129 162 56 129 161 57 129 161 58 129 160 59 129 160 60 129 159 61 129 159 62 129 158 63 129 158 64 129 157 65 129 157 66 129 156 67 129 156 68 129 155 69 129 155 70 129 154 71 129 154 72 129 153 73 129 153 74 129 152 75 129 152 76 129 151 77 129 151 78 129 150 79 129 150 80 129 149 81 129 149 82 129 148 83 129 148 84 129 147 85 129 147 86 129 146 87 129 146 88 129 145 89 129 145 90 129 144 91 129 144 92 129 143 93 129 143 94 129 142 95 129 142 96 129 141 97 129 141 98 129 140 99 129 140 100 129 139 101 129 139 102 129 138 103 129 138 104 129 137 105 129 137 106 129 136 107 129 136 108 129 135 109 129 135 110 129 134 111 129 134 112 129 133 113 129 133 114 129 132 115 129 132 116 129 131 117 129 131 118 129 130 119 129 130 120 129 129 121 129 129 122 129 128 123 129 128 124 129 127 125 129 127 126 129 127 127 129 126 128 129 126 129 129 125 130 129 125 131 129 124 132 129 124 133 129 123 134 129 123 135 129 122 136 129 122 137 129 121 138 129 121 139 129 120 140 129 120 141 129 119 142 129 119 143 129 118 144 129 118 145 129 117 146 129 117 147 129 116 148 129 116 149 129 115 150 129 115 151 129 114 152 129 114 153 129 113 154 129 113 155 129 112 156 129 112 157 129 111 158 129 111 159 129 110 160 129 110 161 129 109 162 129 109 163 129 108 164 129 108 165 129 107 166 129 107 167 129 106 168 129 106 169 129 105 170 129 105 171 129 104 172 129 104 173 129 103 174 129 103 175 129 102 176 129 102 177 129 101 178 129 101 179 129 100 180 129 100 181 129 99 182 129 99 183 129 98 184 129 98 185 129 97 186 129 97 187 129 96 188 129 96 189 129 95 190 129 95 191 129 94 192 129 94 193 129 93 194 129 93 195 129 92 196 129 92 197 129 91 198 129 91 199 129 90 200 129 90 201 129 89 202 129 89 203 129 88 204 129 88 205 129 87 206 129 87 207 129 86 208 129 86 209 129 85 210 129 85 211 129 84 212 129 84 213 129 83 214 129 83 215 129 82 216 129 82 217 129 81 218 129 81 219 129 80 220 129 80 221 129 79 222 129 79 223 129 78 224 129 78 225 129 77 226 129 77 227 129 76 228 129 76 229 129 75 230 129 75 231 129 74 232 129 74 233 129 73 234 129 73 235 129 72 236 129 72 237 129 71 238 129 71 239 129 70 240 129 70 241 129 69 242 129 69 243 129 68 244 129 68 245 129 67 246 129 67 247 129 66 248 129 66 249 129 65 250 129 65 251 129 64 252 129 64 253 129 63 254 129 63 
0 130 189 0 130 189 1 130 188 2 130 188 3 130 187 4 130 187 5 130 186 6 130 186 7 130 185 8 130 185 9 130 184 10 130 184 11 130 183 12 130 183 13 130 182 14 130 182 15 130 181 16 130 181 17 130 180 18 130 180 19 130 179 20 130 179 21 130 178 22 130 178 23 130 177 24 130 177 25 130 176 26 130 176 27 130 175 28 130 175 29 130 174 30 130 174 31 130 173 32 130 173 33 130 172 34 130 172 35 130 171 36 130 171 37 130 170 38 130 170 39 130 169 40 130 169 41 130 168 42 130 168 43 130 167 44 130 167 45 130 166 46 130 166 47 130 165 48 130 165 49 130 164 50 130 164 51 130 163 52 130 163 53 130 162 54 130 162 55 130 161 56 130 161 57 130 160 58 130 160 59 130 159 60 130 159 61 130 158 62 130 158 63 130 157 64 130 157 65 130 156 66 130 156 67 130 155 68 130 155 69 130 154 70 130 154 71 130 153 72 130 153 73 130 152 74 130 152 75 130 151 76 130 151 77 130 150 78 130 150 79 130 149 80 130 149 81 130 148 82 130 148 83 130 147 84 130 147 85 130 146 86 130 146 87 130 145 88 130 145 89 130 144 90 130 144 91 130 143 92 130 143 93 130 142 94 130 142 95 130 141 96 130 141 97 130 140 98 130 140 99 130 139 100 130 139 101 130 138 102 130 138 103 130 137 104 130 137 105 130 136 106 130 136 107 130 135 108 130 135 109 130 134 110 130 134 111 130 133 112 130 133 113 130 132 114 130 132 115 130 131 116 130 131 117 130 130 118 130 130 119 130 129 120 130 129 121 130 128 122 130 128 123 130 127 124 130 127 125 130 127 126 130 126 127 130 126 128 130 125 129 130 125 130 130 124 131 130 124 132 130 123 133 130 123 134 130 122 135 130 122 136 130 121 137 130 121 138 130 120 139 130 120 140 130 119 141 130 119 142 130 118 143 130 118 144 130 117 145 130 117 146 130 116 147 130 116 148 130 115 149 130 115 150 130 114 151 130 114 152 130 113 153 130 113 154 130 112 155 130 112 156 130 111 157 130 111 158 130 110 159 130 110 160 130 109 161 130 109 162 130 108 163 130 108 164 130 107 165 130 107 166 130 106 167 130 106 168 130 105 169 130 105 170 130 104 171 130 104 172 130 103 173 130 103 174 130 102 175 130 102 176 130 101 177 130 101 178 130 100 179 130 100 180 130 99 181 130 99 182 130 98 183 130 98 184 130 97 185 130 97 186 130 96 187 130 96 188 130 95 189 130 95 190 130 94 191 130 94 192 130 93 193 130 93 194 130 92 195 130 92 196 130 91 197 130 91 198 130 90 199 130 90 200 130 89 201 130 89 202 130 88 203 130 88 204 130 87 205 130 87 206 130 86 207 130 86 208 130 85 209 130 85 210 130 84 211 130 84 212 130 83 213 130 83 214 130 82 215 130 82 216 130 81 217 130 81 218 130 80 219 130 80 220 130 79 221 130 79 222 130 78 223 130 78 224 130 77 225 130 77 226 130 76 227 130 76 228 130 75 229 130 75 230 130 74 231 130 74 232 130 73 233 130 73 234 130 72 235 130 72 236 130 71 237 130 71 238 130 70 239 130 70 240 130 69 241 130 69 242 130 68 243 130 68 244 130 67 245 130 67 246 130 66 247 130 66 248 130 65 249 130 65 250 130 64 251 130 64 252 130 63 253 130 63 254 130 62 
0 131 189 0 131 188 1 131 188 2 131 187 3 131 187 4 131 186 5 131 186 6 131 185 7 131 185 8 131 184 9 131 184 10 131 183 11 131 183 12 131 182 13 131 182 14 131 181 15 131 181 16 131 180 17 131 180 18 131 179 19 131 179 20 131 178 21 131 178 22 131 177 23 131 177 24 131 176 25 131 176 26 131 175 27 131 175 28 131 174 29 131 174 30 131 173 31 131 173 32 131 172 33 131 172 34 131 171 35 131 171 36 131 170 37 131 170 38 131 169 39 131 169 40 131 168 41 131 168 42 131 167 43 131 167 44 131 166 45 131 166 46 131 165 47 131 165 48 131 164 49 131 164 50 131 163 51 131 163 52 131 162 53 131 162 54 131 161 55 131 161 56 131 160 57 131 160 58 131 159 59 131 159 60 131 158 61 131 158 62 131 157 63 131 157 64 131 156 65 131 156 66 131 155 67 131 155 68 131 154 69 131 154 70 131 153 71 131 153 72 131 152 73 131 152 74 131 151 75 131 151 76 131 150 77 131 150 78 131 149 79 131 149 80 131 148 81 131 148 82 131 147 83 131 147 84 131 146 85 131 146 86 131 145 87 131 145 88 131 144 89 131 144 90 131 143 91 131 143 92 131 142 93 131 142 94 131 141 95 131 141 96 131 140 97 131 140 98 131 139 99 131 139 100 131 138 101 131 138 102 131 137 103 131 137 104 131 136 105 131 136 106 131 135 107 131 135 108 131 134 109 131 134 110 131 133 111 131 133 112 131 132 113 131 132 114 131 131 115 131 131 116 131 130 117 131 130 118 131 129 119 131 129 120 131 128 121 131 128 122 131 127 123 131 127 124 131 127 125 131 126 126 131 126 127 131 125 128 131 125 129 131 124 130 131 124 131 131 123 132 131 123 133 131 122 134 131 122 135 131 121 136 131 121 137 131 120 138 131 120 139 131 119 140 131 119 141 131 118 142 131 118 143 131 117 144 131 117 145 131 116 146 131 116 147 131 115 148 131 115 149 131 114 150 131 114 151 131 113 152 131 113 153 131 112 154 131 112 155 131 111 156 131 111 157 131 110 158 131 110 159 131 109 160 131 109 161 131 108 162 131 108 163 131 107 164 131 107 165 131 106 166 131 106 167 131 105 168 131 105 169 131 104 170 131 104 171 131 103 172 131 103 173 131 102 174 131 102 175 131 101 176 131 101 177 131 100 178 131 100 179 131 99 180 131 99 181 131 98 182 131 98 183 131 97 184 131 97 185 131 96 186 131 96 187 131 95 188 131 95 189 131 94 190 131 94 191 131 93 192 131 93 193 131 92 194 131 92 195 131 91 196 131 91 197 131 90 198 131 90 199 131 89 200 131 89 201 131 88 202 131 88 203 131 87 204 131 87 205 131 86 206 131 86 207 131 85 208 131 85 209 131 84 210 131 84 211 131 83 212 131 83 213 131 82 214 131 82 215 131 81 216 131 81 217 131 80 218 131 80 219 131 79 220 131 79 221 131 78 222 131 78 223 131 77 224 131 77 225 131 76 226 131 76 227 131 75 228 131 75 229 131 74 230 131 74 231 131 73 232 131 73 233 131 72 234 131 72 235 131 71 236 131 71 237 131 70 238 131 70 239 131 69 240 131 69 241 131 68 242 131 68 243 131 67 244 131 67 245 131 66 246 131 66 247 131 65 248 131 65 249 131 64 250 131 64 251 131 63 252 131 63 253 131 62 254 131 62 
0 132 188 0 132 188 1 132 187 2 132 187 3 132 186 4 132 186 5 132 185 6 132 185 7 132 184 8 132 184 9 132 183 10 132 183 11 132 182 12 132 182 13 132 181 14 132 181 15 132 180 16 132 180 17 132 179 18 132 179 19 132 178 20 132 178 21 132 177 22 132 177 23 132 176 24 132 176 25 132 175 26 132 175 27 132 174 28 132 174 29 132 173 30 132 173 31 132 172 32 132 172 33 132 171 34 132 171 35 132 170 36 132 170 37 132 169 38 132 169 39 132 168 40 132 168 41 132 167 42 132 167 43 132 166 44 132 166 45 132 165 46 132 165 47 132 164 48 132 164 49 132 163 50 132 163 51 132 162 52 132 162 53 132 161 54 132 161 55 132 160 56 132 160 57 132 159 58 132 159 59 132 158 60 132 158 61 132 157 62 132 157 63 132 156 64 132 156 65 132 155 66 132 155 67 132 154 68 132 154 69 132 153 70 132 153 71 132 152 72 132 152 73 132 151 74 132 151 75 132 150 76 132 150 77 132 149 78 132 149 79 132 148 80 132 148 81 132 147 82 132 147 83 132 146 84 132 146 85 132 145 86 132 145 87 132 144 88 132 144 89 132 143 90 132 143 91 132 142 92 132 142 93 132 141 94 132 141 95 132 140 96 132 140 97 132 139 98 132 139 99 132 138 100 132 138 101 132 137 102 132 137 103 132 136 104 132 136 105 132 135 106 132 135 107 132 134 108 132 134 109 132 133 110 132 133 111 132 132 112 132 132 113 132 131 114 132 131 115 132 130 116 132 130 117 132 129 118 132 129 119 132 128 120 132 128 121 132 127 122 132 127 123 132 127 124 132 126 125 132 126 126 132 125 127 132 125 128 132 124 129 132 124 130 132 123 131 132 123 132 132 122 133 132 122 134 132 121 135 132 121 136 132 120 137 132 120 138 132 119 139 132 119 140 132 118 141 132 118 142 132 117 143 132 117 144 132 116 145 132 116 146 132 115 147 132 115 148 132 114 149 132 114 150 132 113 151 132 113 152 132 112 153 132 112 154 132 111 155 132 111 156 132 110 157 132 110 158 132 109 159 132 109 160 132 108 161 132 108 162 132 107 163 132 107 164 132 106 165 132 106 166 132 105 167 132 105 168 132 104 169 132 104 170 132 103 171 132 103 172 132 102 173 132 102 174 132 101 175 132 101 176 132 100 177 132 100 178 132 99 179 132 99 180 132 98 181 132 98 182 132 97 183 132 97 184 132 96 185 132 96 186 132 95 187 132 95 188 132 94 189 132 94 190 132 93 191 132 93 192 132 92 193 132 92 194 132 91 195 132 91 196 132 90 197 132 90 198 132 89 199 132 89 200 132 88 201 132 88 202 132 87 203 132 87 204 132 86 205 132 86 206 132 85 207 132 85 208 132 84 209 132 84 210 132 83 211 132 83 212 132 82 213 132 82 214 132 81 215 132 81 216 132 80 217 132 80 218 132 79 219 132 79 220 132 78 221 132 78 222 132 77 223 132 77 224 132 76 225 132 76 226 132 75 227 132 75 228 132 74 229 132 74 230 132 73 231 132 73 232 132 72 233 132 72 234 132 71 235 132 71 236 132 70 237 132 70 238 132 69 239 132 69 240 132 68 241 132 68 242 132 67 243 132 67 244 132 66 245 132 66 246 132 65 247 132 65 248 132 64 249 132 64 250 132 63 251 132 63 252 132 62 253 132 62 254 132 61 
0 133 188 0 133 187 1 133 187 2 133 186 3 133 186 4 133 185 5 133 185 6 133 184 7 133 184 8 133 183 9 133 183 10 133 182 11 133 182 12 133 181 13 133 181 14 133 180 15 133 180 16 133 179 17 133 179 18 133 178 19 133 178 20 133 177 21 133 177 22 133 176 23 133 176 24 133 175 25 133 175 26 133 174 27 133 174 28 133 173 29 133 173 30 133 172 31 133 172 32 133 171 33 133 171 34 133 170 35 133 170 36 133 169 37 133 169 38 133 168 39 133 168 40 133 167 41 133 167 42 133 166 43 133 166 44 133 165 45 133 165 46 133 164 47 133 164 48 133 163 49 133 163 50 133 162 51 133 162 52 133 161 53 133 161 54 133 160 55 133 160 56 133 159 57 133 159 58 133 158 59 133 158 60 133 157 61 133 157 62 133 156 63 133 156 64 133 155 65 133 155 66 133 154 67 133 154 68 133 153 69 133 153 70 133 152 71 133 152 72 133 151 73 133 151 74 133 150 75 133 150 76 133 149 77 133 149 78 133 148 79 133 148 80 133 147 81 133 147 82 133 146 83 133 146 84 133 145 85 133 145 86 133 144 87 133 144 88 133 143 89 133 143 90 133 142 91 133 142 92 133 141 93 133 141 94 133 140 95 133 140 96 133 139 97 133 139 98 133 138 99 133 138 100 133 137 101 133 137 102 133 136 103 133 136 104 133 135 105 133 135 106 133 134 107 133 134 108 133 133 109 133 133 110 133 132 111 133 132 112 133 131 113 133 131 114 133 130 115 133 130 116 133 129 117 133 129 118 133 128 119 133 128 120 133 127 121 133 127 122 133 127 123 133 126 124 133 126 125 133 125 126 133 125 127 133 124 128 133 124 129 133 123 130 133 123 131 133 122 132 133 122 133 133 121 134 133 121 135 133 120 136 133 120 137 133 119 138 133 119 139 133 118 140 133 118 141 133 117 142 133 117 143 133 116 144 133 116 145 133 115 146 133 115 147 133 114 148 133 114 149 133 113 150 133 113 151 133 112 152 133 112 153 133 111 154 133 111 155 133 110 156 133 110 157 133 109 158 133 109 159 133 108 160 133 108 161 133 107 162 133 107 163 133 106 164 133 106 165 133 105 166 133 105 167 133 104 168 133 104 169 133 103 170 133 103 171 133 102 172 133 102 173 133 101 174 133 101 175 133 100 176 133 100 177 133 99 178 133 99 179 133 98 180 133 98 181 133 97 182 133 97 183 133 96 184 133 96 185 133 95 186 133 95 187 133 94 188 133 94 189 133 93 190 133 93 191 133 92 192 133 92 193 133 91 194 133 91 195 133 90 196 133 90 197 133 89 198 133 89 199 133 88 200 133 88 201 133 87 202 133 87 203 133 86 204 133 86 205 133 85 206 133 85 207 133 84 208 133 84 209 133 83 210 133 83 211 133 82 212 133 82 213 133 81 214 133 81 215 133 80 216 133 80 217 133 79 218 133 79 219 133 78 220 133 78 221 133 77 222 133 77 223 133 76 224 133 76 225 133 75 226 133 75 227 133 74 228 133 74 229 133 73 230 133 73 231 133 72 232 133 72 233 133 71 234 133 71 235 133 70 236 133 70 237 133 69 238 133 69 239 133 68 240 133 68 241 133 67 242 133 67 243 133 66 244 133 66 245 133 65 246 133 65 247 133 64 248 133 64 249 133 63 250 133 63 251 133 62 252 133 62 253 133 61 254 133 61 
0 134 187 0 134 187 1 134 186 2 134 186 3 134 185 4 134 185 5 134 184 6 134 184 7 134 183 8 134 183 9 134 182 10 134 182 11 134 181 12 134 181 13 134 180 14 134 180 15 134 179 16 134 179 17 134 178 18 134 178 19 134 177 20 134 177 21 134 176 22 134 176 23 134 175 24 134 175 25 134 174 26 134 174 27 134 173 28 134 173 29 134 172 30 134 172 31 134 171 32 134 171 33 134 170 34 134 170 35 134 169 36 134 169 37 134 168 38 134 168 39 134 167 40 134 167 41 134 166 42 134 166 43 134 165 44 134 165 45 134 164 46 134 164 47 134 163 48 134 163 49 134 162 50 134 162 51 134 161 52 134 161 53 134 160 54 134 160 55 134 159 56 134 159 57 134 158 58 134 158 59 134 157 60 134 157 61 134 156 62 134 156 63 134 155 64 134 155 65 134 154 66 134 154 67 134 153 68 134 153 69 134 152 70 134 152 71 134 151 72 134 151 73 134 150 74 134 150 75 134 149 76 134 149 77 134 148 78 134 148 79 134 147 80 134 147 81 134 146 82 134 146 83 134 145 84 134 145 85 134 144 86 134 144 87 134 143 88 134 143 89 134 142 90 134 142 91 134 141 92 134 141 93 134 140 94 134 140 95 134 139 96 134 139 97 134 138 98 134 138 99 134 137 100 134 137 101 134 136 102 134 136 103 134 135 104 134 135 105 134 134 106 134 134 107 134 133 108 134 133 109 134 132 110 134 132 111 134 131 112 134 131 113 134 130 114 134 130 115 134 129 116 134 129 117 134 128 118 134 128 119 134 127 120 134 127 121 134 127 122 134 126 123 134 126 124 134 125 125 134 125 126 134 124 127 134 124 128 134 123 129 134 123 130 134 122 131 134 122 132 134 121 133 134 121 134 134 120 135 134 120 136 134 119 137 134 119 138 134 118 139 134 118 140 134 117 141 134 117 142 134 116 143 134 116 144 134 115 145 134 115 146 134 114 147 134 114 148 134 113 149 134 113 150 134 112 151 134 112 152 134 111 153 134 111 154 134 110 155 134 110 156 134 109 157 134 109 158 134 108 159 134 108 160 134 107 161 134 107 162 134 106 163 134 106 164 134 105 165 134 105 166 134 104 167 134 104 168 134 103 169 134 103 170 134 102 171 134 102 172 134 101 173 134 101 174 134 100 175 134 100 176 134 99 177 134 99 178 134 98 179 134 98 180 134 97 181 134 97 182 134 96 183 134 96 184 134 95 185 134 95 186 134 94 187 134 94 188 134 93 189 134 93 190 134 92 191 134 92 192 134 91 193 134 91 194 134 90 195 134 90 196 134 89 197 134 89 198 134 88 199 134 88 200 134 87 201 134 87 202 134 86 203 134 86 204 134 85 205 134 85 206 134 84 207 134 84 208 134 83 209 134 83 210 134 82 211 134 82 212 134 81 213 134 81 214 134 80 215 134 80 216 134 79 217 134 79 218 134 78 219 134 78 220 134 77 221 134 77 222 134 76 223 134 76 224 134 75 225 134 75 226 134 74 227 134 74 228 134 73 229 134 73 230 134 72 231 134 72 232 134 71 233 134 71 234 134 70 235 134 70 236 134 69 237 134 69 238 134 68 239 134 68 240 134 67 241 134 67 242 134 66 243 134 66 244 134 65 245 134 65 246 134 64 247 134 64 248 134 63 249 134 63 250 134 62 251 134 62 252 134 61 253 134 61 254 134 60 
0 135 187 0 135 186 1 135 186 2 135 185 3 135 185 4 135 184 5 135 184 6 135 183 7 135 183 8 135 182 9 135 182 10 135 181 11 135 181 12 135 180 13 135 180 14 135 179 15 135 179 16 135 178 17 135 178 18 135 177 19 135 177 20 135 176 21 135 176 22 135 175 23 135 175 24 135 174 25 135 174 26 135 173 27 135 173 28 135 172 29 135 172 30 135 171 31 135 171 32 135 170 33 135 170 34 135 169 35 135 169 36 135 168 37 135 168 38 135 167 39 135 167 40 135 166 41 135 166 42 135 165 43 135 165 44 135 164 45 135 164 46 135 163 47 135 163 48 135 162 49 135 162 50 135 161 51 135 161 52 135 160 53 135 160 54 135 159 55 135 159 56 135 158 57 135 158 58 135 157 59 135 157 60 135 156 61 135 156 62 135 155 63 135 155 64 135 154 65 135 154 66 135 153 67 135 153 68 135 152 69 135 152 70 135 151 71 135 151 72 135 150 73 135 150 74 135 149 75 135 149 76 135 148 77 135 148 78 135 147 79 135 147 80 135 146 81 135 146 82 135 145 83 135 145 84 135 144 85 135 144 86 135 143 87 135 143 88 135 142 89 135 142 90 135 141 91 135 141 92 135 140 93 135 140 94 135 139 95 135 139 96 135 138 97 135 138 98 135 137 99 135 137 100 135 136 101 135 136 102 135 135 103 135 135 104 135 134 105 135 134 106 135 133 107 135 133 108 135 132 109 135 132 110 135 131 111 135 131 112 135 130 113 135 130 114 135 129 115 135 129 116 135 128 117 135 128 118 135 127 119 135 127 120 135 127 121 135 126 122 135 126 123 135 125 124 135 125 125 135 124 126 135 124 127 135 123 128 135 123 129 135 122 130 135 122 131 135 121 132 135 121 133 135 120 134 135 120 135 135 119 136 135 119 137 135 118 138 135 118 139 135 117 140 135 117 141 135 116 142 135 116 143 135 115 144 135 115 145 135 114 146 135 114 147 135 113 148 135 113 149 135 112 150 135 112 151 135 111 152 135 111 153 135 110 154 135 110 155 135 109 156 135 109 157 135 108 158 135 108 159 135 107 160 135 107 161 135 106 162 135 106 163 135 105 164 135 105 165 135 104 166 135 104 167 135 103 168 135 103 169 135 102 170 135 102 171 135 101 172 135 101 173 135 100 174 135 100 175 135 99 176 135 99 177 135 98 178 135 98 179 135 97 180 135 97 181 135 96 182 135 96 183 135 95 184 135 95 185 135 94 186 135 94 187 135 93 188 135 93 189 135 92 190 135 92 191 135 91 192 135 91 193 135 90 194 135 90 195 135 89 196 135 89 197 135 88 198 135 88 199 135 87 200 135 87 201 135 86 202 135 86 203 135 85 204 135 85 205 135 84 206 135 84 207 135 83 208 135 83 209 135 82 210 135 82 211 135 81 212 135 81 213 135 80 214 135 80 215 135 79 216 135 79 217 135 78 218 135 78 219 135 77 220 135 77 221 135 76 222 135 76 223 135 75 224 135 75 225 135 74 226 135 74 227 135 73 228 135 73 229 135 72 230 135 72 231 135 71 232 135 71 233 135 70 234 135 70 235 135 69 236 135 69 237 135 68 238 135 68 239 135 67 240 135 67 241 135 66 242 135 66 243 135 65 244 135 65 245 135 64 246 135 64 247 135 63 248 135 63 249 135 62 250 135 62 251 135 61 252 135 61 253 135 60 254 135 60 
0 136 186 0 136 186 1 136 185 2 136 185 3 136 184 4 136 184 5 136 183 6 136 183 7 136 182 8 136 182 9 136 181 10 136 181 11 136 180 12 136 180 13 136 179 14 136 179 15 136 178 16 136 178 17 136 177 18 136 177 19 136 176 20 136 176 21 136 175 22 136 175 23 136 174 24 136 174 25 136 173 26 136 173 27 136 172 28 136 172 29 136 171 30 136 171 31 136 170 32 136 170 33 136 169 34 136 169 35 136 168 36 136 168 37 136 167 38 136 167 39 136 166 40 136 166 41 136 165 42 136 165 43 136 164 44 136 164 45 136 163 46 136 163 47 136 162 48 136 162 49 136 161 50 136 161 51 136 160 52 136 160 53 136 159 54 136 159 55 136 158 56 136 158 57 136 157 58 136 157 59 136 156 60 136 156 61 136 155 62 136 155 63 136 154 64 136 154 65 136 153 66 136 153 67 136 152 68 136 152 69 136 151 70 136 151 71 136 150 72 136 150 73 136 149 74 136 149 75 136 148 76 136 148 77 136 147 78 136 147 79 136 146 80 136 146 81 136 145 82 136 145 83 136 144 84 136 144 85 136 143 86 136 143 87 136 142 88 136 142 89 136 141 90 136 141 91 136 140 92 136 140 93 136 139 94 136 139 95 136 138 96 136 138 97 136 137 98 136 137 99 136 136 100 136 136 101 136 135 102 136 135 103 136 134 104 136 134 105 136 133 106 136 133 107 136 132 108 136 132 109 136 131 110 136 131 111 136 130 112 136 130 113 136 129 114 136 129 115 136 128 116 136 128 117 136 127 118 136 127 119 136 127 120 136 126 121 136 126 122 136 125 123 136 125 124 136 124 125 136 124 126 136 123 127 136 123 128 136 122 129 136 122 130 136 121 131 136 121 132 136 120 133 136 120 134 136 119 135 136 119 136 136 118 137 136 118 138 136 117 139 136 117 140 136 116 141 136 116 142 136 115 143 136 115 144 136 114 145 136 114 146 136 113 147 136 113 148 136 112 149 136 112 150 136 111 151 136 111 152 136 110 153 136 110 154 136 109 155 136 109 156 136 108 157 136 108 158 136 107 159 136 107 160 136 106 161 136 106 162 136 105 163 136 105 164 136 104 165 136 104 166 136 103 167 136 103 168 136 102 169 136 102 170 136 101 171 136 101 172 136 100 173 136 100 174 136 99 175 136 99 176 136 98 177 136 98 178 136 97 179 136 97 180 136 96 181 136 96 182 136 95 183 136 95 184 136 94 185 136 94 186 136 93 187 136 93 188 136 92 189 136 92 190 136 91 191 136 91 192 136 90 193 136 90 194 136 89 195 136 89 196 136 88 197 136 88 198 136 87 199 136 87 200 136 86 201 136 86 202 136 85 203 136 85 204 136 84 205 136 84 206 136 83 207 136 83 208 136 82 209 136 82 210 136 81 211 136 81 212 136 80 213 136 80 214 136 79 215 136 79 216 136 78 217 136 78 218 136 77 219 136 77 220 136 76 221 136 76 222 136 75 223 136 75 224 136 74 225 136 74 226 136 73 227 136 73 228 136 72 229 136 72 230 136 71 231 136 71 232 136 70 233 136 70 234 136 69 235 136 69 236 136 68 237 136 68 238 136 67 239 136 67 240 136 66 241 136 66 242 136 65 243 136 65 244 136 64 245 136 64 246 136 63 247 136 63 248 136 62 249 136 62 250 136 61 251 136 61 252 136 60 253 136 60 254 136 59 
0 137 186 0 137 185 1 137 185 2 137 184 3 137 184 4 137 183 5 137 183 6 137 182 7 137 182 8 137 181 9 137 181 10 137 180 11 137 180 12 137 179 13 137 179 14 137 178 15 137 178 16 137 177 17 137 177 18 137 176 19 137 176 20 137 175 21 137 175 22 137 174 23 137 174 24 137 173 25 137 173 26 137 172 27 137 172 28 137 171 29 137 171 30 137 170 31 137 170 32 137 169 33 137 169 34 137 168 35 137 168 36 137 167 37 137 167 38 137 166 39 137 166 40 137 165 41 137 165 42 137 164 43 137 164 44 137 163 45 137 163 46 137 162 47 137 162 48 137 161 49 137 161 50 137 160 51 137 160 52 137 159 53 137 159 54 137 158 55 137 158 56 137 157 57 137 157 58 137 156 59 137 156 60 137 155 61 137 155 62 137 154 63 137 154 64 137 153 65 137 153 66 137 152 67 137 152 68 137 151 69 137 151 70 137 150 71 137 150 72 137 149 73 137 149 74 137 148 75 137 148 76 137 147 77 137 147 78 137 146 79 137 146 80 137 145 81 137 145 82 137 144 83 137 144 84 137 143 85 137 143 86 137 142 87 137 142 88 137 141 89 137 141 90 137 140 91 137 140 92 137 139 93 137 139 94 137 138 95 137 138 96 137 137 97 137 137 98 137 136 99 137 136 100 137 135 101 137 135 102 137 134 103 137 134 104 137 133 105 137 133 106 137 132 107 137 132 108 137 131 109 137 131 110 137 130 111 137 130 112 137 129 113 137 129 114 137 128 115 137 128 116 137 127 117 137 127 118 137 127 119 137 126 120 137 126 121 137 125 122 137 125 123 137 124 124 137 124 125 137 123 126 137 123 127 137 122 128 137 122 129 137 121 130 137 121 131 137 120 132 137 120 133 137 119 134 137 119 135 137 118 136 137 118 137 137 117 138 137 117 139 137 116 140 137 116 141 137 115 142 137 115 143 137 114 144 137 114 145 137 113 146 137 113 147 137 112 148 137 112 149 137 111 150 137 111 151 137 110 152 137 110 153 137 109 154 137 109 155 137 108 156 137 108 157 137 107 158 137 107 159 137 106 160 137 106 161 137 105 162 137 105 163 137 104 164 137 104 165 137 103 166 137 103 167 137 102 168 137 102 169 137 101 170 137 101 171 137 100 172 137 100 173 137 99 174 137 99 175 137 98 176 137 98 177 137 97 178 137 97 179 137 96 180 137 96 181 137 95 182 137 95 183 137 94 184 137 94 185 137 93 186 137 93 187 137 92 188 137 92 189 137 91 190 137 91 191 137 90 192 137 90 193 137 89 194 137 89 195 137 88 196 137 88 197 137 87 198 137 87 199 137 86 200 137 86 201 137 85 202 137 85 203 137 84 204 137 84 205 137 83 206 137 83 207 137 82 208 137 82 209 137 81 210 137 81 211 137 80 212 137 80 213 137 79 214 137 79 215 137 78 216 137 78 217 137 77 218 137 77 219 137 76 220 137 76 221 137 75 222 137 75 223 137 74 224 137 74 225 137 73 226 137 73 227 137 72 228 137 72 229 137 71 230 137 71 231 137 70 232 137 70 233 137 69 234 137 69 235 137 68 236 137 68 237 137 67 238 137 67 239 137 66 240 137 66 241 137 65 242 137 65 243 137 64 244 137 64 245 137 63 246 137 63 247 137 62 248 137 62 249 137 61 250 137 61 251 137 60 252 137 60 253 137 59 254 137 59 
0 138 185 0 138 185 1 138 184 2 138 184 3 138 183 4 138 183 5 138 182 6 138 182 7 138 181 8 138 181 9 138 180 10 138 180 11 138 179 12 138 179 13 138 178 14 138 178 15 138 177 16 138 177 17 138 176 18 138 176 19 138 175 20 138 175 21 138 174 22 138 174 23 138 173 24 138 173 25 138 172 26 138 172 27 138 171 28 138 171 29 138 170 30 138 170 31 138 169 32 138 169 33 138 168 34 138 168 35 138 167 36 138 167 37 138 166 38 138 166 39 138 165 40 138 165 41 138 164 42 138 164 43 138 163 44 138 163 45 138 162 46 138 162 47 138 161 48 138 161 49 138 160 50 138 160 51 138 159 52 138 159 53 138 158 54 138 158 55 138 157 56 138 157 57 138 156 58 138 156 59 138 155 60 138 155 61 138 154 62 138 154 63 138 153 64 138 153 65 138 152 66 138 152 67 138 151 68 138 151 69 138 150 70 138 150 71 138 149 72 138 149 73 138 148 74 138 148 75 138 147 76 138 147 77 138 146 78 138 146 79 138 145 80 138 145 81 138 144 82 138 144 83 138 143 84 138 143 85 138 142 86 138 142 87 138 141 88 138 141 89 138 140 90 138 140 91 138 139 92 138 139 93 138 138 94 138 138 95 138 137 96 138 137 97 138 136 98 138 136 99 138 135 100 138 135 101 138 134 102 138 134 103 138 133 104 138 133 105 138 132 106 138 132 107 138 131 108 138 131 109 138 130 110 138 130 111 138 129 112 138 129 113 138 128 114 138 128 115 138 127 116 138 127 117 138 127 118 138 126 119 138 126 120 138 125 121 138 125 122 138 124 123 138 124 124 138 123 125 138 123 126 138 122 127 138 122 128 138 121 129 138 121 130 138 120 131 138 120 132 138 119 133 138 119 134 138 118 135 138 118 136 138 117 137 138 117 138 138 116 139 138 116 140 138 115 141 138 115 142 138 114 143 138 114 144 138 113 145 138 113 146 138 112 147 138 112 148 138 111 149 138 111 150 138 110 151 138 110 152 138 109 153 138 109 154 138 108 155 138 108 156 138 107 157 138 107 158 138 106 159 138 106 160 138 105 161 138 105 162 138 104 163 138 104 164 138 103 165 138 103 166 138 102 167 138 102 168 138 101 169 138 101 170 138 100 171 138 100 172 138 99 173 138 99 174 138 98 175 138 98 176 138 97 177 138 97 178 138 96 179 138 96 180 138 95 181 138 95 182 138 94 183 138 94 184 138 93 185 138 93 186 138 92 187 138 92 188 138 91 189 138 91 190 138 90 191 138 90 192 138 89 193 138 89 194 138 88 195 138 88 196 138 87 197 138 87 198 138 86 199 138 86 200 138 85 201 138 85 202 138 84 203 138 84 204 138 83 205 138 83 206 138 82 207 138 82 208 138 81 209 138 81 210 138 80 211 138 80 212 138 79 213 138 79 214 138 78 215 138 78 216 138 77 217 138 77 218 138 76 219 138 76 220 138 75 221 138 75 222 138 74 223 138 74 224 138 73 225 138 73 226 138 72 227 138 72 228 138 71 229 138 71 230 138 70 231 138 70 232 138 69 233 138 69 234 138 68 235 138 68 236 138 67 237 138 67 238 138 66 239 138 66 240 138 65 241 138 65 242 138 64 243 138 64 244 138 63 245 138 63 246 138 62 247 138 62 248 138 61 249 138 61 250 138 60 251 138 60 252 138 59 253 138 59 254 138 58 
0 139 185 0 139 184 1 139 184 2 139 183 3 139 183 4 139 182 5 139 182 6 139 181 7 139 181 8 139 180 9 139 180 10 139 179 11 139 179 12 139 178 13 139 178 14 139 177 15 139 177 16 139 176 17 139 176 18 139 175 19 139 175 20 139 174 21 139 174 22 139 173 23 139 173 24 139 172 25 139 172 26 139 171 27 139 171 28 139 170 29 139 170 30 139 169 31 139 169 32 139 168 33 139 168 34 139 167 35 139 167 36 139 166 37 139 166 38 139 165 39 139 165 40 139 164 41 139 164 42 139 163 43 139 163 44 139 162 45 139 162 46 139 161 47 139 161 48 139 160 49 139 160 50 139 159 51 139 159 52 139 158 53 139 158 54 139 157 55 139 157 56 139 156 57 139 156 58 139 155 59 139 155 60 139 154 61 139 154 62 139 153 63 139 153 64 139 152 65 139 152 66 139 151 67 139 151 68 139 150 69 139 150 70 139 149 71 139 149 72 139 148 73 139 148 74 139 147 75 139 147 76 139 146 77 139 146 78 139 145 79 139 145 80 139 144 81 139 144 82 139 143 83 139 143 84 139 142 85 139 142 86 139 141 87 139 141 88 139 140 89 139 140 90 139 139 91 139 139 92 139 138 93 139 138 94 139 137 95 139 137 96 139 136 97 139 136 98 139 135 99 139 135 100 139 134 101 139 134 102 139 133 103 139 133 104 139 132 105 139 132 106 139 131 107 139 131 108 139 130 109 139 130 110 139 129 111 139 129 112 139 128 113 139 128 114 139 127 115 139 127 116 139 127 117 139 126 118 139 126 119 139 125 120 139 125 121 139 124 122 139 124 123 139 123 124 139 123 125 139 122 126 139 122 127 139 121 128 139 121 129 139 120 130 139 120 131 139 119 132 139 119 133 139 118 134 139 118 135 139 117 136 139 117 137 139 116 138 139 116 139 139 115 140 139 115 141 139 114 142 139 114 143 139 113 144 139 113 145 139 112 146 139 112 147 139 111 148 139 111 149 139 110 150 139 110 151 139 109 152 139 109 153 139 108 154 139 108 155 139 107 156 139 107 157 139 106 158 139 106 159 139 105 160 139 105 161 139 104 162 139 104 163 139 103 164 139 103 165 139 102 166 139 102 167 139 101 168 139 101 169 139 100 170 139 100 171 139 99 172 139 99 173 139 98 174 139 98 175 139 97 176 139 97 177 139 96 178 139 96 179 139 95 180 139 95 181 139 94 182 139 94 183 139 93 184 139 93 185 139 92 186 139 92 187 139 91 188 139 91 189 139 90 190 139 90 191 139 89 192 139 89 193 139 88 194 139 88 195 139 87 196 139 87 197 139 86 198 139 86 199 139 85 200 139 85 201 139 84 202 139 84 203 139 83 204 139 83 205 139 82 206 139 82 207 139 81 208 139 81 209 139 80 210 139 80 211 139 79 212 139 79 213 139 78 214 139 78 215 139 77 216 139 77 217 139 76 218 139 76 219 139 75 220 139 75 221 139 74 222 139 74 223 139 73 224 139 73 225 139 72 226 139 72 227 139 71 228 139 71 229 139 70 230 139 70 231 139 69 232 139 69 233 139 68 234 139 68 235 139 67 236 139 67 237 139 66 238 139 66 239 139 65 240 139 65 241 139 64 242 139 64 243 139 63 244 139 63 245 139 62 246 139 62 247 139 61 248 139 61 249 139 60 250 139 60 251 139 59 252 139 59 253 139 58 254 139 58 
0 140 184 0 140 184 1 140 183 2 140 183 3 140 182 4 140 182 5 140 181 6 140 181 7 140 180 8 140 180 9 140 179 10 140 179 11 140 178 12 140 178 13 140 177 14 140 177 15 140 176 16 140 176 17 140 175 18 140 175 19 140 174 20 140 174 21 140 173 22 140 173 23 140 172 24 140 172 25 140 171 26 140 171 27 140 170 28 140 170 29 140 169 30 140 169 31 140 168 32 140 168 33 140 167 34 140 167 35 140 166 36 140 166 37 140 165 38 140 165 39 140 164 40 140 164 41 140 163 42 140 163 43 140 162 44 140 162 45 140 161 46 140 161 47 140 160 48 140 160 49 140 159 50 140 159 51 140 158 52 140 158 53 140 157 54 140 157 55 140 156 56 140 156 57 140 155 58 140 155 59 140 154 60 140 154 61 140 153 62 140 153 63 140 152 64 140 152 65 140 151 66 140 151 67 140 150 68 140 150 69 140 149 70 140 149 71 140 148 72 140 148 73 140 147 74 140 147 75 140 146 76 140 146 77 140 145 78 140 145 79 140 144 80 140 144 81 140 143 82 140 143 83 140 142 84 140 142 85 140 141 86 140 141 87 140 140 88 140 140 89 140 139 90 140 139 91 140 138 92 140 138 93 140 137 94 140 137 95 140 136 96 140 136 97 140 135 98 140 135 99 140 134 100 140 134 101 140 133 102 140 133 103 140 132 104 140 132 105 140 131 106 140 131 107 140 130 108 140 130 109 140 129 110 140 129 111 140 128 112 140 128 113 140 127 114 140 127 115 140 127 116 140 126 117 140 126 118 140 125 119 140 125 120 140 124 121 140 124 122 140 123 123 140 123 124 140 122 125 140 122 126 140 121 127 140 121 128 140 120 129 140 120 130 140 119 131 140 119 132 140 118 133 140 118 134 140 117 135 140 117 136 140 116 137 140 116 138 140 115 139 140 115 140 140 114 141 140 114 142 140 113 143 140 113 144 140 112 145 140 112 146 140 111 147 140 111 148 140 110 149 140 110 150 140 109 151 140 109 152 140 108 153 140 108 154 140 107 155 140 107 156 140 106 157 140 106 158 140 105 159 140 105 160 140 104 161 140 104 162 140 103 163 140 103 164 140 102 165 140 102 166 140 101 167 140 101 168 140 100 169 140 100 170 140 99 171 140 99 172 140 98 173 140 98 174 140 97 175 140 97 176 140 96 177 140 96 178 140 95 179 140 95 180 140 94 181 140 94 182 140 93 183 140 93 184 140 92 185 140 92 186 140 91 187 140 91 188 140 90 189 140 90 190 140 89 191 140 89 192 140 88 193 140 88 194 140 87 195 140 87 196 140 86 197 140 86 198 140 85 199 140 85 200 140 84 201 140 84 202 140 83 203 140 83 204 140 82 205 140 82 206 140 81 207 140 81 208 140 80 209 140 80 210 140 79 211 140 79 212 140 78 213 140 78 214 140 77 215 140 77 216 140 76 217 140 76 218 140 75 219 140 75 220 140 74 221 140 74 222 140 73 223 140 73 224 140 72 225 140 72 226 140 71 227 140 71 228 140 70 229 140 70 230 140 69 231 140 69 232 140 68 233 140 68 234 140 67 235 140 67 236 140 66 237 140 66 238 140 65 239 140 65 240 140 64 241 140 64 242 140 63 243 140 63 244 140 62 245 140 62 246 140 61 247 140 61 248 140 60 249 140 60 250 140 59 251 140 59 252 140 58 253 140 58 254 140 57 
0 141 184 0 141 183 1 141 183 2 141 182 3 141 182 4 141 181 5 141 181 6 141 180 7 141 180 8 141 179 9 141 179 10 141 178 11 141 178 12 141 177 13 141 177 14 141 176 15 141 176 16 141 175 17 141 175 18 141 174 19 141 174 20 141 173 21 141 173 22 141 172 23 141 172 24 141 171 25 141 171 26 141 170 27 141 170 28 141 169 29 141 169 30 141 168 31 141 168 32 141 167 33 141 167 34 141 166 35 141 166 36 141 165 37 141 165 38 141 164 39 141 164 40 141 163 41 141 163 42 141 162 43 141 162 44 141 161 45 141 161 46 141 160 47 141 160 48 141 159 49 141 159 50 141 158 51 141 158 52 141 157 53 141 157 54 141 156 55 141 156 56 141 155 57 141 155 58 141 154 59 141 154 60 141 153 61 141 153 62 141 152 63 141 152 64 141 151 65 141 151 66 141 150 67 141 150 68 141 149 69 141 149 70 141 148 71 141 148 72 141 147 73 141 147 74 141 146 75 141 146 76 141 145 77 141 145 78 141 144 79 141 144 80 141 143 81 141 143 82 141 142 83 141 142 84 141 141 85 141 141 86 141 140 87 141 140 88 141 139 89 141 139 90 141 138 91 141 138 92 141 137 93 141 137 94 141 136 95 141 136 96 141 135 97 141 135 98 141 134 99 141 134 100 141 133 101 141 133 102 141 132 103 141 132 104 141 131 105 141 131 106 141 130 107 141 130 108 141 129 109 141 129 110 141 128 111 141 128 112 141 127 113 141 127 114 141 127 115 141 126 116 141 126 117 141 125 118 141 125 119 141 124 120 141 124 121 141 123 122 141 123 123 141 122 124 141 122 125 141 121 126 141 121 127 141 120 128 141 120 129 141 119 130 141 119 131 141 118 132 141 118 133 141 117 134 141 117 135 141 116 136 141 116 137 141 115 138 141 115 139 141 114 140 141 114 141 141 113 142 141 113 143 141 112 144 141 112 145 141 111 146 141 111 147 141 110 148 141 110 149 141 109 150 141 109 151 141 108 152 141 108 153 141 107 154 141 107 155 141 106 156 141 106 157 141 105 158 141 105 159 141 104 160 141 104 161 141 103 162 141 103 163 141 102 164 141 102 165 141 101 166 141 101 167 141 100 168 141 100 169 141 99 170 141 99 171 141 98 172 141 98 173 141 97 174 141 97 175 141 96 176 141 96 177 141 95 178 141 95 179 141 94 180 141 94 181 141 93 182 141 93 183 141 92 184 141 92 185 141 91 186 141 91 187 141 90 188 141 90 189 141 89 190 141 89 191 141 88 192 141 88 193 141 87 194 141 87 195 141 86 196 141 86 197 141 85 198 141 85 199 141 84 200 141 84 201 141 83 202 141 83 203 141 82 204 141 82 205 141 81 206 141 81 207 141 80 208 141 80 209 141 79 210 141 79 211 141 78 212 141 78 213 141 77 214 141 77 215 141 76 216 141 76 217 141 75 218 141 75 219 141 74 220 141 74 221 141 73 222 141 73 223 141 72 224 141 72 225 141 71 226 141 71 227 141 70 228 141 70 229 141 69 230 141 69 231 141 68 232 141 68 233 141 67 234 141 67 235 141 66 236 141 66 237 141 65 238 141 65 239 141 64 240 141 64 241 141 63 242 141 63 243 141 62 244 141 62 245 141 61 246 141 61 247 141 60 248 141 60 249 141 59 250 141 59 251 141 58 252 141 58 253 141 57 254 141 57 
0 142 183 0 142 183 1 142 182 2 142 182 3 142 181 4 142 181 5 142 180 6 142 180 7 142 179 8 142 179 9 142 178 10 142 178 11 142 177 12 142 177 13 142 176 14 142 176 15 142 175 16 142 175 17 142 174 18 142 174 19 142 173 20 142 173 21 142 172 22 142 172 23 142 171 24 142 171 25 142 170 26 142 170 27 142 169 28 142 169 29 142 168 30 142 168 31 142 167 32 142 167 33 142 166 34 142 166 35 142 165 36 142 165 37 142 164 38 142 164 39 142 163 40 142 163 41 142 162 42 142 162 43 142 161 44 142 161 45 142 160 46 142 160 47 142 159 48 142 159 49 142 158 50 142 158 51 142 157 52 142 157 53 142 156 54 142 156 55 142 155 56 142 155 57 142 154 58 142 154 59 142 153 60 142 153 61 142 152 62 142 152 63 142 151 64 142 151 65 142 150 66 142 150 67 142 149 68 142 149 69 142 148 70 142 148 71 142 147 72 142 147 73 142 146 74 142 146 75 142 145 76 142 145 77 142 144 78 142 144 79 142 143 80 142 143 81 142 142 82 142 142 83 142 141 84 142 141 85 142 140 86 142 140 87 142 139 88 142 139 89 142 138 90 142 138 91 142 137 92 142 137 93 142 136 94 142 136 95 142 135 96 142 135 97 142 134 98 142 134 99 142 133 100 142 133 101 142 132 102 142 132 103 142 131 104 142 131 105 142 130 106 142 130 107 142 129 108 142 129 109 142 128 110 142 128 111 142 127 112 142 127 113 142 127 114 142 126 115 142 126 116 142 125 117 142 125 118 142 124 119 142 124 120 142 123 121 142 123 122 142 122 123 142 122 124 142 121 125 142 121 126 142 120 127 142 120 128 142 119 129 142 119 130 142 118 131 142 118 132 142 117 133 142 117 134 142 116 135 142 116 136 142 115 137 142 115 138 142 114 139 142 114 140 142 113 141 142 113 142 142 112 143 142 112 144 142 111 145 142 111 146 142 110 147 142 110 148 142 109 149 142 109 150 142 108 151 142 108 152 142 107 153 142 107 154 142 106 155 142 106 156 142 105 157 142 105 158 142 104 159 142 104 160 142 103 161 142 103 162 142 102 163 142 102 164 142 101 165 142 101 166 142 100 167 142 100 168 142 99 169 142 99 170 142 98 171 142 98 172 142 97 173 142 97 174 142 96 175 142 96 176 142 95 177 142 95 178 142 94 179 142 94 180 142 93 181 142 93 182 142 92 183 142 92 184 142 91 185 142 91 186 142 90 187 142 90 188 142 89 189 142 89 190 142 88 191 142 88 192 142 87 193 142 87 194 142 86 195 142 86 196 142 85 197 142 85 198 142 84 199 142 84 200 142 83 201 142 83 202 142 82 203 142 82 204 142 81 205 142 81 206 142 80 207 142 80 208 142 79 209 142 79 210 142 78 211 142 78 212 142 77 213 142 77 214 142 76 215 142 76 216 142 75 217 142 75 218 142 74 219 142 74 220 142 73 221 142 73 222 142 72 223 142 72 224 142 71 225 142 71 226 142 70 227 142 70 228 142 69 229 142 69 230 142 68 231 142 68 232 142 67 233 142 67 234 142 66 235 142 66 236 142 65 237 142 65 238 142 64 239 142 64 240 142 63 241 142 63 242 142 62 243 142 62 244 142 61 245 142 61 246 142 60 247 142 60 248 142 59 249 142 59 250 142 58 251 142 58 252 142 57 253 142 57 254 142 56 
0 143 183 0 143 182 1 143 182 2 143 181 3 143 181 4 143 180 5 143 180 6 143 179 7 143 179 8 143 178 9 143 178 10 143 177 11 143 177 12 143 176 13 143 176 14 143 175 15 143 175 16 143 174 17 143 174 18 143 173 19 143 173 20 143 172 21 143 172 22 143 171 23 143 171 24 143 170 25 143 170 26 143 169 27 143 169 28 143 168 29 143 168 30 143 167 31 143 167 32 143 166 33 143 166 34 143 165 35 143 165 36 143 164 37 143 164 38 143 163 39 143 163 40 143 162 41 143 162 42 143 161 43 143 161 44 143 160 45 143 160 46 143 159 47 143 159 48 143 158 49 143 158 50 143 157 51 143 157 52 143 156 53 143 156 54 143 155 55 143 155 56 143 154 57 143 154 58 143 153 59 143 153 60 143 152 61 143 152 62 143 151 63 143 151 64 143 150 65 143 150 66 143 149 67 143 149 68 143 148 69 143 148 70 143 147 71 143 147 72 143 146 73 143 146 74 143 145 75 143 145 76 143 144 77 143 144 78 143 143 79 143 143 80 143 142 81 143 142 82 143 141 83 143 141 84 143 140 85 143 140 86 143 139 87 143 139 88 143 138 89 143 138 90 143 137 91 143 137 92 143 136 93 143 136 94 143 135 95 143 135 96 143 134 97 143 134 98 143 133 99 143 133 100 143 132 101 143 132 102 143 131 103 143 131 104 143 130 105 143 130 106 143 129 107 143 129 108 143 128 109 143 128 110 143 127 111 143 127 112 143 127 113 143 126 114 143 126 115 143 125 116 143 125 117 143 124 118 143 124 119 143 123 120 143 123 121 143 122 122 143 122 123 143 121 124 143 121 125 143 120 126 143 120 127 143 119 128 143 119 129 143 118 130 143 118 131 143 117 132 143 117 133 143 116 134 143 116 135 143 115 136 143 115 137 143 114 138 143 114 139 143 113 140 143 113 141 143 112 142 143 112 143 143 111 144 143 111 145 143 110 146 143 110 147 143 109 148 143 109 149 143 108 150 143 108 151 143 107 152 143 107 153 143 106 154 143 106 155 143 105 156 143 105 157 143 104 158 143 104 159 143 103 160 143 103 161 143 102 162 143 102 163 143 101 164 143 101 165 143 100 166 143 100 167 143 99 168 143 99 169 143 98 170 143 98 171 143 97 172 143 97 173 143 96 174 143 96 175 143 95 176 143 95 177 143 94 178 143 94 179 143 93 180 143 93 181 143 92 182 143 92 183 143 91 184 143 91 185 143 90 186 143 90 187 143 89 188 143 89 189 143 88 190 143 88 191 143 87 192 143 87 193 143 86 194 143 86 195 143 85 196 143 85 197 143 84 198 143 84 199 143 83 200 143 83 201 143 82 202 143 82 203 143 81 204 143 81 205 143 80 206 143 80 207 143 79 208 143 79 209 143 78 210 143 78 211 143 77 212 143 77 213 143 76 214 143 76 215 143 75 216 143 75 217 143 74 218 143 74 219 143 73 220 143 73 221 143 72 222 143 72 223 143 71 224 143 71 225 143 70 226 143 70 227 143 69 228 143 69 229 143 68 230 143 68 231 143 67 232 143 67 233 143 66 234 143 66 235 143 65 236 143 65 237 143 64 238 143 64 239 143 63 240 143 63 241 143 62 242 143 62 243 143 61 244 143 61 245 143 60 246 143 60 247 143 59 248 143 59 249 143 58 250 143 58 251 143 57 252 143 57 253 143 56 254 143 56 
0 144 182 0 144 182 1 144 181 2 144 181 3 144 180 4 144 180 5 144 179 6 144 179 7 144 178 8 144 178 9 144 177 10 144 177 11 144 176 12 144 176 13 144 175 14 144 175 15 144 174 16 144 174 17 144 173 18 144 173 19 144 172 20 144 172 21 144 171 22 144 171 23 144 170 24 144 170 25 144 169 26 144 169 27 144 168 28 144 168 29 144 167 30 144 167 31 144 166 32 144 166 33 144 165 34 144 165 35 144 164 36 144 164 37 144 163 38 144 163 39 144 162 40 144 162 41 144 161 42 144 161 43 144 160 44 144 160 45 144 159 46 144 159 47 144 158 48 144 158 49 144 157 50 144 157 51 144 156 52 144 156 53 144 155 54 144 155 55 144 154 56 144 154 57 144 153 58 144 153 59 144 152 60 144 152 61 144 151 62 144 151 63 144 150 64 144 150 65 144 149 66 144 149 67 144 148 68 144 148 69 144 147 70 144 147 71 144 146 72 144 146 73 144 145 74 144 145 75 144 144 76 144 144 77 144 143 78 144 143 79 144 142 80 144 142 81 144 141 82 144 141 83 144 140 84 144 140 85 144 139 86 144 139 87 144 138 88 144 138 89 144 137 90 144 137 91 144 136 92 144 136 93 144 135 94 144 135 95 144 134 96 144 134 97 144 133 98 144 133 99 144 132 100 144 132 101 144 131 102 144 131 103 144 130 104 144 130 105 144 129 106 144 129 107 144 128 108 144 128 109 144 127 110 144 127 111 144 127 112 144 126 113 144 126 114 144 125 115 144 125 116 144 124 117 144 124 118 144 123 119 144 123 120 144 122 121 144 122 122 144 121 123 144 121 124 144 120 125 144 120 126 144 119 127 144 119 128 144 118 129 144 118 130 144 117 131 144 117 132 144 116 133 144 116 134 144 115 135 144 115 136 144 114 137 144 114 138 144 113 139 144 113 140 144 112 141 144 112 142 144 111 143 144 111 144 144 110 145 144 110 146 144 109 147 144 109 148 144 108 149 144 108 150 144 107 151 144 107 152 144 106 153 144 106 154 144 105 155 144 105 156 144 104 157 144 104 158 144 103 159 144 103 160 144 102 161 144 102 162 144 101 163 144 101 164 144 100 165 144 100 166 144 99 167 144 99 168 144 98 169 144 98 170 144 97 171 144 97 172 144 96 173 144 96 174 144 95 175 144 95 176 144 94 177 144 94 178 144 93 179 144 93 180 144 92 181 144 92 182 144 91 183 144 91 184 144 90 185 144 90 186 144 89 187 144 89 188 144 88 189 144 88 190 144 87 191 144 87 192 144 86 193 144 86 194 144 85 195 144 85 196 144 84 197 144 84 198 144 83 199 144 83 200 144 82 201 144 82 202 144 81 203 144 81 204 144 80 205 144 80 206 144 79 207 144 79 208 144 78 209 144 78 210 144 77 211 144 77 212 144 76 213 144 76 214 144 75 215 144 75 216 144 74 217 144 74 218 144 73 219 144 73 220 144 72 221 144 72 222 144 71 223 144 71 224 144 70 225 144 70 226 144 69 227 144 69 228 144 68 229 144 68 230 144 67 231 144 67 232 144 66 233 144 66 234 144 65 235 144 65 236 144 64 237 144 64 238 144 63 239 144 63 240 144 62 241 144 62 242 144 61 243 144 61 244 144 60 245 144 60 246 144 59 247 144 59 248 144 58 249 144 58 250 144 57 251 144 57 252 144 56 253 144 56 254 144 55 
0 145 182 0 145 181 1 145 181 2 145 180 3 145 180 4 145 179 5 145 179 6 145 178 7 145 178 8 145 177 9 145 177 10 145 176 11 145 176 12 145 175 13 145 175 14 145 174 15 145 174 16 145 173 17 145 173 18 145 172 19 145 172 20 145 171 21 145 171 22 145 170 23 145 170 24 145 169 25 145 169 26 145 168 27 145 168 28 145 167 29 145 167 30 145 166 31 145 166 32 145 165 33 145 165 34 145 164 35 145 164 36 145 163 37 145 163 38 145 162 39 145 162 40 145 161 41 145 161 42 145 160 43 145 160 44 145 159 45 145 159 46 145 158 47 145 158 48 145 157 49 145 157 50 145 156 51 145 156 52 145 155 53 145 155 54 145 154 55 145 154 56 145 153 57 145 153 58 145 152 59 145 152 60 145 151 61 145 151 62 145 150 63 145 150 64 145 149 65 145 149 66 145 148 67 145 148 68 145 147 69 145 147 70 145 146 71 145 146 72 145 145 73 145 145 74 145 144 75 145 144 76 145 143 77 145 143 78 145 142 79 145 142 80 145 141 81 145 141 82 145 140 83 145 140 84 145 139 85 145 139 86 145 138 87 145 138 88 145 137 89 145 137 90 145 136 91 145 136 92 145 135 93 145 135 94 145 134 95 145 134 96 145 133 97 145 133 98 145 132 99 145 132 100 145 131 101 145 131 102 145 130 103 145 130 104 145 129 105 145 129 106 145 128 107 145 128 108 145 127 109 145 127 110 145 127 111 145 126 112 145 126 113 145 125 114 145 125 115 145 124 116 145 124 117 145 123 118 145 123 119 145 122 120 145 122 121 145 121 122 145 121 123 145 120 124 145 120 125 145 119 126 145 119 127 145 118 128 145 118 129 145 117 130 145 117 131 145 116 132 145 116 133 145 115 134 145 115 135 145 114 136 145 114 137 145 113 138 145 113 139 145 112 140 145 112 141 145 111 142 145 111 143 145 110 144 145 110 145 145 109 146 145 109 147 145 108 148 145 108 149 145 107 150 145 107 151 145 106 152 145 106 153 145 105 154 145 105 155 145 104 156 145 104 157 145 103 158 145 103 159 145 102 160 145 102 161 145 101 162 145 101 163 145 100 164 145 100 165 145 99 166 145 99 167 145 98 168 145 98 169 145 97 170 145 97 171 145 96 172 145 96 173 145 95 174 145 95 175 145 94 176 145 94 177 145 93 178 145 93 179 145 92 180 145 92 181 145 91 182 145 91 183 145 90 184 145 90 185 145 89 186 145 89 187 145 88 188 145 88 189 145 87 190 145 87 191 145 86 192 145 86 193 145 85 194 145 85 195 145 84 196 145 84 197 145 83 198 145 83 199 145 82 200 145 82 201 145 81 202 145 81 203 145 80 204 145 80 205 145 79 206 145 79 207 145 78 208 145 78 209 145 77 210 145 77 211 145 76 212 145 76 213 145 75 214 145 75 215 145 74 216 145 74 217 145 73 218 145 73 219 145 72 220 145 72 221 145 71 222 145 71 223 145 70 224 145 70 225 145 69 226 145 69 227 145 68 228 145 68 229 145 67 230 145 67 231 145 66 232 145 66 233 145 65 234 145 65 235 145 64 236 145 64 237 145 63 238 145 63 239 145 62 240 145 62 241 145 61 242 145 61 243 145 60 244 145 60 245 145 59 246 145 59 247 145 58 248 145 58 249 145 57 250 145 57 251 145 56 252 145 56 253 145 55 254 145 55 
0 146 181 0 146 181 1 146 180 2 146 180 3 146 179 4 146 179 5 146 178 6 146 178 7 146 177 8 146 177 9 146 176 10 146 176 11 146 175 12 146 175 13 146 174 14 146 174 15 146 173 16 146 173 17 146 172 18 146 172 19 146 171 20 146 171 21 146 170 22 146 170 23 146 169 24 146 169 25 146 168 26 146 168 27 146 167 28 146 167 29 146 166 30 146 166 31 146 165 32 146 165 33 146 164 34 146 164 35 146 163 36 146 163 37 146 162 38 146 162 39 146 161 40 146 161 41 146 160 42 146 160 43 146 159 44 146 159 45 146 158 46 146 158 47 146 157 48 146 157 49 146 156 50 146 156 51 146 155 52 146 155 53 146 154 54 146 154 55 146 153 56 146 153 57 146 152 58 146 152 59 146 151 60 146 151 61 146 150 62 146 150 63 146 149 64 146 149 65 146 148 66 146 148 67 146 147 68 146 147 69 146 146 70 146 146 71 146 145 72 146 145 73 146 144 74 146 144 75 146 143 76 146 143 77 146 142 78 146 142 79 146 141 80 146 141 81 146 140 82 146 140 83 146 139 84 146 139 85 146 138 86 146 138 87 146 137 88 146 137 89 146 136 90 146 136 91 146 135 92 146 135 93 146 134 94 146 134 95 146 133 96 146 133 97 146 132 98 146 132 99 146 131 100 146 131 101 146 130 102 146 130 103 146 129 104 146 129 105 146 128 106 146 128 107 146 127 108 146 127 109 146 127 110 146 126 111 146 126 112 146 125 113 146 125 114 146 124 115 146 124 116 146 123 117 146 123 118 146 122 119 146 122 120 146 121 121 146 121 122 146 120 123 146 120 124 146 119 125 146 119 126 146 118 127 146 118 128 146 117 129 146 117 130 146 116 131 146 116 132 146 115 133 146 115 134 146 114 135 146 114 136 146 113 137 146 113 138 146 112 139 146 112 140 146 111 141 146 111 142 146 110 143 146 110 144 146 109 145 146 109 146 146 108 147 146 108 148 146 107 149 146 107 150 146 106 151 146 106 152 146 105 153 146 105 154 146 104 155 146 104 156 146 103 157 146 103 158 146 102 159 146 102 160 146 101 161 146 101 162 146 100 163 146 100 164 146 99 165 146 99 166 146 98 167 146 98 168 146 97 169 146 97 170 146 96 171 146 96 172 146 95 173 146 95 174 146 94 175 146 94 176 146 93 177 146 93 178 146 92 179 146 92 180 146 91 181 146 91 182 146 90 183 146 90 184 146 89 185 146 89 186 146 88 187 146 88 188 146 87 189 146 87 190 146 86 191 146 86 192 146 85 193 146 85 194 146 84 195 146 84 196 146 83 197 146 83 198 146 82 199 146 82 200 146 81 201 146 81 202 146 80 203 146 80 204 146 79 205 146 79 206 146 78 207 146 78 208 146 77 209 146 77 210 146 76 211 146 76 212 146 75 213 146 75 214 146 74 215 146 74 216 146 73 217 146 73 218 146 72 219 146 72 220 146 71 221 146 71 222 146 70 223 146 70 224 146 69 225 146 69 226 146 68 227 146 68 228 146 67 229 146 67 230 146 66 231 146 66 232 146 65 233 146 65 234 146 64 235 146 64 236 146 63 237 146 63 238 146 62 239 146 62 240 146 61 241 146 61 242 146 60 243 146 60 244 146 59 245 146 59 246 146 58 247 146 58 248 146 57 249 146 57 250 146 56 251 146 56 252 146 55 253 146 55 254 146 54 
0 147 181 0 147 180 1 147 180 2 147 179 3 147 179 4 147 178 5 147 178 6 147 177 7 147 177 8 147 176 9 147 176 10 147 175 11 147 175 12 147 174 13 147 174 14 147 173 15 147 173 16 147 172 17 147 172 18 147 171 19 147 171 20 147 170 21 147 170 22 147 169 23 147 169 24 147 168 25 147 168 26 147 167 27 147 167 28 147 166 29 147 166 30 147 165 31 147 165 32 147 164 33 147 164 34 147 163 35 147 163 36 147 162 37 147 162 38 147 161 39 147 161 40 147 160 41 147 160 42 147 159 43 147 159 44 147 158 45 147 158 46 147 157 47 147 157 48 147 156 49 147 156 50 147 155 51 147 155 52 147 154 53 147 154 54 147 153 55 147 153 56 147 152 57 147 152 58 147 151 59 147 151 60 147 150 61 147 150 62 147 149 63 147 149 64 147 148 65 147 148 66 147 147 67 147 147 68 147 146 69 147 146 70 147 145 71 147 145 72 147 144 73 147 144 74 147 143 75 147 143 76 147 142 77 147 142 78 147 141 79 147 141 80 147 140 81 147 140 82 147 139 83 147 139 84 147 138 85 147 138 86 147 137 87 147 137 88 147 136 89 147 136 90 147 135 91 147 135 92 147 134 93 147 134 94 147 133 95 147 133 96 147 132 97 147 132 98 147 131 99 147 131 100 147 130 101 147 130 102 147 129 103 147 129 104 147 128 105 147 128 106 147 127 107 147 127 108 147 127 109 147 126 110 147 126 111 147 125 112 147 125 113 147 124 114 147 124 115 147 123 116 147 123 117 147 122 118 147 122 119 147 121 120 147 121 121 147 120 122 147 120 123 147 119 124 147 119 125 147 118 126 147 118 127 147 117 128 147 117 129 147 116 130 147 116 131 147 115 132 147 115 133 147 114 134 147 114 135 147 113 136 147 113 137 147 112 138 147 112 139 147 111 140 147 111 141 147 110 142 147 110 143 147 109 144 147 109 145 147 108 146 147 108 147 147 107 148 147 107 149 147 106 150 147 106 151 147 105 152 147 105 153 147 104 154 147 104 155 147 103 156 147 103 157 147 102 158 147 102 159 147 101 160 147 101 161 147 100 162 147 100 163 147 99 164 147 99 165 147 98 166 147 98 167 147 97 168 147 97 169 147 96 170 147 96 171 147 95 172 147 95 173 147 94 174 147 94 175 147 93 176 147 93 177 147 92 178 147 92 179 147 91 180 147 91 181 147 90 182 147 90 183 147 89 184 147 89 185 147 88 186 147 88 187 147 87 188 147 87 189 147 86 190 147 86 191 147 85 192 147 85 193 147 84 194 147 84 195 147 83 196 147 83 197 147 82 198 147 82 199 147 81 200 147 81 201 147 80 202 147 80 203 147 79 204 147 79 205 147 78 206 147 78 207 147 77 208 147 77 209 147 76 210 147 76 211 147 75 212 147 75 213 147 74 214 147 74 215 147 73 216 147 73 217 147 72 218 147 72 219 147 71 220 147 71 221 147 70 222 147 70 223 147 69 224 147 69 225 147 68 226 147 68 227 147 67 228 147 67 229 147 66 230 147 66 231 147 65 232 147 65 233 147 64 234 147 64 235 147 63 236 147 63 237 147 62 238 147 62 239 147 61 240 147 61 241 147 60 242 147 60 243 147 59 244 147 59 245 147 58 246 147 58 247 147 57 248 147 57 249 147 56 250 147 56 251 147 55 252 147 55 253 147 54 254 147 54 
0 148 180 0 148 180 1 148 179 2 148 179 3 148 178 4 148 178 5 148 177 6 148 177 7 148 176 8 148 176 9 148 175 10 148 175 11 148 174 12 148 174 13 148 173 14 148 173 15 148 172 16 148 172 17 148 171 18 148 171 19 148 170 20 148 170 21 148 169 22 148 169 23 148 168 24 148 168 25 148 167 26 148 167 27 148 166 28 148 166 29 148 165 30 148 165 31 148 164 32 148 164 33 148 163 34 148 163 35 148 162 36 148 162 37 148 161 38 148 161 39 148 160 40 148 160 41 148 159 42 148 159 43 148 158 44 148 158 45 148 157 46 148 157 47 148 156 48 148 156 49 148 155 50 148 155 51 148 154 52 148 154 53 148 153 54 148 153 55 148 152 56 148 152 57 148 151 58 148 151 59 148 150 60 148 150 61 148 149 62 148 149 63 148 148 64 148 148 65 148 147 66 148 147 67 148 146 68 148 146 69 148 145 70 148 145 71 148 144 72 148 144 73 148 143 74 148 143 75 148 142 76 148 142 77 148 141 78 148 141 79 148 140 80 148 140 81 148 139 82 148 139 83 148 138 84 148 138 85 148 137 86 148 137 87 148 136 88 148 136 89 148 135 90 148 135 91 148 134 92 148 134 93 148 133 94 148 133 95 148 132 96 148 132 97 148 131 98 148 131 99 148 130 100 148 130 101 148 129 102 148 129 103 148 128 104 148 128 105 148 127 106 148 127 107 148 127 108 148 126 109 148 126 110 148 125 111 148 125 112 148 124 113 148 124 114 148 123 115 148 123 116 148 122 117 148 122 118 148 121 119 148 121 120 148 120 121 148 120 122 148 119 123 148 119 124 148 118 125 148 118 126 148 117 127 148 117 128 148 116 129 148 116 130 148 115 131 148 115 132 148 114 133 148 114 134 148 113 135 148 113 136 148 112 137 148 112 138 148 111 139 148 111 140 148 110 141 148 110 142 148 109 143 148 109 144 148 108 145 148 108 146 148 107 147 148 107 148 148 106 149 148 106 150 148 105 151 148 105 152 148 104 153 148 104 154 148 103 155 148 103 156 148 102 157 148 102 158 148 101 159 148 101 160 148 100 161 148 100 162 148 99 163 148 99 164 148 98 165 148 98 166 148 97 167 148 97 168 148 96 169 148 96 170 148 95 171 148 95 172 148 94 173 148 94 174 148 93 175 148 93 176 148 92 177 148 92 178 148 91 179 148 91 180 148 90 181 148 90 182 148 89 183 148 89 184 148 88 185 148 88 186 148 87 187 148 87 188 148 86 189 148 86 190 148 85 191 148 85 192 148 84 193 148 84 194 148 83 195 148 83 196 148 82 197 148 82 198 148 81 199 148 81 200 148 80 201 148 80 202 148 79 203 148 79 204 148 78 205 148 78 206 148 77 207 148 77 208 148 76 209 148 76 210 148 75 211 148 75 212 148 74 213 148 74 214 148 73 215 148 73 216 148 72 217 148 72 218 148 71 219 148 71 220 148 70 221 148 70 222 148 69 223 148 69 224 148 68 225 148 68 226 148 67 227 148 67 228 148 66 229 148 66 230 148 65 231 148 65 232 148 64 233 148 64 234 148 63 235 148 63 236 148 62 237 148 62 238 148 61 239 148 61 240 148 60 241 148 60 242 148 59 243 148 59 244 148 58 245 148 58 246 148 57 247 148 57 248 148 56 249 148 56 250 148 55 251 148 55 252 148 54 253 148 54 254 148 53 
0 149 180 0 149 179 1 149 179 2 149 178 3 149 178 4 149 177 5 149 177 6 149 176 7 149 176 8 149 175 9 149 175 10 149 174 11 149 174 12 149 173 13 149 173 14 149 172 15 149 172 16 149 171 17 149 171 18 149 170 19 149 170 20 149 169 21 149 169 22 149 168 23 149 168 24 149 167 25 149 167 26 149 166 27 149 166 28 149 165 29 149 165 30 149 164 31 149 164 32 149 163 33 149 163 34 149 162 35 149 162 36 149 161 37 149 161 38 149 160 39 149 160 40 149 159 41 149 159 42 149 158 43 149 158 44 149 157 45 149 157 46 149 156 47 149 156 48 149 155 49 149 155 50 149 154 51 149 154 52 149 153 53 149 153 54 149 152 55 149 152 56 149 151 57 149 151 58 149 150 59 149 150 60 149 149 61 149 149 62 149 148 63 149 148 64 149 147 65 149 147 66 149 146 67 149 146 68 149 145 69 149 145 70 149 144 71 149 144 72 149 143 73 149 143 74 149 142 75 149 142 76 149 141 77 149 141 78 149 140 79 149 140 80 149 139 81 149 139 82 149 138 83 149 138 84 149 137 85 149 137 86 149 136 87 149 136 88 149 135 89 149 135 90 149 134 91 149 134 92 149 133 93 149 133 94 149 132 95 149 132 96 149 131 97 149 131 98 149 130 99 149 130 100 149 129 101 149 129 102 149 128 103 149 128 104 149 127 105 149 127 106 149 127 107 149 126 108 149 126 109 149 125 110 149 125 111 149 124 112 149 124 113 149 123 114 149 123 115 149 122 116 149 122 117 149 121 118 149 121 119 149 120 120 149 120 121 149 119 122 149 119 123 149 118 124 149 118 125 149 117 126 149 117 127 149 116 128 149 116 129 149 115 130 149 115 131 149 114 132 149 114 133 149 113 134 149 113 135 149 112 136 149 112 137 149 111 138 149 111 139 149 110 140 149 110 141 149 109 142 149 109 143 149 108 144 149 108 145 149 107 146 149 107 147 149 106 148 149 106 149 149 105 150 149 105 151 149 104 152 149 104 153 149 103 154 149 103 155 149 102 156 149 102 157 149 101 158 149 101 159 149 100 160 149 100 161 149 99 162 149 99 163 149 98 164 149 98 165 149 97 166 149 97 167 149 96 168 149 96 169 149 95 170 149 95 171 149 94 172 149 94 173 149 93 174 149 93 175 149 92 176 149 92 177 149 91 178 149 91 179 149 90 180 149 90 181 149 89 182 149 89 183 149 88 184 149 88 185 149 87 186 149 87 187 149 86 188 149 86 189 149 85 190 149 85 191 149 84 192 149 84 193 149 83 194 149 83 195 149 82 196 149 82 197 149 81 198 149 81 199 149 80 200 149 80 201 149 79 202 149 79 203 149 78 204 149 78 205 149 77 206 149 77 207 149 76 208 149 76 209 149 75 210 149 75 211 149 74 212 149 74 213 149 73 214 149 73 215 149 72 216 149 72 217 149 71 218 149 71 219 149 70 220 149 70 221 149 69 222 149 69 223 149 68 224 149 68 225 149 67 226 149 67 227 149 66 228 149 66 229 149 65 230 149 65 231 149 64 232 149 64 233 149 63 234 149 63 235 149 62 236 149 62 237 149 61 238 149 61 239 149 60 240 149 60 241 149 59 242 149 59 243 149 58 244 149 58 245 149 57 246 149 57 247 149 56 248 149 56 249 149 55 250 149 55 251 149 54 252 149 54 253 149 53 254 149 53 
0 150 179 0 150 179 1 150 178 2 150 178 3 150 177 4 150 177 5 150 176 6 150 176 7 150 175 8 150 175 9 150 174 10 150 174 11 150 173 12 150 173 13 150 172 14 150 172 15 150 171 16 150 171 17 150 170 18 150 170 19 150 169 20 150 169 21 150 168 22 150 168 23 150 167 24 150 167 25 150 166 26 150 166 27 150 165 28 150 165 29 150 164 30 150 164 31 150 163 32 150 163 33 150 162 34 150 162 35 150 161 36 150 161 37 150 160 38 150 160 39 150 159 40 150 159 41 150 158 42 150 158 43 150 157 44 150 157 45 150 156 46 150 156 47 150 155 48 150 155 49 150 154 50 150 154 51 150 153 52 150 153 53 150 152 54 150 152 55 150 151 56 150 151 57 150 150 58 150 150 59 150 149 30 60 220 30 60 220 30 60 220 30 60 220 30 60 220 30 60 220 30 60 220 30 60 220 30 60 220 30 60 220 30 60 220 30 60 220 30 60 220 30 60 220 30 60 220 30 60 220 30 60 220 30 60 220 30 60 220 30 60 220 30 60 220 30 60 220 30 60 220 30 60 220 30 60 220 30 60 220 30 60 220 30 60 220 30 60 220 30 60 220 30 60 220 30 60 220 30 60 220 30 60 220 30 60 220 30 60 220 30 60 220 30 60 220 30 60 220 30 60 220 30 60 220 30 60 220 30 60 220 30 60 220 30 60 220 30 60 220 30 60 220 30 60 220 30 60 220 30 60 220 30 60 220 30 60 220 30 60 220 30 60 220 30 60 220 30 60 220 30 60 220 30 60 220 30 60 220 30 60 220 30 60 220 30 60 220 30 60 220 30 60 220 30 60 220 30 60 220 30 60 220 30 60 220 30 60 220 30 60 220 30 60 220 30 60 220 30 60 220 30 60 220 30 60 220 30 60 220 30 60 220 30 60 220 30 60 220 30 60 220 30 60 220 30 60 220 30 60 220 30 60 220 30 60 220 30 60 220 30 60 220 30 60 220 30 60 220 30 60 220 30 60 220 30 60 220 30 60 220 30 60 220 30 60 220 30 60 220 30 60 220 30 60 220 30 60 220 30 60 220 30 60 220 30 60 220 30 60 220 30 60 220 30 60 220 30 60 220 30 60 220 30 60 220 30 60 220 30 60 220 30 60 220 30 60 220 30 60 220 30 60 220 30 60 220 30 60 220 30 60 220 30 60 220 30 60 220 30 60 220 30 60 220 30 60 220 30 60 220 30 60 220 30 60 220 30 60 220 30 60 220 30 60 220 30 60 220 30 60 220 30 60 220 30 60 220 30 60 220 30 60 220 30 60 220 30 60 220 30 60 220 30 60 220 30 60 220 199 150 80 200 150 79 201 150 79 202 150 78 203 150 78 204 150 77 205 150 77 206 150 76 207 150 76 208 150 75 209 150 75 210 150 74 211 150 74 212 150 73 213 150 73 214 150 72 215 150 72 216 150 71 217 150 71 218 150 70 219 150 70 220 150 69 221 150 69 222 150 68 223 150 68 224 150 67 225 150 67 226 150 66 227 150 66 228 150 65 229 150 65 230 150 64 231 150 64 232 150 63 233 150 63 234 150 62 235 150 62 236 150 61 237 150 61 238 150 60 239 150 60 240 150 59 241 150 59 242 150 58 243 150 58 244 150 57 245 150 57 246 150 56 247 150 56 248 150 55 249 150 55 250 150 54 251 150 54 252 150 53 253 150 53 254 150 52 
0 151 179 0 151 178 1 151 178 2 151 177 3 151 177 4 151 176 5 151 176 6 151 175 7 151 175 8 151 174 9 151 174 10 151 173 11 151 173 12 151 172 13 151 172 14 151 171 15 151 171 16 151 170 17 151 170 18 151 169 19 151 169 20 151 168 21 151 168 22 151 167 23 151 167 24 151 166 25 151 166 26 151 165 27 151 165 28 151 164 29 151 164 30 151 163 31 151 163 32 151 162 33 151 162 34 151 161 35 151 161 36 151 160 37 151 160 38 151 159 39 151 159 40 151 158 41 151 158 42 151 157 43 151 157 44 151 156 45 151 156 46 151 155 47 151 155 48 151 154 49 151 154 50 151 153 51 151 153 52 151 152 53 151 152 54 151 151 55 151 151 56 151 150 57 151 150 58 151 149 59 151 149 30 60 220 30 60 220 30 60 220 30 60 220 30 60 220 30 60 220 30 60 220 30 60 220 30 60 220 30 60 220 30 60 220 30 60 220 30 60 220 30 60 220 30 60 220 30 60 220 30 60 220 30 60 220 30 60 220 30 60 220 30 60 220 30 60 220 30 60 220 30 60 220 30 60 220 30 60 220 30 60 220 30 60 220 30 60 220 30 60 220 30 60 220 30 60 220 30 60 220 30 60 220 30 60 220 30 60 220 30 60 220 30 60 220 30 60 220 30 60 220 30 60 220 30 60 220 30 60 220 30 60 220 30 60 220 30 60 220 30 60 220 30 60 220 30 60 220 30 60 220 30 60 220 30 60 220 30 60 220 30 60 220 30 60 220 30 60 220 30 60 220 30 60 220 30 60 220 30 60 220 30 60 220 30 60 220 30 60 220 30 60 220 30 60 220 30 60 220 30 60 220 30 60 220 30 60 220 30 60 220 30 60 220 30 60 220 30 60 220 30 60 220 30 60 220 30 60 220 30 60 220 30 60 220 30 60 220 30 60 220 30 60 220 30 60 220 30 60 220 30 60 220 30 60 220 30 60 220 30 60 220 30 60 220 30 60 220 30 60 220 30 60 220 30 60 220 30 60 220 30 60 220 30 60 220 30 60 220 30 60 220 30 60 220 30 60 220 30 60 220 30 60 220 30 60 220 30 60 220 30 60 220 30 60 220 30 60 220 30 60 220 30 60 220 30 60 220 30 60 220 30 60 220 30 60 220 30 60 220 30 60 220 30 60 220 30 60 220 30 60 220 30 60 220 30 60 220 30 60 220 30 60 220 30 60 220 30 60 220 30 60 220 30 60 220 30 60 220 30 60 220 30 60 220 30 60 220 30 60 220 30 60 220 30 60 220 30 60 220 30 60 220 30 60 220 30 60 220 30 60 220 30 60 220 30 60 220 199 151 79 200 151 79 201 151 78 202 151 78 203 151 77 204 151 77 205 151 76 206 151 76 207 151 75 208 151 75 209 151 74 210 151 74 211 151 73 212 151 73 213 151 72 214 151 72 215 151 71 216 151 71 217 151 70 218 151 70 219 151 69 220 151 69 221 151 68 222 151 68 223 151 67 224 151 67 225 151 66 226 151 66 227 151 65 228 151 65 229 151 64 230 151 64 231 151 63 232 151 63 233 151 62 234 151 62 235 151 61 236 151 61 237 151 60 238 151 60 239 151 59 240 151 59 241 151 58 242 151 58 243 151 57 244 151 57 245 151 56 246 151 56 247 151 55 248 151 55 249 151 54 250 151 54 251 151 53 252 151 53 253 151 52 254 151 52 
0 152 178 0 152 178 1 152 177 2 152 177 3 152 176 4 152 176 5 152 175 6 152 175 7 152 174 8 152 174 9 152 173 10 152 173 11 152 172 12 152 172 13 152 171 14 152 171 15 152 170 16 152 170 17 152 169 18 152 169 19 152 168 20 152 168 21 152 167 22 152 167 23 152 166 24 152 166 25 152 165 26 152 165 27 152 164 28 152 164 29 152 163 30 152 163 31 152 162 32 152 162 33 152 161 34 152 161 35 152 160 36 152 160 37 152 159 38 152 159 39 152 158 40 152 158 41 152 157 42 152 157 43 152 156 44 152 156 45 152 155 46 152 155 47 152 154 48 152 154 49 152 153 50 152 153 51 152 152 52 152 152 53 152 151 54 152 151 55 152 150 56 152 150 57 152 149 58 152 149 59 152 148 30 60 220 30 60 220 30 60 220 30 60 220 30 60 220 30 60 220 30 60 220 30 60 220 30 60 220 30 60 220 30 60 220 30 60 220 30 60 220 30 60 220 30 60 220 30 60 220 30 60 220 30 60 220 30 60 220 30 60 220 30 60 220 30 60 220 30 60 220 30 60 220 30 60 220 30 60 220 30 60 220 30 60 220 30 60 220 30 60 220 30 60 220 30 60 220 30 60 220 30 60 220 30 60 220 30 60 220 30 60 220 30 60 220 30 60 220 30 60 220 30 60 220 30 60 220 30 60 220 30 60 220 30 60 220 30 60 220 30 60 220 30 60 220 30 60 220 30 60 220 30 60 220 30 60 220 30 60 220 30 60 220 30 60 220 30 60 220 30 60 220 30 60 220 30 60 220 30 60 220 30 60 220 30 60 220 30 60 220 30 60 220 30 60 220 30 60 220 30 60 220 30 60 220 30 60 220 30 60 220 30 60 220 30 60 220 30 60 220 30 60 220 30 60 220 30 60 220 30 60 220 30 60 220 30 60 220 30 60 220 30 60 220 30 60 220 30 60 220 30 60 220 30 60 220 30 60 220 30 60 220 30 60 220 30 60 220 30 60 220 30 60 220 30 60 220 30 60 220 30 60 220 30 60 220 30 60 220 30 60 220 30 60 220 30 60 220 30 60 220 30 60 220 30 60 220 30 60 220 30 60 220 30 60 220 30 60 220 30 60 220 30 60 220 30 60 220 30 60 220 30 60 220 30 60 220 30 60 220 30 60 220 30 60 220 30 60 220 30 60 220 30 60 220 30 60 220 30 60 220 30 60 220 30 60 220 30 60 220 30 60 220 30 60 220 30 60 220 30 60 220 30 60 220 30 60 220 30 60 220 30 60 220 30 60 220 30 60 220 30 60 220 30 60 220 30 60 220 30 60 220 30 60 220 30 60 220 199 152 79 200 152 78 201 152 78 202 152 77 203 152 77 204 152 76 205 152 76 206 152 75 207 152 75 208 152 74 209 152 74 210 152 73 211 152 73 212 152 72 213 152 72 214 152 71 215 152 71 216 152 70 217 152 70 218 152 69 219 152 69 220 152 68 221 152 68 222 152 67 223 152 67 224 152 66 225 152 66 226 152 65 227 152 65 228 152 64 229 152 64 230 152 63 231 152 63 232 152 62 233 152 62 234 152 61 235 152 61 236 152 60 237 152 60 238 152 59 239 152 59 240 152 58 241 152 58 242 152 57 243 152 57 244 152 56 245 152 56 246 152 55 247 152 55 248 152 54 249 152 54 250 152 53 251 152 53 252 152 52 253 152 52 254 152 51 
0 153 178 0 153 177 1 153 177 2 153 176 3 153 176 4 153 175 5 153 175 6 153 174 7 153 174 8 153 173 9 153 173 10 153 172 11 153 172 12 153 171 13 153 171 14 153 170 15 153 170 16 153 169 17 153 169 18 153 168 19 153 168 20 153 167 21 153 167 22 153 166 23 153 166 24 153 165 25 153 165 26 153 164 27 153 164 28 153 163 29 153 163 30 153 162 31 153 162 32 153 161 33 153 161 34 153 160 35 153 160 36 153 159 37 153 159 38 153 158 39 153 158 40 153 157 41 153 157 42 153 156 43 153 156 44 153 155 45 153 155 46 153 154 47 153 154 48 153 153 49 153 153 50 153 152 51 153 152 52 153 151 53 153 151 54 153 150 55 153 150 56 153 149 57 153 149 58 153 148 59 153 148 30 60 220 30 60 220 30 60 220 30 60 220 30 60 220 30 60 220 30 60 220 30 60 220 30 60 220 30 60 220 30 60 220 30 60 220 30 60 220 30 60 220 30 60 220 30 60 220 30 60 220 30 60 220 30 60 220 30 60 220 30 60 220 30 60 220 30 60 220 30 60 220 30 60 220 30 60 220 30 60 220 30 60 220 30 60 220 30 60 220 30 60 220 30 60 220 30 60 220 30 60 220 30 60 220 30 60 220 30 60 220 30 60 220 30 60 220 30 60 220 30 60 220 30 60 220 30 60 220 30 60 220 30 60 220 30 60 220 30 60 220 30 60 220 30 60 220 30 60 220 30 60 220 30 60 220 30 60 220 30 60 220 30 60 220 30 60 220 30 60 220 30 60 220 30 60 220 30 60 220 30 60 220 30 60 220 30 60 220 30 60 220 30 60 220 30 60 220 30 60 220 30 60 220 30 60 220 30 60 220 30 60 220 30 60 220 30 60 220 30 60 220 30 60 220 30 60 220 30 60 220 30 60 220 30 60 220 30 60 220 30 60 220 30 60 220 30 60 220 30 60 220 30 60 220 30 60 220 30 60 220 30 60 220 30 60 220 30 60 220 30 60 220 30 60 220 30 60 220 30 60 220 30 60 220 30 60 220 30 60 220 30 60 220 30 60 220 30 60 220 30 60 220 30 60 220 30 60 220 30 60 220 30 60 220 30 60 220 30 60 220 30 60 220 30 60 220 30 60 220 30 60 220 30 60 220 30 60 220 30 60 220 30 60 220 30 60 220 30 60 220 30 60 220 30 60 220 30 60 220 30 60 220 30 60 220 30 60 220 30 60 220 30 60 220 30 60 220 30 60 220 30 60 220 30 60 220 30 60 220 30 60 220 30 60 220 30 60 220 30 60 220 30 60 220 30 60 220 30 60 220 30 60 220 30 60 220 199 153 78 200 153 78 201 153 77 202 153 77 203 153 76 204 153 76 205 153 75 206 153 75 207 153 74 208 153 74 209 153 73 210 153 73 211 153 72 212 153 72 213 153 71 214 153 71 215 153 70 216 153 70 217 153 69 218 153 69 219 153 68 220 153 68 221 153 67 222 153 67 223 153 66 224 153 66 225 153 65 226 153 65 227 153 64 228 153 64 229 153 63 230 153 63 231 153 62 232 153 62 233 153 61 234 153 61 235 153 60 236 153 60 237 153 59 238 153 59 239 153 58 240 153 58 241 153 57 242 153 57 243 153 56 244 153 56 245 153 55 246 153 55 247 153 54 248 153 54 249 153 53 250 153 53 251 153 52 252 153 52 253 153 51 254 153 51 
0 154 177 0 154 177 1 154 176 2 154 176 3 154 175 4 154 175 5 154 174 6 154 174 7 154 173 8 154 173 9 154 172 10 154 172 11 154 171 12 154 171 13 154 170 14 154 170 15 154 169 16 154 169 17 154 168 18 154 168 19 154 167 20 154 167 21 154 166 22 154 166 23 154 165 24 154 165 25 154 164 26 154 164 27 154 163 28 154 163 29 154 162 30 154 162 31 154 161 32 154 161 33 154 160 34 154 160 35 154 159 36 154 159 37 154 158 38 154 158 39 154 157 40 154 157 41 154 156 42 154 156 43 154 155 44 154 155 45 154 154 46 154 154 47 154 153 48 154 153 49 154 152 50 154 152 51 154 151 52 154 151 53 154 150 54 154 150 55 154 149 56 154 149 57 154 148 58 154 148 59 154 147 30 60 220 30 60 220 30 60 220 30 60 220 30 60 220 30 60 220 30 60 220 30 60 220 30 60 220 30 60 220 30 60 220 30 60 220 30 60 220 30 60 220 30 60 220 30 60 220 30 60 220 30 60 220 30 60 220 30 60 220 30 60 220 30 60 220 30 60 220 30 60 220 30 60 220 30 60 220 30 60 220 30 60 220 30 60 220 30 60 220 30 60 220 30 60 220 30 60 220 30 60 220 30 60 220 30 60 220 30 60 220 30 60 220 30 60 220 30 60 220 30 60 220 30 60 220 30 60 220 30 60 220 30 60 220 30 60 220 30 60 220 30 60 220 30 60 220 30 60 220 30 60 220 30 60 220 30 60 220 30 60 220 30 60 220 30 60 220 30 60 220 30 60 220 30 60 220 30 60 220 30 60 220 30 60 220 30 60 220 30 60 220 30 60 220 30 60 220 30 60 220 30 60 220 30 60 220 30 60 220 30 60 220 30 60 220 30 60 220 30 60 220 30 60 220 30 60 220 30 60 220 30 60 220 30 60 220 30 60 220 30 60 220 30 60 220 30 60 220 30 60 220 30 60 220 30 60 220 30 60 220 30 60 220 30 60 220 30 60 220 30 60 220 30 60 220 30 60 220 30 60 220 30 60 220 30 60 220 30 60 220 30 60 220 30 60 220 30 60 220 30 60 220 30 60 220 30 60 220 30 60 220 30 60 220 30 60 220 30 60 220 30 60 220 30 60 220 30 60 220 30 60 220 30 60 220 30 60 220 30 60 220 30 60 220 30 60 220 30 60 220 30 60 220 30 60 220 30 60 220 30 60 220 30 60 220 30 60 220 30 60 220 30 60 220 30 60 220 30 60 220 30 60 220 30 60 220 30 60 220 30 60 220 30 60 220 30 60 220 30 60 220 30 60 220 30 60 220 30 60 220 30 60 220 30 60 220 199 154 78 200 154 77 201 154 77 202 154 76 203 154 76 204 154 75 205 154 75 206 154 74 207 154 74 208 154 73 209 154 73 210 154 72 211 154 72 212 154 71 213 154 71 214 154 70 215 154 70 216 154 69 217 154 69 218 154 68 219 154 68 220 154 67 221 154 67 222 154 66 223 154 66 224 154 65 225 154 65 226 154 64 227 154 64 228 154 63 229 154 63 230 154 62 231 154 62 232 154 61 233 154 61 234 154 60 235 154 60 236 154 59 237 154 59 238 154 58 239 154 58 240 154 57 241 154 57 242 154 56 243 154 56 244 154 55 245 154 55 246 154 54 247 154 54 248 154 53 249 154 53 250 154 52 251 154 52 252 154 51 253 154 51 254 154 50 
0 155 177 0 155 176 1 155 176 2 155 175 3 155 175 4 155 174 5 155 174 6 155 173 7 155 173 8 155 172 9 155 172 10 155 171 11 155 171 12 155 170 13 155 170 14 155 169 15 155 169 16 155 168 17 155 168 18 155 167 19 155 167 20 155 166 21 155 166 22 155 165 23 155 165 24 155 164 25 155 164 26 155 163 27 155 163 28 155 162 29 155 162 30 155 161 31 155 161 32 155 160 33 155 160 34 155 159 35 155 159 36 155 158 37 155 158 38 155 157 39 155 157 40 155 156 41 155 156 42 155 155 43 155 155 44 155 154 45 155 154 46 155 153 47 155 153 48 155 152 49 155 152 50 155 151 51 155 151 52 155 150 53 155 150 54 155 149 55 155 149 56 155 148 57 155 148 58 155 147 59 155 147 30 60 220 30 60 220 30 60 220 30 60 220 30 60 220 30 60 220 30 60 220 30 60 220 30 60 220 30 60 220 30 60 220 30 60 220 30 60 220 30 60 220 30 60 220 30 60 220 30 60 220 30 60 220 30 60 220 30 60 220 30 60 220 30 60 220 30 60 220 30 60 220 30 60 220 30 60 220 30 60 220 30 60 220 30 60 220 30 60 220 30 60 220 30 60 220 30 60 220 30 60 220 30 60 220 30 60 220 30 60 220 30 60 220 30 60 220 30 60 220 30 60 220 30 60 220 30 60 220 30 60 220 30 60 220 30 60 220 30 60 220 30 60 220 30 60 220 30 60 220 30 60 220 30 60 220 30 60 220 30 60 220 30 60 220 30 60 220 30 60 220 30 60 220 30 60 220 30 60 220 30 60 220 30 60 220 30 60 220 30 60 220 30 60 220 30 60 220 30 60 220 30 60 220 30 60 220 30 60 220 30 60 220 30 60 220 30 60 220 30 60 220 30 60 220 30 60 220 30 60 220 30 60 220 30 60 220 30 60 220 30 60 220 30 60 220 30 60 220 30 60 220 30 60 220 30 60 220 30 60 220 30 60 220 30 60 220 30 60 220 30 60 220 30 60 220 30 60 220 30 60 220 30 60 220 30 60 220 30 60 220 30 60 220 30 60 220 30 60 220 30 60 220 30 60 220 30 60 220 30 60 220 30 60 220 30 60 220 30 60 220 30 60 220 30 60 220 30 60 220 30 60 220 30 60 220 30 60 220 30 60 220 30 60 220 30 60 220 30 60 220 30 60 220 30 60 220 30 60 220 30 60 220 30 60 220 30 60 220 30 60 220 30 60 220 30 60 220 30 60 220 30 60 220 30 60 220 30 60 220 30 60 220 30 60 220 30 60 220 30 60 220 30 60 220 30 60 220 30 60 220 30 60 220 30 60 220 199 155 77 200 155 77 201 155 76 202 155 76 203 155 75 204 155 75 205 155 74 206 155 74 207 155 73 208 155 73 209 155 72 210 155 72 211 155 71 212 155 71 213 155 70 214 155 70 215 155 69 216 155 69 217 155 68 218 155 68 219 155 67 220 155 67 221 155 66 222 155 66 223 155 65 224 155 65 225 155 64 226 155 64 227 155 63 228 155 63 229 155 62 230 155 62 231 155 61 232 155 61 233 155 60 234 155 60 235 155 59 236 155 59 237 155 58 238 155 58 239 155 57 240 155 57 241 155 56 242 155 56 243 155 55 244 155 55 245 155 54 246 155 54 247 155 53 248 155 53 249 155 52 250 155 52 251 155 51 252 155 51 253 155 50 254 155 50 
0 156 176 0 156 176 1 156 175 2 156 175 3 156 174 4 156 174 5 156 173 6 156 173 7 156 172 8 156 172 9 156 171 10 156 171 11 156 170 12 156 170 13 156 169 14 156 169 15 156 168 16 156 168 17 156 167 18 156 167 19 156 166 20 156 166 21 156 165 22 156 165 23 156 164 24 156 164 25 156 163 26 156 163 27 156 162 28 156 162 29 156 161 30 156 161 31 156 160 32 156 160 33 156 159 34 156 159 35 156 158 36 156 158 37 156 157 38 156 157 39 156 156 40 156 156 41 156 155 42 156 155 43 156 154 44 156 154 45 156 153 46 156 153 47 156 152 48 156 152 49 156 151 50 156 151 51 156 150 52 156 150 53 156 149 54 156 149 55 156 148 56 156 148 57 156 147 58 156 147 59 156 146 30 60 220 30 60 220 30 60 220 30 60 220 30 60 220 30 60 220 30 60 220 30 60 220 30 60 220 30 60 220 30 60 220 30 60 220 30 60 220 30 60 220 30 60 220 30 60 220 30 60 220 30 60 220 30 60 220 30 60 220 30 60 220 30 60 220 30 60 220 30 60 220 30 60 220 30 60 220 30 60 220 30 60 220 30 60 220 30 60 220 30 60 220 30 60 220 30 60 220 30 60 220 30 60 220 30 60 220 30 60 220 30 60 220 30 60 220 30 60 220 30 60 220 30 60 220 30 60 220 30 60 220 30 60 220 30 60 220 30 60 220 30 60 220 30 60 220 30 60 220 30 60 220 30 60 220 30 60 220 30 60 220 30 60 220 30 60 220 30 60 220 30 60 220 30 60 220 30 60 220 30 60 220 30 60 220 30 60 220 30 60 220 30 60 220 30 60 220 30 60 220 30 60 220 30 60 220 30 60 220 30 60 220 30 60 220 30 60 220 30 60 220 30 60 220 30 60 220 30 60 220 30 60 220 30 60 220 30 60 220 30 60 220 30 60 220 30 60 220 30 60 220 30 60 220 30 60 220 30 60 220 30 60 220 30 60 220 30 60 220 30 60 220 30 60 220 30 60 220 30 60 220 30 60 220 30 60 220 30 60 220 30 60 220 30 60 220 30 60 220 30 60 220 30 60 220 30 60 220 30 60 220 30 60 220 30 60 220 30 60 220 30 60 220 30 60 220 30 60 220 30 60 220 30 60 220 30 60 220 30 60 220 30 60 220 30 60 220 30 60 220 30 60 220 30 60 220 30 60 220 30 60 220 30 60 220 30 60 220 30 60 220 30 60 220 30 60 220 30 60 220 30 60 220 30 60 220 30 60 220 30 60 220 30 60 220 30 60 220 30 60 220 30 60 220 30 60 220 30 60 220 30 60 220 30 60 220 199 156 77 200 156 76 201 156 76 202 156 75 203 156 75 204 156 74 205 156 74 206 156 73 207 156 73 208 156 72 209 156 72 210 156 71 211 156 71 212 156 70 213 156 70 214 156 69 215 156 69 216 156 68 217 156 68 218 156 67 219 156 67 220 156 66 221 156 66 222 156 65 223 156 65 224 156 64 225 156 64 226 156 63 227 156 63 228 156 62 229 156 62 230 156 61 231 156 61 232 156 60 233 156 60 234 156 59 235 156 59 236 156 58 237 156 58 238 156 57 239 156 57 240 156 56 241 156 56 242 156 55 243 156 55 244 156 54 245 156 54 246 156 53 247 156 53 248 156 52 249 156 52 250 156 51 251 156 51 252 156 50 253 156 50 254 156 49 
0 157 176 0 157 175 1 157 175 2 157 174 3 157 174 4 157 173 5 157 173 6 157 172 7 157 172 8 157 171 9 157 171 10 157 170 11 157 170 12 157 169 13 157 169 14 157 168 15 157 168 16 157 167 17 157 167 18 157 166 19 157 166 20 157 165 21 157 165 22 157 164 23 157 164 24 157 163 25 157 163 26 157 162 27 157 162 28 157 161 29 157 161 30 157 160 31 157 160 32 157 159 33 157 159 34 157 158 35 157 158 36 157 157 37 157 157 38 157 156 39 157 156 40 157 155 41 157 155 42 157 154 43 157 154 44 157 153 45 157 153 46 157 152 47 157 152 48 157 151 49 157 151 50 157 150 51 157 150 52 157 149 53 157 149 54 157 148 55 157 148 56 157 147 57 157 147 58 157 146 59 157 146 30 60 220 30 60 220 30 60 220 30 60 220 30 60 220 30 60 220 30 60 220 30 60 220 30 60 220 30 60 220 30 60 220 30 60 220 30 60 220 30 60 220 30 60 220 30 60 220 30 60 220 30 60 220 30 60 220 30 60 220 30 60 220 30 60 220 30 60 220 30 60 220 30 60 220 30 60 220 30 60 220 30 60 220 30 60 220 30 60 220 30 60 220 30 60 220 30 60 220 30 60 220 30 60 220 30 60 220 30 60 220 30 60 220 30 60 220 30 60 220 30 60 220 30 60 220 30 60 220 30 60 220 30 60 220 30 60 220 30 60 220 30 60 220 30 60 220 30 60 220 30 60 220 30 60 220 30 60 220 30 60 220 30 60 220 30 60 220 30 60 220 30 60 220 30 60 220 30 60 220 30 60 220 30 60 220 30 60 220 30 60 220 30 60 220 30 60 220 30 60 220 30 60 220 30 60 220 30 60 220 30 60 220 30 60 220 30 60 220 30 60 220 30 60 220 30 60 220 30 60 220 30 60 220 30 60 220 30 60 220 30 60 220 30 60 220 30 60 220 30 60 220 30 60 220 30 60 220 30 60 220 30 60 220 30 60 220 30 60 220 30 60 220 30 60 220 30 60 220 30 60 220 30 60 220 30 60 220 30 60 220 30 60 220 30 60 220 30 60 220 30 60 220 30 60 220 30 60 220 30 60 220 30 60 220 30 60 220 30 60 220 30 60 220 30 60 220 30 60 220 30 60 220 30 60 220 30 60 220 30 60 220 30 60 220 30 60 220 30 60 220 30 60 220 30 60 220 30 60 220 30 60 220 30 60 220 30 60 220 30 60 220 30 60 220 30 60 220 30 60 220 30 60 220 30 60 220 30 60 220 30 60 220 30 60 220 30 60 220 30 60 220 30 60 220 30 60 220 30 60 220 30 60 220 30 60 220 199 157 76 200 157 76 201 157 75 202 157 75 203 157 74 204 157 74 205 157 73 206 157 73 207 157 72 208 157 72 209 157 71 210 157 71 211 157 70 212 157 70 213 157 69 214 157 69 215 157 68 216 157 68 217 157 67 218 157 67 219 157 66 220 157 66 221 157 65 222 157 65 223 157 64 224 157 64 225 157 63 226 157 63 227 157 62 228 157 62 229 157 61 230 157 61 231 157 60 232 157 60 233 157 59 234 157 59 235 157 58 236 157 58 237 157 57 238 157 57 239 157 56 240 157 56 241 157 55 242 157 55 243 157 54 244 157 54 245 157 53 246 157 53 247 157 52 248 157 52 249 157 51 250 157 51 251 157 50 252 157 50 253 157 49 254 157 49 
0 158 175 0 158 175 1 158 174 2 158 174 3 158 173 4 158 173 5 158 172 6 158 172 7 158 171 8 158 171 9 158 170 10 158 170 11 158 169 12 158 169 13 158 168 14 158 168 15 158 167 16 158 167 17 158 166 18 158 166 19 158 165 20 158 165 21 158 164 22 158 164 23 158 163 24 158 163 25 158 162 26 158 162 27 158 161 28 158 161 29 158 160 30 158 160 31 158 159 32 158 159 33 158 158 34 158 158 35 158 157 36 158 157 37 158 156 38 158 156 39 158 155 40 158 155 41 158 154 42 158 154 43 158 153 44 158 153 45 158 152 46 158 152 47 158 151 48 158 151 49 158 150 50 158 150 51 158 149 52 158 149 53 158 148 54 158 148 55 158 147 56 158 147 57 158 146 58 158 146 59 158 145 30 60 220 30 60 220 30 60 220 30 60 220 30 60 220 30 60 220 30 60 220 30 60 220 30 60 220 30 60 220 30 60 220 30 60 220 30 60 220 30 60 220 30 60 220 30 60 220 30 60 220 30 60 220 30 60 220 30 60 220 30 60 220 30 60 220 30 60 220 30 60 220 30 60 220 30 60 220 30 60 220 30 60 220 30 60 220 30 60 220 30 60 220 30 60 220 30 60 220 30 60 220 30 60 220 30 60 220 30 60 220 30 60 220 30 60 220 30 60 220 30 60 220 30 60 220 30 60 220 30 60 220 30 60 220 30 60 220 30 60 220 30 60 220 30 60 220 30 60 220 30 60 220 30 60 220 30 60 220 30 60 220 30 60 220 30 60 220 30 60 220 30 60 220 30 60 220 30 60 220 30 60 220 30 60 220 30 60 220 30 60 220 30 60 220 30 60 220 30 60 220 30 60 220 30 60 220 30 60 220 30 60 220 30 60 220 30 60 220 30 60 220 30 60 220 30 60 220 30 60 220 30 60 220 30 60 220 30 60 220 30 60 220 30 60 220 30 60 220 30 60 220 30 60 220 30 60 220 30 60 220 30 60 220 30 60 220 30 60 220 30 60 220 30 60 220 30 60 220 30 60 220 30 60 220 30 60 220 30 60 220 30 60 220 30 60 220 30 60 220 30 60 220 30 60 220 30 60 220 30 60 220 30 60 220 30 60 220 30 60 220 30 60 220 30 60 220 30 60 220 30 60 220 30 60 220 30 60 220 30 60 220 30 60 220 30 60 220 30 60 220 30 60 220 30 60 220 30 60 220 30 60 220 30 60 220 30 60 220 30 60 220 30 60 220 30 60 220 30 60 220 30 60 220 30 60 220 30 60 220 30 60 220 30 60 220 30 60 220 30 60 220 30 60 220 30 60 220 30 60 220 30 60 220 30 60 220 199 158 76 200 158 75 201 158 75 202 158 74 203 158 74 204 158 73 205 158 73 206 158 72 207 158 72 208 158 71 209 158 71 210 158 70 211 158 70 212 158 69 213 158 69 214 158 68 215 158 68 216 158 67 217 158 67 218 158 66 219 158 66 220 158 65 221 158 65 222 158 64 223 158 64 224 158 63 225 158 63 226 158 62 227 158 62 228 158 61 229 158 61 230 158 60 231 158 60 232 158 59 233 158 59 234 158 58 235 158 58 236 158 57 237 158 57 238 158 56 239 158 56 240 158 55 241 158 55 242 158 54 243 158 54 244 158 53 245 158 53 246 158 52 247 158 52 248 158 51 249 158 51 250 158 50 251 158 50 252 158 49 253 158 49 254 158 48 
0 159 175 0 159 174 1 159 174 2 159 173 3 159 173 4 159 172 5 159 172 6 159 171 7 159 171 8 159 170 9 159 170 10 159 169 11 159 169 12 159 168 13 159 168 14 159 167 15 159 167 16 159 166 17 159 166 18 159 165 19 159 165 20 159 164 21 159 164 22 159 163 23 159 163 24 159 162 25 159 162 26 159 161 27 159 161 28 159 160 29 159 160 30 159 159 31 159 159 32 159 158 33 159 158 34 159 157 35 159 157 36 159 156 37 159 156 38 159 155 39 159 155 40 159 154 41 159 154 42 159 153 43 159 153 44 159 152 45 159 152 46 159 151 47 159 151 48 159 150 49 159 150 50 159 149 51 159 149 52 159 148 53 159 148 54 159 147 55 159 147 56 159 146 57 159 146 58 159 145 59 159 145 30 60 220 30 60 220 30 60 220 30 60 220 30 60 220 30 60 220 30 60 220 30 60 220 30 60 220 30 60 220 30 60 220 30 60 220 30 60 220 30 60 220 30 60 220 30 60 220 30 60 220 30 60 220 30 60 220 30 60 220 30 60 220 30 60 220 30 60 220 30 60 220 30 60 220 30 60 220 30 60 220 30 60 220 30 60 220 30 60 220 30 60 220 30 60 220 30 60 220 30 60 220 30 60 220 30 60 220 30 60 220 30 60 220 30 60 220 30 60 220 30 60 220 30 60 220 30 60 220 30 60 220 30 60 220 30 60 220 30 60 220 30 60 220 30 60 220 30 60 220 30 60 220 30 60 220 30 60 220 30 60 220 30 60 220 30 60 220 30 60 220 30 60 220 30 60 220 30 60 220 30 60 220 30 60 220 30 60 220 30 60 220 30 60 220 30 60 220 30 60 220 30 60 220 30 60 220 30 60 220 30 60 220 30 60 220 30 60 220 30 60 220 30 60 220 30 60 220 30 60 220 30 60 220 30 60 220 30 60 220 30 60 220 30 60 220 30 60 220 30 60 220 30 60 220 30 60 220 30 60 220 30 60 220 30 60 220 30 60 220 30 60 220 30 60 220 30 60 220 30 60 220 30 60 220 30 60 220 30 60 220 30 60 220 30 60 220 30 60 220 30 60 220 30 60 220 30 60 220 30 60 220 30 60 220 30 60 220 30 60 220 30 60 220 30 60 220 30 60 220 30 60 220 30 60 220 30 60 220 30 60 220 30 60 220 30 60 220 30 60 220 30 60 220 30 60 220 30 60 220 30 60 220 30 60 220 30 60 220 30 60 220 30 60 220 30 60 220 30 60 220 30 60 220 30 60 220 30 60 220 30 60 220 30 60 220 30 60 220 30 60 220 30 60 220 30 60 220 30 60 220 30 60 220 30 60 220 199 159 75 200 159 75 201 159 74 202 159 74 203 159 73 204 159 73 205 159 72 206 159 72 207 159 71 208 159 71 209 159 70 210 159 70 211 159 69 212 159 69 213 159 68 214 159 68 215 159 67 216 159 67 217 159 66 218 159 66 219 159 65 220 159 65 221 159 64 222 159 64 223 159 63 224 159 63 225 159 62 226 159 62 227 159 61 228 159 61 229 159 60 230 159 60 231 159 59 232 159 59 233 159 58 234 159 58 235 159 57 236 159 57 237 159 56 238 159 56 239 159 55 240 159 55 241 159 54 242 159 54 243 159 53 244 159 53 245 159 52 246 159 52 247 159 51 248 159 51 249 159 50 250 159 50 251 159 49 252 159 49 253 159 48 254 159 48 
0 160 174 0 160 174 1 160 173 2 160 173 3 160 172 4 160 172 5 160 171 6 160 171 7 160 170 8 160 170 9 160 169 10 160 169 11 160 168 12 160 168 13 160 167 14 160 167 15 160 166 16 160 166 17 160 165 18 160 165 19 160 164 20 160 164 21 160 163 22 160 163 23 160 162 24 160 162 25 160 161 26 160 161 27 160 160 28 160 160 29 160 159 30 160 159 31 160 158 32 160 158 33 160 157 34 160 157 35 160 156 36 160 156 37 160 155 38 160 155 39 160 154 40 160 154 41 160 153 42 160 153 43 160 152 44 160 152 45 160 151 46 160 151 47 160 150 48 160 150 49 160 149 50 160 149 51 160 148 52 160 148 53 160 147 54 160 147 55 160 146 56 160 146 57 160 145 58 160 145 59 160 144 30 60 220 30 60 220 30 60 220 30 60 220 30 60 220 30 60 220 30 60 220 30 60 220 30 60 220 30 60 220 30 60 220 30 60 220 30 60 220 30 60 220 30 60 220 30 60 220 30 60 220 30 60 220 30 60 220 30 60 220 30 60 220 30 60 220 30 60 220 30 60 220 30 60 220 30 60 220 30 60 220 30 60 220 30 60 220 30 60 220 30 60 220 30 60 220 30 60 220 30 60 220 30 60 220 30 60 220 30 60 220 30 60 220 30 60 220 30 60 220 30 60 220 30 60 220 30 60 220 30 60 220 30 60 220 30 60 220 30 60 220 30 60 220 30 60 220 30 60 220 30 60 220 30 60 220 30 60 220 30 60 220 30 60 220 30 60 220 30 60 220 30 60 220 30 60 220 30 60 220 30 60 220 30 60 220 30 60 220 30 60 220 30 60 220 30 60 220 30 60 220 30 60 220 30 60 220 30 60 220 30 60 220 30 60 220 30 60 220 30 60 220 30 60 220 30 60 220 30 60 220 30 60 220 30 60 220 30 60 220 30 60 220 30 60 220 30 60 220 30 60 220 30 60 220 30 60 220 30 60 220 30 60 220 30 60 220 30 60 220 30 60 220 30 60 220 30 60 220 30 60 220 30 60 220 30 60 220 30 60 220 30 60 220 30 60 220 30 60 220 30 60 220 30 60 220 30 60 220 30 60 220 30 60 220 30 60 220 30 60 220 30 60 220 30 60 220 30 60 220 30 60 220 30 60 220 30 60 220 30 60 220 30 60 220 30 60 220 30 60 220 30 60 220 30 60 220 30 60 220 30 60 220 30 60 220 30 60 220 30 60 220 30 60 220 30 60 220 30 60 220 30 60 220 30 60 220 30 60 220 30 60 220 30 60 220 30 60 220 30 60 220 30 60 220 30 60 220 30 60 220 30 60 220 30 60 220 199 160 75 200 160 74 201 160 74 202 160 73 203 160 73 204 160 72 205 160 72 206 160 71 207 160 71 208 160 70 209 160 70 210 160 69 211 160 69 212 160 68 213 160 68 214 160 67 215 160 67 216 160 66 217 160 66 218 160 65 219 160 65 220 160 64 221 160 64 222 160 63 223 160 63 224 160 62 225 160 62 226 160 61 227 160 61 228 160 60 229 160 60 230 160 59 231 160 59 232 160 58 233 160 58 234 160 57 235 160 57 236 160 56 237 160 56 238 160 55 239 160 55 240 160 54 241 160 54 242 160 53 243 160 53 244 160 52 245 160 52 246 160 51 247 160 51 248 160 50 249 160 50 250 160 49 251 160 49 252 160 48 253 160 48 254 160 47 
0 161 174 0 161 173 1 161 173 2 161 172 3 161 172 4 161 171 5 161 171 6 161 170 7 161 170 8 161 169 9 161 169 10 161 168 11 161 168 12 161 167 13 161 167 14 161 166 15 161 166 16 161 165 17 161 165 18 161 164 19 161 164 20 161 163 21 161 163 22 161 162 23 161 162 24 161 161 25 161 161 26 161 160 27 161 160 28 161 159 29 161 159 30 161 158 31 161 158 32 161 157 33 161 157 34 161 156 35 161 156 36 161 155 37 161 155 38 161 154 39 161 154 40 161 153 41 161 153 42 161 152 43 161 152 44 161 151 45 161 151 46 161 150 47 161 150 48 161 149 49 161 149 50 161 148 51 161 148 52 161 147 53 161 147 54 161 146 55 161 146 56 161 145 57 161 145 58 161 144 59 161 144 30 60 220 30 60 220 30 60 220 30 60 220 30 60 220 30 60 220 30 60 220 30 60 220 30 60 220 30 60 220 30 60 220 30 60 220 30 60 220 30 60 220 30 60 220 30 60 220 30 60 220 30 60 220 30 60 220 30 60 220 30 60 220 30 60 220 30 60 220 30 60 220 30 60 220 30 60 220 30 60 220 30 60 220 30 60 220 30 60 220 30 60 220 30 60 220 30 60 220 30 60 220 30 60 220 30 60 220 30 60 220 30 60 220 30 60 220 30 60 220 30 60 220 30 60 220 30 60 220 30 60 220 30 60 220 30 60 220 30 60 220 30 60 220 30 60 220 30 60 220 30 60 220 30 60 220 30 60 220 30 60 220 30 60 220 30 60 220 30 60 220 30 60 220 30 60 220 30 60 220 30 60 220 30 60 220 30 60 220 30 60 220 30 60 220 30 60 220 30 60 220 30 60 220 30 60 220 30 60 220 30 60 220 30 60 220 30 60 220 30 60 220 30 60 220 30 60 220 30 60 220 30 60 220 30 60 220 30 60 220 30 60 220 30 60 220 30 60 220 30 60 220 30 60 220 30 60 220 30 60 220 30 60 220 30 60 220 30 60 220 30 60 220 30 60 220 30 60 220 30 60 220 30 60 220 30 60 220 30 60 220 30 60 220 30 60 220 30 60 220 30 60 220 30 60 220 30 60 220 30 60 220 30 60 220 30 60 220 30 60 220 30 60 220 30 60 220 30 60 220 30 60 220 30 60 220 30 60 220 30 60 220 30 60 220 30 60 220 30 60 220 30 60 220 30 60 220 30 60 220 30 60 220 30 60 220 30 60 220 30 60 220 30 60 220 30 60 220 30 60 220 30 60 220 30 60 220 30 60 220 30 60 220 30 60 220 30 60 220 30 60 220 30 60 220 30 60 220 30 60 220 30 60 220 30 60 220 199 161 74 200 161 74 201 161 73 202 161 73 203 161 72 204 161 72 205 161 71 206 161 71 207 161 70 208 161 70 209 161 69 210 161 69 211 161 68 212 161 68 213 161 67 214 161 67 215 161 66 216 161 66 217 161 65 218 161 65 219 161 64 220 161 64 221 161 63 222 161 63 223 161 62 224 161 62 225 161 61 226 161 61 227 161 60 228 161 60 229 161 59 230 161 59 231 161 58 232 161 58 233 161 57 234 161 57 235 161 56 236 161 56 237 161 55 238 161 55 239 161 54 240 161 54 241 161 53 242 161 53 243 161 52 244 161 52 245 161 51 246 161 51 247 161 50 248 161 50 249 161 49 250 161 49 251 161 48 252 161 48 253 161 47 254 161 47 
0 162 173 0 162 173 1 162 172 2 162 172 3 162 171 4 162 171 5 162 170 6 162 170 7 162 169 8 162 169 9 162 168 10 162 168 11 162 167 12 162 167 13 162 166 14 162 166 15 162 165 16 162 165 17 162 164 18 162 164 19 162 163 20 162 163 21 162 162 22 162 162 23 162 161 24 162 161 25 162 160 26 162 160 27 162 159 28 162 159 29 162 158 30 162 158 31 162 157 32 162 157 33 162 156 34 162 156 35 162 155 36 162 155 37 162 154 38 162 154 39 162 153 40 162 153 41 162 152 42 162 152 43 162 151 44 162 151 45 162 150 46 162 150 47 162 149 48 162 149 49 162 148 50 162 148 51 162 147 52 162 147 53 162 146 54 162 146 55 162 145 56 162 145 57 162 144 58 162 144 59 162 143 30 60 220 30 60 220 30 60 220 30 60 220 30 60 220 30 60 220 30 60 220 30 60 220 30 60 220 30 60 220 30 60 220 30 60 220 30 60 220 30 60 220 30 60 220 30 60 220 30 60 220 30 60 220 30 60 220 30 60 220 30 60 220 30 60 220 30 60 220 30 60 220 30 60 220 30 60 220 30 60 220 30 60 220 30 60 220 30 60 220 30 60 220 30 60 220 30 60 220 30 60 220 30 60 220 30 60 220 30 60 220 30 60 220 30 60 220 30 60 220 30 60 220 30 60 220 30 60 220 30 60 220 30 60 220 30 60 220 30 60 220 30 60 220 30 60 220 30 60 220 30 60 220 30 60 220 30 60 220 30 60 220 30 60 220 30 60 220 30 60 220 30 60 220 30 60 220 30 60 220 30 60 220 30 60 220 30 60 220 30 60 220 30 60 220 30 60 220 30 60 220 30 60 220 30 60 220 30 60 220 30 60 220 30 60 220 30 60 220 30 60 220 30 60 220 30 60 220 30 60 220 30 60 220 30 60 220 30 60 220 30 60 220 30 60 220 30 60 220 30 60 220 30 60 220 30 60 220 30 60 220 30 60 220 30 60 220 30 60 220 30 60 220 30 60 220 30 60 220 30 60 220 30 60 220 30 60 220 30 60 220 30 60 220 30 60 220 30 60 220 30 60 220 30 60 220 30 60 220 30 60 220 30 60 220 30 60 220 30 60 220 30 60 220 30 60 220 30 60 220 30 60 220 30 60 220 30 60 220 30 60 220 30 60 220 30 60 220 30 60 220 30 60 220 30 60 220 30 60 220 30 60 220 30 60 220 30 60 220 30 60 220 30 60 220 30 60 220 30 60 220 30 60 220 30 60 220 30 60 220 30 60 220 30 60 220 30 60 220 30 60 220 30 60 220 30 60 220 30 60 220 30 60 220 30 60 220 199 162 74 200 162 73 201 162 73 202 162 72 203 162 72 204 162 71 205 162 71 206 162 70 207 162 70 208 162 69 209 162 69 210 162 68 211 162 68 212 162 67 213 162 67 214 162 66 215 162 66 216 162 65 217 162 65 218 162 64 219 162 64 220 162 63 221 162 63 222 162 62 223 162 62 224 162 61 225 162 61 226 162 60 227 162 60 228 162 59 229 162 59 230 162 58 231 162 58 232 162 57 233 162 57 234 162 56 235 162 56 236 162 55 237 162 55 238 162 54 239 162 54 240 162 53 241 162 53 242 162 52 243 162 52 244 162 51 245 162 51 246 162 50 247 162 50 248 162 49 249 162 49 250 162 48 251 162 48 252 162 47 253 162 47 254 162 46 
0 163 173 0 163 172 1 163 172 2 163 171 3 163 171 4 163 170 5 163 170 6 163 169 7 163 169 8 163 168 9 163 168 10 163 167 11 163 167 12 163 166 13 163 166 14 163 165 15 163 165 16 163 164 17 163 164 18 163 163 19 163 163 20 163 162 21 163 162 22 163 161 23 163 161 24 163 160 25 163 160 26 163 159 27 163 159 28 163 158 29 163 158 30 163 157 31 163 157 32 163 156 33 163 156 34 163 155 35 163 155 36 163 154 37 163 154 38 163 153 39 163 153 40 163 152 41 163 152 42 163 151 43 163 151 44 163 150 45 163 150 46 163 149 47 163 149 48 163 148 49 163 148 50 163 147 51 163 147 52 163 146 53 163 146 54 163 145 55 163 145 56 163 144 57 163 144 58 163 143 59 163 143 30 60 220 30 60 220 30 60 220 30 60 220 30 60 220 30 60 220 30 60 220 30 60 220 30 60 220 30 60 220 30 60 220 30 60 220 30 60 220 30 60 220 30 60 220 30 60 220 30 60 220 30 60 220 30 60 220 30 60 220 30 60 220 30 60 220 30 60 220 30 60 220 30 60 220 30 60 220 30 60 220 30 60 220 30 60 220 30 60 220 30 60 220 30 60 220 30 60 220 30 60 220 30 60 220 30 60 220 30 60 220 30 60 220 30 60 220 30 60 220 30 60 220 30 60 220 30 60 220 30 60 220 30 60 220 30 60 220 30 60 220 30 60 220 30 60 220 30 60 220 30 60 220 30 60 220 30 60 220 30 60 220 30 60 220 30 60 220 30 60 220 30 60 220 30 60 220 30 60 220 30 60 220 30 60 220 30 60 220 30 60 220 30 60 220 30 60 220 30 60 220 30 60 220 30 60 220 30 60 220 30 60 220 30 60 220 30 60 220 30 60 220 30 60 220 30 60 220 30 60 220 30 60 220 30 60 220 30 60 220 30 60 220 30 60 220 30 60 220 30 60 220 30 60 220 30 60 220 30 60 220 30 60 220 30 60 220 30 60 220 30 60 220 30 60 220 30 60 220 30 60 220 30 60 220 30 60 220 30 60 220 30 60 220 30 60 220 30 60 220 30 60 220 30 60 220 30 60 220 30 60 220 30 60 220 30 60 220 30 60 220 30 60 220 30 60 220 30 60 220 30 60 220 30 60 220 30 60 220 30 60 220 30 60 220 30 60 220 30 60 220 30 60 220 30 60 220 30 60 220 30 60 220 30 60 220 30 60 220 30 60 220 30 60 220 30 60 220 30 60 220 30 60 220 30 60 220 30 60 220 30 60 220 30 60 220 30 60 220 30 60 220 30 60 220 30 60 220 30 60 220 30 60 220 30 60 220 199 163 73 200 163 73 201 163 72 202 163 72 203 163 71 204 163 71 205 163 70 206 163 70 207 163 69 208 163 69 209 163 68 210 163 68 211 163 67 212 163 67 213 163 66 214 163 66 215 163 65 216 163 65 217 163 64 218 163 64 219 163 63 220 163 63 221 163 62 222 163 62 223 163 61 224 163 61 225 163 60 226 163 60 227 163 59 228 163 59 229 163 58 230 163 58 231 163 57 232 163 57 233 163 56 234 163 56 235 163 55 236 163 55 237 163 54 238 163 54 239 163 53 240 163 53 241 163 52 242 163 52 243 163 51 244 163 51 245 163 50 246 163 50 247 163 49 248 163 49 249 163 48 250 163 48 251 163 47 252 163 47 253 163 46 254 163 46 
0 164 172 0 164 172 1 164 171 2 164 171 3 164 170 4 164 170 5 164 169 6 164 169 7 164 168 8 164 168 9 164 167 10 164 167 11 164 166 12 164 166 13 164 165 14 164 165 15 164 164 16 164 164 17 164 163 18 164 163 19 164 162 20 164 162 21 164 161 22 164 161 23 164 160 24 164 160 25 164 159 26 164 159 27 164 158 28 164 158 29 164 157 30 164 157 31 164 156 32 164 156 33 164 155 34 164 155 35 164 154 36 164 154 37 164 153 38 164 153 39 164 152 40 164 152 41 164 151 42 164 151 43 164 150 44 164 150 45 164 149 46 164 149 47 164 148 48 164 148 49 164 147 50 164 147 51 164 146 52 164 146 53 164 145 54 164 145 55 164 144 56 164 144 57 164 143 58 164 143 59 164 142 30 60 220 30 60 220 30 60 220 30 60 220 30 60 220 30 60 220 30 60 220 30 60 220 30 60 220 30 60 220 30 60 220 30 60 220 30 60 220 30 60 220 30 60 220 30 60 220 30 60 220 30 60 220 30 60 220 30 60 220 30 60 220 30 60 220 30 60 220 30 60 220 30 60 220 30 60 220 30 60 220 30 60 220 30 60 220 30 60 220 30 60 220 30 60 220 30 60 220 30 60 220 30 60 220 30 60 220 30 60 220 30 60 220 30 60 220 30 60 220 30 60 220 30 60 220 30 60 220 30 60 220 30 60 220 30 60 220 30 60 220 30 60 220 30 60 220 30 60 220 30 60 220 30 60 220 30 60 220 30 60 220 30 60 220 30 60 220 30 60 220 30 60 220 30 60 220 30 60 220 30 60 220 30 60 220 30 60 220 30 60 220 30 60 220 30 60 220 30 60 220 30 60 220 30 60 220 30 60 220 30 60 220 30 60 220 30 60 220 30 60 220 30 60 220 30 60 220 30 60 220 30 60 220 30 60 220 30 60 220 30 60 220 30 60 220 30 60 220 30 60 220 30 60 220 30 60 220 30 60 220 30 60 220 30 60 220 30 60 220 30 60 220 30 60 220 30 60 220 30 60 220 30 60 220 30 60 220 30 60 220 30 60 220 30 60 220 30 60 220 30 60 220 30 60 220 30 60 220 30 60 220 30 60 220 30 60 220 30 60 220 30 60 220 30 60 220 30 60 220 30 60 220 30 60 220 30 60 220 30 60 220 30 60 220 30 60 220 30 60 220 30 60 220 30 60 220 30 60 220 30 60 220 30 60 220 30 60 220 30 60 220 30 60 220 30 60 220 30 60 220 30 60 220 30 60 220 30 60 220 30 60 220 30 60 220 30 60 220 30 60 220 30 60 220 30 60 220 30 60 220 30 60 220 30 60 220 199 164 73 200 164 72 201 164 72 202 164 71 203 164 71 204 164 70 205 164 70 206 164 69 207 164 69 208 164 68 209 164 68 210 164 67 211 164 67 212 164 66 213 164 66 214 164 65 215 164 65 216 164 64 217 164 64 218 164 63 219 164 63 220 164 62 221 164 62 222 164 61 223 164 61 224 164 60 225 164 60 226 164 59 227 164 59 228 164 58 229 164 58 230 164 57 231 164 57 232 164 56 233 164 56 234 164 55 235 164 55 236 164 54 237 164 54 238 164 53 239 164 53 240 164 52 241 164 52 242 164 51 243 164 51 244 164 50 245 164 50 246 164 49 247 164 49 248 164 48 249 164 48 250 164 47 251 164 47 252 164 46 253 164 46 254 164 45 
0 165 172 0 165 171 1 165 171 2 165 170 3 165 170 4 165 169 5 165 169 6 165 168 7 165 168 8 165 167 9 165 167 10 165 166 11 165 166 12 165 165 13 165 165 14 165 164 15 165 164 16 165 163 17 165 163 18 165 162 19 165 162 20 165 161 21 165 161 22 165 160 23 165 160 24 165 159 25 165 159 26 165 158 27 165 158 28 165 157 29 165 157 30 165 156 31 165 156 32 165 155 33 165 155 34 165 154 35 165 154 36 165 153 37 165 153 38 165 152 39 165 152 40 165 151 41 165 151 42 165 150 43 165 150 44 165 149 45 165 149 46 165 148 47 165 148 48 165 147 49 165 147 50 165 146 51 165 146 52 165 145 53 165 145 54 165 144 55 165 144 56 165 143 57 165 143 58 165 142 59 165 142 30 60 220 30 60 220 30 60 220 30 60 220 30 60 220 30 60 220 30 60 220 30 60 220 30 60 220 30 60 220 30 60 220 30 60 220 30 60 220 30 60 220 30 60 220 30 60 220 30 60 220 30 60 220 30 60 220 30 60 220 30 60 220 30 60 220 30 60 220 30 60 220 30 60 220 30 60 220 30 60 220 30 60 220 30 60 220 30 60 220 30 60 220 30 60 220 30 60 220 30 60 220 30 60 220 30 60 220 30 60 220 30 60 220 30 60 220 30 60 220 30 60 220 30 60 220 30 60 220 30 60 220 30 60 220 30 60 220 30 60 220 30 60 220 30 60 220 30 60 220 30 60 220 30 60 220 30 60 220 30 60 220 30 60 220 30 60 220 30 60 220 30 60 220 30 60 220 30 60 220 30 60 220 30 60 220 30 60 220 30 60 220 30 60 220 30 60 220 30 60 220 30 60 220 30 60 220 30 60 220 30 60 220 30 60 220 30 60 220 30 60 220 30 60 220 30 60 220 30 60 220 30 60 220 30 60 220 30 60 220 30 60 220 30 60 220 30 60 220 30 60 220 30 60 220 30 60 220 30 60 220 30 60 220 30 60 220 30 60 220 30 60 220 30 60 220 30 60 220 30 60 220 30 60 220 30 60 220 30 60 220 30 60 220 30 60 220 30 60 220 30 60 220 30 60 220 30 60 220 30 60 220 30 60 220 30 60 220 30 60 220 30 60 220 30 60 220 30 60 220 30 60 220 30 60 220 30 60 220 30 60 220 30 60 220 30 60 220 30 60 220 30 60 220 30 60 220 30 60 220 30 60 220 30 60 220 30 60 220 30 60 220 30 60 220 30 60 220 30 60 220 30 60 220 30 60 220 30 60 220 30 60 220 30 60 220 30 60 220 30 60 220 30 60 220 30 60 220 30 60 220 30 60 220 30 60 220 199 165 72 200 165 72 201 165 71 202 165 71 203 165 70 204 165 70 205 165 69 206 165 69 207 165 68 208 165 68 209 165 67 210 165 67 211 165 66 212 165 66 213 165 65 214 165 65 215 165 64 216 165 64 217 165 63 218 165 63 219 165 62 220 165 62 221 165 61 222 165 61 223 165 60 224 165 60 225 165 59 226 165 59 227 165 58 228 165 58 229 165 57 230 165 57 231 165 56 232 165 56 233 165 55 234 165 55 235 165 54 236 165 54 237 165 53 238 165 53 239 165 52 240 165 52 241 165 51 242 165 51 243 165 50 244 165 50 245 165 49 246 165 49 247 165 48 248 165 48 249 165 47 250 165 47 251 165 46 252 165 46 253 165 45 254 165 45 
0 166 171 0 166 171 1 166 170 2 166 170 3 166 169 4 166 169 5 166 168 6 166 168 7 166 167 8 166 167 9 166 166 10 166 166 11 166 165 12 166 165 13 166 164 14 166 164 15 166 163 16 166 163 17 166 162 18 166 162 19 166 161 20 166 161 21 166 160 22 166 160 23 166 159 24 166 159 25 166 158 26 166 158 27 166 157 28 166 157 29 166 156 30 166 156 31 166 155 32 166 155 33 166 154 34 166 154 35 166 153 36 166 153 37 166 152 38 166 152 39 166 151 40 166 151 41 166 150 42 166 150 43 166 149 44 166 149 45 166 148 46 166 148 47 166 147 48 166 147 49 166 146 50 166 146 51 166 145 52 166 145 53 166 144 54 166 144 55 166 143 56 166 143 57 166 142 58 166 142 59 166 141 30 60 220 30 60 220 30 60 220 30 60 220 30 60 220 30 60 220 30 60 220 30 60 220 30 60 220 30 60 220 30 60 220 30 60 220 30 60 220 30 60 220 30 60 220 30 60 220 30 60 220 30 60 220 30 60 220 30 60 220 30 60 220 30 60 220 30 60 220 30 60 220 30 60 220 30 60 220 30 60 220 30 60 220 30 60 220 30 60 220 30 60 220 30 60 220 30 60 220 30 60 220 30 60 220 30 60 220 30 60 220 30 60 220 30 60 220 30 60 220 30 60 220 30 60 220 30 60 220 30 60 220 30 60 220 30 60 220 30 60 220 30 60 220 30 60 220 30 60 220 30 60 220 30 60 220 30 60 220 30 60 220 30 60 220 30 60 220 30 60 220 30 60 220 30 60 220 30 60 220 30 60 220 30 60 220 30 60 220 30 60 220 30 60 220 30 60 220 30 60 220 30 60 220 30 60 220 30 60 220 30 60 220 30 60 220 30 60 220 30 60 220 30 60 220 30 60 220 30 60 220 30 60 220 30 60 220 30 60 220 30 60 220 30 60 220 30 60 220 30 60 220 30 60 220 30 60 220 30 60 220 30 60 220 30 60 220 30 60 220 30 60 220 30 60 220 30 60 220 30 60 220 30 60 220 30 60 220 30 60 220 30 60 220 30 60 220 30 60 220 30 60 220 30 60 220 30 60 220 30 60 220 30 60 220 30 60 220 30 60 220 30 60 220 30 60 220 30 60 220 30 60 220 30 60 220 30 60 220 30 60 220 30 60 220 30 60 220 30 60 220 30 60 220 30 60 220 30 60 220 30 60 220 30 60 220 30 60 220 30 60 220 30 60 220 30 60 220 30 60 220 30 60 220 30 60 220 30 60 220 30 60 220 30 60 220 30 60 220 30 60 220 30 60 220 30 60 220 30 60 220 30 60 220 30 60 220 199 166 72 200 166 71 201 166 71 202 166 70 203 166 70 204 166 69 205 166 69 206 166 68 207 166 68 208 166 67 209 166 67 210 166 66 211 166 66 212 166 65 213 166 65 214 166 64 215 166 64 216 166 63 217 166 63 218 166 62 219 166 62 220 166 61 221 166 61 222 166 60 223 166 60 224 166 59 225 166 59 226 166 58 227 166 58 228 166 57 229 166 57 230 166 56 231 166 56 232 166 55 233 166 55 234 166 54 235 166 54 236 166 53 237 166 53 238 166 52 239 166 52 240 166 51 241 166 51 242 166 50 243 166 50 244 166 49 245 166 49 246 166 48 247 166 48 248 166 47 249 166 47 250 166 46 251 166 46 252 166 45 253 166 45 254 166 44 
0 167 171 0 167 170 1 167 170 2 167 169 3 167 169 4 167 168 5 167 168 6 167 167 7 167 167 8 167 166 9 167 166 10 167 165 11 167 165 12 167 164 13 167 164 14 167 163 15 167 163 16 167 162 17 167 162 18 167 161 19 167 161 20 167 160 21 167 160 22 167 159 23 167 159 24 167 158 25 167 158 26 167 157 27 167 157 28 167 156 29 167 156 30 167 155 31 167 155 32 167 154 33 167 154 34 167 153 35 167 153 36 167 152 37 167 152 38 167 151 39 167 151 40 167 150 41 167 150 42 167 149 43 167 149 44 167 148 45 167 148 46 167 147 47 167 147 48 167 146 49 167 146 50 167 145 51 167 145 52 167 144 53 167 144 54 167 143 55 167 143 56 167 142 57 167 142 58 167 141 59 167 141 30 60 220 30 60 220 30 60 220 30 60 220 30 60 220 30 60 220 30 60 220 30 60 220 30 60 220 30 60 220 30 60 220 30 60 220 30 60 220 30 60 220 30 60 220 30 60 220 30 60 220 30 60 220 30 60 220 30 60 220 30 60 220 30 60 220 30 60 220 30 60 220 30 60 220 30 60 220 30 60 220 30 60 220 30 60 220 30 60 220 30 60 220 30 60 220 30 60 220 30 60 220 30 60 220 30 60 220 30 60 220 30 60 220 30 60 220 30 60 220 30 60 220 30 60 220 30 60 220 30 60 220 30 60 220 30 60 220 30 60 220 30 60 220 30 60 220 30 60 220 30 60 220 30 60 220 30 60 220 30 60 220 30 60 220 30 60 220 30 60 220 30 60 220 30 60 220 30 60 220 30 60 220 30 60 220 30 60 220 30 60 220 30 60 220 30 60 220 30 60 220 30 60 220 30 60 220 30 60 220 30 60 220 30 60 220 30 60 220 30 60 220 30 60 220 30 60 220 30 60 220 30 60 220 30 60 220 30 60 220 30 60 220 30 60 220 30 60 220 30 60 220 30 60 220 30 60 220 30 60 220 30 60 220 30 60 220 30 60 220 30 60 220 30 60 220 30 60 220 30 60 220 30 60 220 30 60 220 30 60 220 30 60 220 30 60 220 30 60 220 30 60 220 30 60 220 30 60 220 30 60 220 30 60 220 30 60 220 30 60 220 30 60 220 30 60 220 30 60 220 30 60 220 30 60 220 30 60 220 30 60 220 30 60 220 30 60 220 30 60 220 30 60 220 30 60 220 30 60 220 30 60 220 30 60 220 30 60 220 30 60 220 30 60 220 30 60 220 30 60 220 30 60 220 30 60 220 30 60 220 30 60 220 30 60 220 30 60 220 30 60 220 30 60 220 30 60 220 30 60 220 30 60 220 30 60 220 199 167 71 200 167 71 201 167 70 202 167 70 203 167 69 204 167 69 205 167 68 206 167 68 207 167 67 208 167 67 209 167 66 210 167 66 211 167 65 212 167 65 213 167 64 214 167 64 215 167 63 216 167 63 217 167 62 218 167 62 219 167 61 220 167 61 221 167 60 222 167 60 223 167 59 224 167 59 225 167 58 226 167 58 227 167 57 228 167 57 229 167 56 230 167 56 231 167 55 232 167 55 233 167 54 234 167 54 235 167 53 236 167 53 237 167 52 238 167 52 239 167 51 240 167 51 241 167 50 242 167 50 243 167 49 244 167 49 245 167 48 246 167 48 247 167 47 248 167 47 249 167 46 250 167 46 251 167 45 252 167 45 253 167 44 254 167 44 
0 168 170 0 168 170 1 168 169 2 168 169 3 168 168 4 168 168 5 168 167 6 168 167 7 168 166 8 168 166 9 168 165 10 168 165 11 168 164 12 168 164 13 168 163 14 168 163 15 168 162 16 168 162 17 168 161 18 168 161 19 168 160 20 168 160 21 168 159 22 168 159 23 168 158 24 168 158 25 168 157 26 168 157 27 168 156 28 168 156 29 168 155 30 168 155 31 168 154 32 168 154 33 168 153 34 168 153 35 168 152 36 168 152 37 168 151 38 168 151 39 168 150 40 168 150 41 168 149 42 168 149 43 168 148 44 168 148 45 168 147 46 168 147 47 168 146 48 168 146 49 168 145 50 168 145 51 168 144 52 168 144 53 168 143 54 168 143 55 168 142 56 168 142 57 168 141 58 168 141 59 168 140 30 60 220 30 60 220 30 60 220 30 60 220 30 60 220 30 60 220 30 60 220 30 60 220 30 60 220 30 60 220 30 60 220 30 60 220 30 60 220 30 60 220 30 60 220 30 60 220 30 60 220 30 60 220 30 60 220 30 60 220 30 60 220 30 60 220 30 60 220 30 60 220 30 60 220 30 60 220 30 60 220 30 60 220 30 60 220 30 60 220 30 60 220 30 60 220 30 60 220 30 60 220 30 60 220 30 60 220 30 60 220 30 60 220 30 60 220 30 60 220 30 60 220 30 60 220 30 60 220 30 60 220 30 60 220 30 60 220 30 60 220 30 60 220 30 60 220 30 60 220 30 60 220 30 60 220 30 60 220 30 60 220 30 60 220 30 60 220 30 60 220 30 60 220 30 60 220 30 60 220 30 60 220 30 60 220 30 60 220 30 60 220 30 60 220 30 60 220 30 60 220 30 60 220 30 60 220 30 60 220 30 60 220 30 60 220 30 60 220 30 60 220 30 60 220 30 60 220 30 60 220 30 60 220 30 60 220 30 60 220 30 60 220 30 60 220 30 60 220 30 60 220 30 60 220 30 60 220 30 60 220 30 60 220 30 60 220 30 60 220 30 60 220 30 60 220 30 60 220 30 60 220 30 60 220 30 60 220 30 60 220 30 60 220 30 60 220 30 60 220 30 60 220 30 60 220 30 60 220 30 60 220 30 60 220 30 60 220 30 60 220 30 60 220 30 60 220 30 60 220 30 60 220 30 60 220 30 60 220 30 60 220 30 60 220 30 60 220 30 60 220 30 60 220 30 60 220 30 60 220 30 60 220 30 60 220 30 60 220 30 60 220 30 60 220 30 60 220 30 60 220 30 60 220 30 60 220 30 60 220 30 60 220 30 60 220 30 60 220 30 60 220 30 60 220 30 60 220 30 60 220 30 60 220 30 60 220 199 168 71 200 168 70 201 168 70 202 168 69 203 168 69 204 168 68 205 168 68 206 168 67 207 168 67 208 168 66 209 168 66 210 168 65 211 168 65 212 168 64 213 168 64 214 168 63 215 168 63 216 168 62 217 168 62 218 168 61 219 168 61 220 168 60 221 168 60 222 168 59 223 168 59 224 168 58 225 168 58 226 168 57 227 168 57 228 168 56 229 168 56 230 168 55 231 168 55 232 168 54 233 168 54 234 168 53 235 168 53 236 168 52 237 168 52 238 168 51 239 168 51 240 168 50 241 168 50 242 168 49 243 168 49 244 168 48 245 168 48 246 168 47 247 168 47 248 168 46 249 168 46 250 168 45 251 168 45 252 168 44 253 168 44 254 168 43 
0 169 170 0 169 169 1 169 169 2 169 168 3 169 168 4 169 167 5 169 167 6 169 166 7 169 166 8 169 165 9 169 165 10 169 164 11 169 164 12 169 163 13 169 163 14 169 162 15 169 162 16 169 161 17 169 161 18 169 160 19 169 160 20 169 159 21 169 159 22 169 158 23 169 158 24 169 157 25 169 157 26 169 156 27 169 156 28 169 155 29 169 155 30 169 154 31 169 154 32 169 153 33 169 153 34 169 152 35 169 152 36 169 151 37 169 151 38 169 150 39 169 150 40 169 149 41 169 149 42 169 148 43 169 148 44 169 147 45 169 147 46 169 146 47 169 146 48 169 145 49 169 145 50 169 144 51 169 144 52 169 143 53 169 143 54 169 142 55 169 142 56 169 141 57 169 141 58 169 140 59 169 140 30 60 220 30 60 220 30 60 220 30 60 220 30 60 220 30 60 220 30 60 220 30 60 220 30 60 220 30 60 220 30 60 220 30 60 220 30 60 220 30 60 220 30 60 220 30 60 220 30 60 220 30 60 220 30 60 220 30 60 220 30 60 220 30 60 220 30 60 220 30 60 220 30 60 220 30 60 220 30 60 220 30 60 220 30 60 220 30 60 220 30 60 220 30 60 220 30 60 220 30 60 220 30 60 220 30 60 220 30 60 220 30 60 220 30 60 220 30 60 220 30 60 220 30 60 220 30 60 220 30 60 220 30 60 220 30 60 220 30 60 220 30 60 220 30 60 220 30 60 220 30 60 220 30 60 220 30 60 220 30 60 220 30 60 220 30 60 220 30 60 220 30 60 220 30 60 220 30 60 220 30 60 220 30 60 220 30 60 220 30 60 220 30 60 220 30 60 220 30 60 220 30 60 220 30 60 220 30 60 220 30 60 220 30 60 220 30 60 220 30 60 220 30 60 220 30 60 220 30 60 220 30 60 220 30 60 220 30 60 220 30 60 220 30 60 220 30 60 220 30 60 220 30 60 220 30 60 220 30 60 220 30 60 220 30 60 220 30 60 220 30 60 220 30 60 220 30 60 220 30 60 220 30 60 220 30 60 220 30 60 220 30 60 220 30 60 220 30 60 220 30 60 220 30 60 220 30 60 220 30 60 220 30 60 220 30 60 220 30 60 220 30 60 220 30 60 220 30 60 220 30 60 220 30 60 220 30 60 220 30 60 220 30 60 220 30 60 220 30 60 220 30 60 220 30 60 220 30 60 220 30 60 220 30 60 220 30 60 220 30 60 220 30 60 220 30 60 220 30 60 220 30 60 220 30 60 220 30 60 220 30 60 220 30 60 220 30 60 220 30 60 220 30 60 220 30 60 220 30 60 220 30 60 220 30 60 220 199 169 70 200 169 70 201 169 69 202 169 69 203 169 68 204 169 68 205 169 67 206 169 67 207 169 66 208 169 66 209 169 65 210 169 65 211 169 64 212 169 64 213 169 63 214 169 63 215 169 62 216 169 62 217 169 61 218 169 61 219 169 60 220 169 60 221 169 59 222 169 59 223 169 58 224 169 58 225 169 57 226 169 57 227 169 56 228 169 56 229 169 55 230 169 55 231 169 54 232 169 54 233 169 53 234 169 53 235 169 52 236 169 52 237 169 51 238 169 51 239 169 50 240 169 50 241 169 49 242 169 49 243 169 48 244 169 48 245 169 47 246 169 47 247 169 46 248 169 46 249 169 45 250 169 45 251 169 44 252 169 44 253 169 43 254 169 43 
0 170 169 0 170 169 1 170 168 2 170 168 3 170 167 4 170 167 5 170 166 6 170 166 7 170 165 8 170 165 9 170 164 10 170 164 11 170 163 12 170 163 13 170 162 14 170 162 15 170 161 16 170 161 17 170 160 18 170 160 19 170 159 20 170 159 21 170 158 22 170 158 23 170 157 24 170 157 25 170 156 26 170 156 27 170 155 28 170 155 29 170 154 30 170 154 31 170 153 32 170 153 33 170 152 34 170 152 35 170 151 36 170 151 37 170 150 38 170 150 39 170 149 40 170 149 41 170 148 42 170 148 43 170 147 44 170 147 45 170 146 46 170 146 47 170 145 48 170 145 49 170 144 50 170 144 51 170 143 52 170 143 53 170 142 54 170 142 55 170 141 56 170 141 57 170 140 58 170 140 59 170 139 30 60 220 30 60 220 30 60 220 30 60 220 30 60 220 30 60 220 30 60 220 30 60 220 30 60 220 30 60 220 30 60 220 30 60 220 30 60 220 30 60 220 30 60 220 30 60 220 30 60 220 30 60 220 30 60 220 30 60 220 30 60 220 30 60 220 30 60 220 30 60 220 30 60 220 30 60 220 30 60 220 30 60 220 30 60 220 30 60 220 30 60 220 30 60 220 30 60 220 30 60 220 30 60 220 30 60 220 30 60 220 30 60 220 30 60 220 30 60 220 30 60 220 30 60 220 30 60 220 30 60 220 30 60 220 30 60 220 30 60 220 30 60 220 30 60 220 30 60 220 30 60 220 30 60 220 30 60 220 30 60 220 30 60 220 30 60 220 30 60 220 30 60 220 30 60 220 30 60 220 30 60 220 30 60 220 30 60 220 30 60 220 30 60 220 30 60 220 30 60 220 30 60 220 30 60 220 30 60 220 30 60 220 30 60 220 30 60 220 30 60 220 30 60 220 30 60 220 30 60 220 30 60 220 30 60 220 30 60 220 30 60 220 30 60 220 30 60 220 30 60 220 30 60 220 30 60 220 30 60 220 30 60 220 30 60 220 30 60 220 30 60 220 30 60 220 30 60 220 30 60 220 30 60 220 30 60 220 30 60 220 30 60 220 30 60 220 30 60 220 30 60 220 30 60 220 30 60 220 30 60 220 30 60 220 30 60 220 30 60 220 30 60 220 30 60 220 30 60 220 30 60 220 30 60 220 30 60 220 30 60 220 30 60 220 30 60 220 30 60 220 30 60 220 30 60 220 30 60 220 30 60 220 30 60 220 30 60 220 30 60 220 30 60 220 30 60 220 30 60 220 30 60 220 30 60 220 30 60 220 30 60 220 30 60 220 30 60 220 30 60 220 30 60 220 30 60 220 30 60 220 30 60 220 30 60 220 199 170 70 200 170 69 201 170 69 202 170 68 203 170 68 204 170 67 205 170 67 206 170 66 207 170 66 208 170 65 209 170 65 210 170 64 211 170 64 212 170 63 213 170 63 214 170 62 215 170 62 216 170 61 217 170 61 218 170 60 219 170 60 220 170 59 221 170 59 222 170 58 223 170 58 224 170 57 225 170 57 226 170 56 227 170 56 228 170 55 229 170 55 230 170 54 231 170 54 232 170 53 233 170 53 234 170 52 235 170 52 236 170 51 237 170 51 238 170 50 239 170 50 240 170 49 241 170 49 242 170 48 243 170 48 244 170 47 245 170 47 246 170 46 247 170 46 248 170 45 249 170 45 250 170 44 251 170 44 252 170 43 253 170 43 254 170 42 
0 171 169 0 171 168 1 171 168 2 171 167 3 171 167 4 171 166 5 171 166 6 171 165 7 171 165 8 171 164 9 171 164 10 171 163 11 171 163 12 171 162 13 171 162 14 171 161 15 171 161 16 171 160 17 171 160 18 171 159 19 171 159 20 171 158 21 171 158 22 171 157 23 171 157 24 171 156 25 171 156 26 171 155 27 171 155 28 171 154 29 171 154 30 171 153 31 171 153 32 171 152 33 171 152 34 171 151 35 171 151 36 171 150 37 171 150 38 171 149 39 171 149 40 171 148 41 171 148 42 171 147 43 171 147 44 171 146 45 171 146 46 171 145 47 171 145 48 171 144 49 171 144 50 171 143 51 171 143 52 171 142 53 171 142 54 171 141 55 171 141 56 171 140 57 171 140 58 171 139 59 171 139 30 60 220 30 60 220 30 60 220 30 60 220 30 60 220 30 60 220 30 60 220 30 60 220 30 60 220 30 60 220 30 60 220 30 60 220 30 60 220 30 60 220 30 60 220 30 60 220 30 60 220 30 60 220 30 60 220 30 60 220 30 60 220 30 60 220 30 60 220 30 60 220 30 60 220 30 60 220 30 60 220 30 60 220 30 60 220 30 60 220 30 60 220 30 60 220 30 60 220 30 60 220 30 60 220 30 60 220 30 60 220 30 60 220 30 60 220 30 60 220 30 60 220 30 60 220 30 60 220 30 60 220 30 60 220 30 60 220 30 60 220 30 60 220 30 60 220 30 60 220 30 60 220 30 60 220 30 60 220 30 60 220 30 60 220 30 60 220 30 60 220 30 60 220 30 60 220 30 60 220 30 60 220 30 60 220 30 60 220 30 60 220 30 60 220 30 60 220 30 60 220 30 60 220 30 60 220 30 60 220 30 60 220 30 60 220 30 60 220 30 60 220 30 60 220 30 60 220 30 60 220 30 60 220 30 60 220 30 60 220 30 60 220 30 60 220 30 60 220 30 60 220 30 60 220 30 60 220 30 60 220 30 60 220 30 60 220 30 60 220 30 60 220 30 60 220 30 60 220 30 60 220 30 60 220 30 60 220 30 60 220 30 60 220 30 60 220 30 60 220 30 60 220 30 60 220 30 60 220 30 60 220 30 60 220 30 60 220 30 60 220 30 60 220 30 60 220 30 60 220 30 60 220 30 60 220 30 60 220 30 60 220 30 60 220 30 60 220 30 60 220 30 60 220 30 60 220 30 60 220 30 60 220 30 60 220 30 60 220 30 60 220 30 60 220 30 60 220 30 60 220 30 60 220 30 60 220 30 60 220 30 60 220 30 60 220 30 60 220 30 60 220 30 60 220 30 60 220 30 60 220 30 60 220 30 60 220 199 171 69 200 171 69 201 171 68 202 171 68 203 171 67 204 171 67 205 171 66 206 171 66 207 171 65 208 171 65 209 171 64 210 171 64 211 171 63 212 171 63 213 171 62 214 171 62 215 171 61 216 171 61 217 171 60 218 171 60 219 171 59 220 171 59 221 171 58 222 171 58 223 171 57 224 171 57 225 171 56 226 171 56 227 171 55 228 171 55 229 171 54 230 171 54 231 171 53 232 171 53 233 171 52 234 171 52 235 171 51 236 171 51 237 171 50 238 171 50 239 171 49 240 171 49 241 171 48 242 171 48 243 171 47 244 171 47 245 171 46 246 171 46 247 171 45 248 171 45 249 171 44 250 171 44 251 171 43 252 171 43 253 171 42 254 171 42 
0 172 168 0 172 168 1 172 167 2 172 167 3 172 166 4 172 166 5 172 165 6 172 165 7 172 164 8 172 164 9 172 163 10 172 163 11 172 162 12 172 162 13 172 161 14 172 161 15 172 160 16 172 160 17 172 159 18 172 159 19 172 158 20 172 158 21 172 157 22 172 157 23 172 156 24 172 156 25 172 155 26 172 155 27 172 154 28 172 154 29 172 153 30 172 153 31 172 152 32 172 152 33 172 151 34 172 151 35 172 150 36 172 150 37 172 149 38 172 149 39 172 148 40 172 148 41 172 147 42 172 147 43 172 146 44 172 146 45 172 145 46 172 145 47 172 144 48 172 144 49 172 143 50 172 143 51 172 142 52 172 142 53 172 141 54 172 141 55 172 140 56 172 140 57 172 139 58 172 139 59 172 138 30 60 220 30 60 220 30 60 220 30 60 220 30 60 220 30 60 220 30 60 220 30 60 220 30 60 220 30 60 220 30 60 220 30 60 220 30 60 220 30 60 220 30 60 220 30 60 220 30 60 220 30 60 220 30 60 220 30 60 220 30 60 220 30 60 220 30 60 220 30 60 220 30 60 220 30 60 220 30 60 220 30 60 220 30 60 220 30 60 220 30 60 220 30 60 220 30 60 220 30 60 220 30 60 220 30 60 220 30 60 220 30 60 220 30 60 220 30 60 220 30 60 220 30 60 220 30 60 220 30 60 220 30 60 220 30 60 220 30 60 220 30 60 220 30 60 220 30 60 220 30 60 220 30 60 220 30 60 220 30 60 220 30 60 220 30 60 220 30 60 220 30 60 220 30 60 220 30 60 220 30 60 220 30 60 220 30 60 220 30 60 220 30 60 220 30 60 220 30 60 220 30 60 220 30 60 220 30 60 220 30 60 220 30 60 220 30 60 220 30 60 220 30 60 220 30 60 220 30 60 220 30 60 220 30 60 220 30 60 220 30 60 220 30 60 220 30 60 220 30 60 220 30 60 220 30 60 220 30 60 220 30 60 220 30 60 220 30 60 220 30 60 220 30 60 220 30 60 220 30 60 220 30 60 220 30 60 220 30 60 220 30 60 220 30 60 220 30 60 220 30 60 220 30 60 220 30 60 220 30 60 220 30 60 220 30 60 220 30 60 220 30 60 220 30 60 220 30 60 220 30 60 220 30 60 220 30 60 220 30 60 220 30 60 220 30 60 220 30 60 220 30 60 220 30 60 220 30 60 220 30 60 220 30 60 220 30 60 220 30 60 220 30 60 220 30 60 220 30 60 220 30 60 220 30 60 220 30 60 220 30 60 220 30 60 220 30 60 220 30 60 220 30 60 220 30 60 220 30 60 220 30 60 220 30 60 220 199 172 69 200 172 68 201 172 68 202 172 67 203 172 67 204 172 66 205 172 66 206 172 65 207 172 65 208 172 64 209 172 64 210 172 63 211 172 63 212 172 62 213 172 62 214 172 61 215 172 61 216 172 60 217 172 60 218 172 59 219 172 59 220 172 58 221 172 58 222 172 57 223 172 57 224 172 56 225 172 56 226 172 55 227 172 55 228 172 54 229 172 54 230 172 53 231 172 53 232 172 52 233 172 52 234 172 51 235 172 51 236 172 50 237 172 50 238 172 49 239 172 49 240 172 48 241 172 48 242 172 47 243 172 47 244 172 46 245 172 46 246 172 45 247 172 45 248 172 44 249 172 44 250 172 43 251 172 43 252 172 42 253 172 42 254 172 41 
0 173 168 0 173 167 1 173 167 2 173 166 3 173 166 4 173 165 5 173 165 6 173 164 7 173 164 8 173 163 9 173 163 10 173 162 11 173 162 12 173 161 13 173 161 14 173 160 15 173 160 16 173 159 17 173 159 18 173 158 19 173 158 20 173 157 21 173 157 22 173 156 23 173 156 24 173 155 25 173 155 26 173 154 27 173 154 28 173 153 29 173 153 30 173 152 31 173 152 32 173 151 33 173 151 34 173 150 35 173 150 36 173 149 37 173 149 38 173 148 39 173 148 40 173 147 41 173 147 42 173 146 43 173 146 44 173 145 45 173 145 46 173 144 47 173 144 48 173 143 49 173 143 50 173 142 51 173 142 52 173 141 53 173 141 54 173 140 55 173 140 56 173 139 57 173 139 58 173 138 59 173 138 30 60 220 30 60 220 30 60 220 30 60 220 30 60 220 30 60 220 30 60 220 30 60 220 30 60 220 30 60 220 30 60 220 30 60 220 30 60 220 30 60 220 30 60 220 30 60 220 30 60 220 30 60 220 30 60 220 30 60 220 30 60 220 30 60 220 30 60 220 30 60 220 30 60 220 30 60 220 30 60 220 30 60 220 30 60 220 30 60 220 30 60 220 30 60 220 30 60 220 30 60 220 30 60 220 30 60 220 30 60 220 30 60 220 30 60 220 30 60 220 30 60 220 30 60 220 30 60 220 30 60 220 30 60 220 30 60 220 30 60 220 30 60 220 30 60 220 30 60 220 30 60 220 30 60 220 30 60 220 30 60 220 30 60 220 30 60 220 30 60 220 30 60 220 30 60 220 30 60 220 30 60 220 30 60 220 30 60 220 30 60 220 30 60 220 30 60 220 30 60 220 30 60 220 30 60 220 30 60 220 30 60 220 30 60 220 30 60 220 30 60 220 30 60 220 30 60 220 30 60 220 30 60 220 30 60 220 30 60 220 30 60 220 30 60 220 30 60 220 30 60 220 30 60 220 30 60 220 30 60 220 30 60 220 30 60 220 30 60 220 30 60 220 30 60 220 30 60 220 30 60 220 30 60 220 30 60 220 30 60 220 30 60 220 30 60 220 30 60 220 30 60 220 30 60 220 30 60 220 30 60 220 30 60 220 30 60 220 30 60 220 30 60 220 30 60 220 30 60 220 30 60 220 30 60 220 30 60 220 30 60 220 30 60 220 30 60 220 30 60 220 30 60 220 30 60 220 30 60 220 30 60 220 30 60 220 30 60 220 30 60 220 30 60 220 30 60 220 30 60 220 30 60 220 30 60 220 30 60 220 30 60 220 30 60 220 30 60 220 30 60 220 30 60 220 30 60 220 30 60 220 30 60 220 30 60 220 199 173 68 200 173 68 201 173 67 202 173 67 203 173 66 204 173 66 205 173 65 206 173 65 207 173 64 208 173 64 209 173 63 210 173 63 211 173 62 212 173 62 213 173 61 214 173 61 215 173 60 216 173 60 217 173 59 218 173 59 219 173 58 220 173 58 221 173 57 222 173 57 223 173 56 224 173 56 225 173 55 226 173 55 227 173 54 228 173 54 229 173 53 230 173 53 231 173 52 232 173 52 233 173 51 234 173 51 235 173 50 236 173 50 237 173 49 238 173 49 239 173 48 240 173 48 241 173 47 242 173 47 243 173 46 244 173 46 245 173 45 246 173 45 247 173 44 248 173 44 249 173 43 250 173 43 251 173 42 252 173 42 253 173 41 254 173 41 
0 174 167 0 174 167 1 174 166 2 174 166 3 174 165 4 174 165 5 174 164 6 174 164 7 174 163 8 174 163 9 174 162 10 174 162 11 174 161 12 174 161 13 174 160 14 174 160 15 174 159 16 174 159 17 174 158 18 174 158 19 174 157 20 174 157 21 174 156 22 174 156 23 174 155 24 174 155 25 174 154 26 174 154 27 174 153 28 174 153 29 174 152 30 174 152 31 174 151 32 174 151 33 174 150 34 174 150 35 174 149 36 174 149 37 174 148 38 174 148 39 174 147 40 174 147 41 174 146 42 174 146 43 174 145 44 174 145 45 174 144 46 174 144 47 174 143 48 174 143 49 174 142 50 174 142 51 174 141 52 174 141 53 174 140 54 174 140 55 174 139 56 174 139 57 174 138 58 174 138 59 174 137 30 60 220 30 60 220 30 60 220 30 60 220 30 60 220 30 60 220 30 60 220 30 60 220 30 60 220 30 60 220 30 60 220 30 60 220 30 60 220 30 60 220 30 60 220 30 60 220 30 60 220 30 60 220 30 60 220 30 60 220 30 60 220 30 60 220 30 60 220 30 60 220 30 60 220 30 60 220 30 60 220 30 60 220 30 60 220 30 60 220 30 60 220 30 60 220 30 60 220 30 60 220 30 60 220 30 60 220 30 60 220 30 60 220 30 60 220 30 60 220 30 60 220 30 60 220 30 60 220 30 60 220 30 60 220 30 60 220 30 60 220 30 60 220 30 60 220 30 60 220 30 60 220 30 60 220 30 60 220 30 60 220 30 60 220 30 60 220 30 60 220 30 60 220 30 60 220 30 60 220 30 60 220 30 60 220 30 60 220 30 60 220 30 60 220 30 60 220 30 60 220 30 60 220 30 60 220 30 60 220 30 60 220 30 60 220 30 60 220 30 60 220 30 60 220 30 60 220 30 60 220 30 60 220 30 60 220 30 60 220 30 60 220 30 60 220 30 60 220 30 60 220 30 60 220 30 60 220 30 60 220 30 60 220 30 60 220 30 60 220 30 60 220 30 60 220 30 60 220 30 60 220 30 60 220 30 60 220 30 60 220 30 60 220 30 60 220 30 60 220 30 60 220 30 60 220 30 60 220 30 60 220 30 60 220 30 60 220 30 60 220 30 60 220 30 60 220 30 60 220 30 60 220 30 60 220 30 60 220 30 60 220 30 60 220 30 60 220 30 60 220 30 60 220 30 60 220 30 60 220 30 60 220 30 60 220 30 60 220 30 60 220 30 60 220 30 60 220 30 60 220 30 60 220 30 60 220 30 60 220 30 60 220 30 60 220 30 60 220 30 60 220 30 60 220 30 60 220 30 60 220 30 60 220 30 60 220 199 174 68 200 174 67 201 174 67 202 174 66 203 174 66 204 174 65 205 174 65 206 174 64 207 174 64 208 174 63 209 174 63 210 174 62 211 174 62 212 174 61 213 174 61 214 174 60 215 174 60 216 174 59 217 174 59 218 174 58 219 174 58 220 174 57 221 174 57 222 174 56 223 174 56 224 174 55 225 174 55 226 174 54 227 174 54 228 174 53 229 174 53 230 174 52 231 174 52 232 174 51 233 174 51 234 174 50 235 174 50 236 174 49 237 174 49 238 174 48 239 174 48 240 174 47 241 174 47 242 174 46 243 174 46 244 174 45 245 174 45 246 174 44 247 174 44 248 174 43 249 174 43 250 174 42 251 174 42 252 174 41 253 174 41 254 174 40 
0 175 167 0 175 166 1 175 166 2 175 165 3 175 165 4 175 164 5 175 164 6 175 163 7 175 163 8 175 162 9 175 162 10 175 161 11 175 161 12 175 160 13 175 160 14 175 159 15 175 159 16 175 158 17 175 158 18 175 157 19 175 157 20 175 156 21 175 156 22 175 155 23 175 155 24 175 154 25 175 154 26 175 153 27 175 153 28 175 152 29 175 152 30 175 151 31 175 151 32 175 150 33 175 150 34 175 149 35 175 149 36 175 148 37 175 148 38 175 147 39 175 147 40 175 146 41 175 146 42 175 145 43 175 145 44 175 144 45 175 144 46 175 143 47 175 143 48 175 142 49 175 142 50 175 141 51 175 141 52 175 140 53 175 140 54 175 139 55 175 139 56 175 138 57 175 138 58 175 137 59 175 137 30 60 220 30 60 220 30 60 220 30 60 220 30 60 220 30 60 220 30 60 220 30 60 220 30 60 220 30 60 220 30 60 220 30 60 220 30 60 220 30 60 220 30 60 220 30 60 220 30 60 220 30 60 220 30 60 220 30 60 220 30 60 220 30 60 220 30 60 220 30 60 220 30 60 220 30 60 220 30 60 220 30 60 220 30 60 220 30 60 220 30 60 220 30 60 220 30 60 220 30 60 220 30 60 220 30 60 220 30 60 220 30 60 220 30 60 220 30 60 220 30 60 220 30 60 220 30 60 220 30 60 220 30 60 220 30 60 220 30 60 220 30 60 220 30 60 220 30 60 220 30 60 220 30 60 220 30 60 220 30 60 220 30 60 220 30 60 220 30 60 220 30 60 220 30 60 220 30 60 220 30 60 220 30 60 220 30 60 220 30 60 220 30 60 220 30 60 220 30 60 220 30 60 220 30 60 220 30 60 220 30 60 220 30 60 220 30 60 220 30 60 220 30 60 220 30 60 220 30 60 220 30 60 220 30 60 220 30 60 220 30 60 220 30 60 220 30 60 220 30 60 220 30 60 220 30 60 220 30 60 220 30 60 220 30 60 220 30 60 220 30 60 220 30 60 220 30 60 220 30 60 220 30 60 220 30 60 220 30 60 220 30 60 220 30 60 220 30 60 220 30 60 220 30 60 220 30 60 220 30 60 220 30 60 220 30 60 220 30 60 220 30 60 220 30 60 220 30 60 220 30 60 220 30 60 220 30 60 220 30 60 220 30 60 220 30 60 220 30 60 220 30 60 220 30 60 220 30 60 220 30 60 220 30 60 220 30 60 220 30 60 220 30 60 220 30 60 220 30 60 220 30 60 220 30 60 220 30 60 220 30 60 220 30 60 220 30 60 220 30 60 220 30 60 220 30 60 220 30 60 220 30 60 220 30 60 220 199 175 67 200 175 67 201 175 66 202 175 66 203 175 65 204 175 65 205 175 64 206 175 64 207 175 63 208 175 63 209 175 62 210 175 62 211 175 61 212 175 61 213 175 60 214 175 60 215 175 59 216 175 59 217 175 58 218 175 58 219 175 57 220 175 57 221 175 56 222 175 56 223 175 55 224 175 55 225 175 54 226 175 54 227 175 53 228 175 53 229 175 52 230 175 52 231 175 51 232 175 51 233 175 50 234 175 50 235 175 49 236 175 49 237 175 48 238 175 48 239 175 47 240 175 47 241 175 46 242 175 46 243 175 45 244 175 45 245 175 44 246 175 44 247 175 43 248 175 43 249 175 42 250 175 42 251 175 41 252 175 41 253 175 40 254 175 40 
0 176 166 0 176 166 1 176 165 2 176 165 3 176 164 4 176 164 5 176 163 6 176 163 7 176 162 8 176 162 9 176 161 10 176 161 11 176 160 12 176 160 13 176 159 14 176 159 15 176 158 16 176 158 17 176 157 18 176 157 19 176 156 20 176 156 21 176 155 22 176 155 23 176 154 24 176 154 25 176 153 26 176 153 27 176 152 28 176 152 29 176 151 30 176 151 31 176 150 32 176 150 33 176 149 34 176 149 35 176 148 36 176 148 37 176 147 38 176 147 39 176 146 40 176 146 41 176 145 42 176 145 43 176 144 44 176 144 45 176 143 46 176 143 47 176 142 48 176 142 49 176 141 50 176 141 51 176 140 52 176 140 53 176 139 54 176 139 55 176 138 56 176 138 57 176 137 58 176 137 59 176 136 30 60 220 30 60 220 30 60 220 30 60 220 30 60 220 30 60 220 30 60 220 30 60 220 30 60 220 30 60 220 30 60 220 30 60 220 30 60 220 30 60 220 30 60 220 30 60 220 30 60 220 30 60 220 30 60 220 30 60 220 30 60 220 30 60 220 30 60 220 30 60 220 30 60 220 30 60 220 30 60 220 30 60 220 30 60 220 30 60 220 30 60 220 30 60 220 30 60 220 30 60 220 30 60 220 30 60 220 30 60 220 30 60 220 30 60 220 30 60 220 30 60 220 30 60 220 30 60 220 30 60 220 30 60 220 30 60 220 30 60 220 30 60 220 30 60 220 30 60 220 30 60 220 30 60 220 30 60 220 30 60 220 30 60 220 30 60 220 30 60 220 30 60 220 30 60 220 30 60 220 30 60 220 30 60 220 30 60 220 30 60 220 30 60 220 30 60 220 30 60 220 30 60 220 30 60 220 30 60 220 30 60 220 30 60 220 30 60 220 30 60 220 30 60 220 30 60 220 30 60 220 30 60 220 30 60 220 30 60 220 30 60 220 30 60 220 30 60 220 30 60 220 30 60 220 30 60 220 30 60 220 30 60 220 30 60 220 30 60 220 30 60 220 30 60 220 30 60 220 30 60 220 30 60 220 30 60 220 30 60 220 30 60 220 30 60 220 30 60 220 30 60 220 30 60 220 30 60 220 30 60 220 30 60 220 30 60 220 30 60 220 30 60 220 30 60 220 30 60 220 30 60 220 30 60 220 30 60 220 30 60 220 30 60 220 30 60 220 30 60 220 30 60 220 30 60 220 30 60 220 30 60 220 30 60 220 30 60 220 30 60 220 30 60 220 30 60 220 30 60 220 30 60 220 30 60 220 30 60 220 30 60 220 30 60 220 30 60 220 30 60 220 30 60 220 30 60 220 30 60 220 30 60 220 30 60 220 199 176 67 200 176 66 201 176 66 202 176 65 203 176 65 204 176 64 205 176 64 206 176 63 207 176 63 208 176 62 209 176 62 210 176 61 211 176 61 212 176 60 213 176 60 214 176 59 215 176 59 216 176 58 217 176 58 218 176 57 219 176 57 220 176 56 221 176 56 222 176 55 223 176 55 224 176 54 225 176 54 226 176 53 227 176 53 228 176 52 229 176 52 230 176 51 231 176 51 232 176 50 233 176 50 234 176 49 235 176 49 236 176 48 237 176 48 238 176 47 239 176 47 240 176 46 241 176 46 242 176 45 243 176 45 244 176 44 245 176 44 246 176 43 247 176 43 248 176 42 249 176 42 250 176 41 251 176 41 252 176 40 253 176 40 254 176 39 
0 177 166 0 177 165 1 177 165 2 177 164 3 177 164 4 177 163 5 177 163 6 177 162 7 177 162 8 177 161 9 177 161 10 177 160 11 177 160 12 177 159 13 177 159 14 177 158 15 177 158 16 177 157 17 177 157 18 177 156 19 177 156 20 177 155 21 177 155 22 177 154 23 177 154 24 177 153 25 177 153 26 177 152 27 177 152 28 177 151 29 177 151 30 177 150 31 177 150 32 177 149 33 177 149 34 177 148 35 177 148 36 177 147 37 177 147 38 177 146 39 177 146 40 177 145 41 177 145 42 177 144 43 177 144 44 177 143 45 177 143 46 177 142 47 177 142 48 177 141 49 177 141 50 177 140 51 177 140 52 177 139 53 177 139 54 177 138 55 177 138 56 177 137 57 177 137 58 177 136 59 177 136 30 60 220 30 60 220 30 60 220 30 60 220 30 60 220 30 60 220 30 60 220 30 60 220 30 60 220 30 60 220 30 60 220 30 60 220 30 60 220 30 60 220 30 60 220 30 60 220 30 60 220 30 60 220 30 60 220 30 60 220 30 60 220 30 60 220 30 60 220 30 60 220 30 60 220 30 60 220 30 60 220 30 60 220 30 60 220 30 60 220 30 60 220 30 60 220 30 60 220 30 60 220 30 60 220 30 60 220 30 60 220 30 60 220 30 60 220 30 60 220 30 60 220 30 60 220 30 60 220 30 60 220 30 60 220 30 60 220 30 60 220 30 60 220 30 60 220 30 60 220 30 60 220 30 60 220 30 60 220 30 60 220 30 60 220 30 60 220 30 60 220 30 60 220 30 60 220 30 60 220 30 60 220 30 60 220 30 60 220 30 60 220 30 60 220 30 60 220 30 60 220 30 60 220 30 60 220 30 60 220 30 60 220 30 60 220 30 60 220 30 60 220 30 60 220 30 60 220 30 60 220 30 60 220 30 60 220 30 60 220 30 60 220 30 60 220 30 60 220 30 60 220 30 60 220 30 60 220 30 60 220 30 60 220 30 60 220 30 60 220 30 60 220 30 60 220 30 60 220 30 60 220 30 60 220 30 60 220 30 60 220 30 60 220 30 60 220 30 60 220 30 60 220 30 60 220 30 60 220 30 60 220 30 60 220 30 60 220 30 60 220 30 60 220 30 60 220 30 60 220 30 60 220 30 60 220 30 60 220 30 60 220 30 60 220 30 60 220 30 60 220 30 60 220 30 60 220 30 60 220 30 60 220 30 60 220 30 60 220 30 60 220 30 60 220 30 60 220 30 60 220 30 60 220 30 60 220 30 60 220 30 60 220 30 60 220 30 60 220 30 60 220 30 60 220 30 60 220 30 60 220 30 60 220 30 60 220 199 177 66 200 177 66 201 177 65 202 177 65 203 177 64 204 177 64 205 177 63 206 177 63 207 177 62 208 177 62 209 177 61 210 177 61 211 177 60 212 177 60 213 177 59 214 177 59 215 177 58 216 177 58 217 177 57 218 177 57 219 177 56 220 177 56 221 177 55 222 177 55 223 177 54 224 177 54 225 177 53 226 177 53 227 177 52 228 177 52 229 177 51 230 177 51 231 177 50 232 177 50 233 177 49 234 177 49 235 177 48 236 177 48 237 177 47 238 177 47 239 177 46 240 177 46 241 177 45 242 177 45 243 177 44 244 177 44 245 177 43 246 177 43 247 177 42 248 177 42 249 177 41 250 177 41 251 177 40 252 177 40 253 177 39 254 177 39 
0 178 165 0 178 165 1 178 164 2 178 164 3 178 163 4 178 163 5 178 162 6 178 162 7 178 161 8 178 161 9 178 160 10 178 160 11 178 159 12 178 159 13 178 158 14 178 158 15 178 157 16 178 157 17 178 156 18 178 156 19 178 155 20 178 155 21 178 154 22 178 154 23 178 153 24 178 153 25 178 152 26 178 152 27 178 151 28 178 151 29 178 150 30 178 150 31 178 149 32 178 149 33 178 148 34 178 148 35 178 147 36 178 147 37 178 146 38 178 146 39 178 145 40 178 145 41 178 144 42 178 144 43 178 143 44 178 143 45 178 142 46 178 142 47 178 141 48 178 141 49 178 140 50 178 140 51 178 139 52 178 139 53 178 138 54 178 138 55 178 137 56 178 137 57 178 136 58 178 136 59 178 135 30 60 220 30 60 220 30 60 220 30 60 220 30 60 220 30 60 220 30 60 220 30 60 220 30 60 220 30 60 220 30 60 220 30 60 220 30 60 220 30 60 220 30 60 220 30 60 220 30 60 220 30 60 220 30 60 220 30 60 220 30 60 220 30 60 220 30 60 220 30 60 220 30 60 220 30 60 220 30 60 220 30 60 220 30 60 220 30 60 220 30 60 220 30 60 220 30 60 220 30 60 220 30 60 220 30 60 220 30 60 220 30 60 220 30 60 220 30 60 220 30 60 220 30 60 220 30 60 220 30 60 220 30 60 220 30 60 220 30 60 220 30 60 220 30 60 220 30 60 220 30 60 220 30 60 220 30 60 220 30 60 220 30 60 220 30 60 220 30 60 220 30 60 220 30 60 220 30 60 220 30 60 220 30 60 220 30 60 220 30 60 220 30 60 220 30 60 220 30 60 220 30 60 220 30 60 220 30 60 220 30 60 220 30 60 220 30 60 220 30 60 220 30 60 220 30 60 220 30 60 220 30 60 220 30 60 220 30 60 220 30 60 220 30 60 220 30 60 220 30 60 220 30 60 220 30 60 220 30 60 220 30 60 220 30 60 220 30 60 220 30 60 220 30 60 220 30 60 220 30 60 220 30 60 220 30 60 220 30 60 220 30 60 220 30 60 220 30 60 220 30 60 220 30 60 220 30 60 220 30 60 220 30 60 220 30 60 220 30 60 220 30 60 220 30 60 220 30 60 220 30 60 220 30 60 220 30 60 220 30 60 220 30 60 220 30 60 220 30 60 220 30 60 220 30 60 220 30 60 220 30 60 220 30 60 220 30 60 220 30 60 220 30 60 220 30 60 220 30 60 220 30 60 220 30 60 220 30 60 220 30 60 220 30 60 220 30 60 220 30 60 220 30 60 220 30 60 220 30 60 220 30 60 220 30 60 220 199 178 66 200 178 65 201 178 65 202 178 64 203 178 64 204 178 63 205 178 63 206 178 62 207 178 62 208 178 61 209 178 61 210 178 60 211 178 60 212 178 59 213 178 59 214 178 58 215 178 58 216 178 57 217 178 57 218 178 56 219 178 56 220 178 55 221 178 55 222 178 54 223 178 54 224 178 53 225 178 53 226 178 52 227 178 52 228 178 51 229 178 51 230 178 50 231 178 50 232 178 49 233 178 49 234 178 48 235 178 48 236 178 47 237 178 47 238 178 46 239 178 46 240 178 45 241 178 45 242 178 44 243 178 44 244 178 43 245 178 43 246 178 42 247 178 42 248 178 41 249 178 41 250 178 40 251 178 40 252 178 39 253 178 39 254 178 38 
0 179 165 0 179 164 1 179 164 2 179 163 3 179 163 4 179 162 5 179 162 6 179 161 7 179 161 8 179 160 9 179 160 10 179 159 11 179 159 12 179 158 13 179 158 14 179 157 15 179 157 16 179 156 17 179 156 18 179 155 19 179 155 20 179 154 21 179 154 22 179 153 23 179 153 24 179 152 25 179 152 26 179 151 27 179 151 28 179 150 29 179 150 30 179 149 31 179 149 32 179 148 33 179 148 34 179 147 35 179 147 36 179 146 37 179 146 38 179 145 39 179 145 40 179 144 41 179 144 42 179 143 43 179 143 44 179 142 45 179 142 46 179 141 47 179 141 48 179 140 49 179 140 50 179 139 51 179 139 52 179 138 53 179 138 54 179 137 55 179 137 56 179 136 57 179 136 58 179 135 59 179 135 30 60 220 30 60 220 30 60 220 30 60 220 30 60 220 30 60 220 30 60 220 30 60 220 30 60 220 30 60 220 30 60 220 30 60 220 30 60 220 30 60 220 30 60 220 30 60 220 30 60 220 30 60 220 30 60 220 30 60 220 30 60 220 30 60 220 30 60 220 30 60 220 30 60 220 30 60 220 30 60 220 30 60 220 30 60 220 30 60 220 30 60 220 30 60 220 30 60 220 30 60 220 30 60 220 30 60 220 30 60 220 30 60 220 30 60 220 30 60 220 30 60 220 30 60 220 30 60 220 30 60 220 30 60 220 30 60 220 30 60 220 30 60 220 30 60 220 30 60 220 30 60 220 30 60 220 30 60 220 30 60 220 30 60 220 30 60 220 30 60 220 30 60 220 30 60 220 30 60 220 30 60 220 30 60 220 30 60 220 30 60 220 30 60 220 30 60 220 30 60 220 30 60 220 30 60 220 30 60 220 30 60 220 30 60 220 30 60 220 30 60 220 30 60 220 30 60 220 30 60 220 30 60 220 30 60 220 30 60 220 30 60 220 30 60 220 30 60 220 30 60 220 30 60 220 30 60 220 30 60 220 30 60 220 30 60 220 30 60 220 30 60 220 30 60 220 30 60 220 30 60 220 30 60 220 30 60 220 30 60 220 30 60 220 30 60 220 30 60 220 30 60 220 30 60 220 30 60 220 30 60 220 30 60 220 30 60 220 30 60 220 30 60 220 30 60 220 30 60 220 30 60 220 30 60 220 30 60 220 30 60 220 30 60 220 30 60 220 30 60 220 30 60 220 30 60 220 30 60 220 30 60 220 30 60 220 30 60 220 30 60 220 30 60 220 30 60 220 30 60 220 30 60 220 30 60 220 30 60 220 30 60 220 30 60 220 30 60 220 30 60 220 30 60 220 30 60 220 30 60 220 30 60 220 30 60 220 199 179 65 200 179 65 201 179 64 202 179 64 203 179 63 204 179 63 205 179 62 206 179 62 207 179 61 208 179 61 209 179 60 210 179 60 211 179 59 212 179 59 213 179 58 214 179 58 215 179 57 216 179 57 217 179 56 218 179 56 219 179 55 220 179 55 221 179 54 222 179 54 223 179 53 224 179 53 225 179 52 226 179 52 227 179 51 228 179 51 229 179 50 230 179 50 231 179 49 232 179 49 233 179 48 234 179 48 235 179 47 236 179 47 237 179 46 238 179 46 239 179 45 240 179 45 241 179 44 242 179 44 243 179 43 244 179 43 245 179 42 246 179 42 247 179 41 248 179 41 249 179 40 250 179 40 251 179 39 252 179 39 253 179 38 254 179 38 
0 180 164 0 180 164 1 180 163 2 180 163 3 180 162 4 180 162 5 180 161 6 180 161 7 180 160 8 180 160 9 180 159 10 180 159 11 180 158 12 180 158 13 180 157 14 180 157 15 180 156 16 180 156 17 180 155 18 180 155 19 180 154 20 180 154 21 180 153 22 180 153 23 180 152 24 180 152 25 180 151 26 180 151 27 180 150 28 180 150 29 180 149 30 180 149 31 180 148 32 180 148 33 180 147 34 180 147 35 180 146 36 180 146 37 180 145 38 180 145 39 180 144 40 180 144 41 180 143 42 180 143 43 180 142 44 180 142 45 180 141 46 180 141 47 180 140 48 180 140 49 180 139 50 180 139 51 180 138 52 180 138 53 180 137 54 180 137 55 180 136 56 180 136 57 180 135 58 180 135 59 180 134 30 60 220 30 60 220 30 60 220 30 60 220 30 60 220 30 60 220 30 60 220 30 60 220 30 60 220 30 60 220 30 60 220 30 60 220 30 60 220 30 60 220 30 60 220 30 60 220 30 60 220 30 60 220 30 60 220 30 60 220 30 60 220 30 60 220 30 60 220 30 60 220 30 60 220 30 60 220 30 60 220 30 60 220 30 60 220 30 60 220 30 60 220 30 60 220 30 60 220 30 60 220 30 60 220 30 60 220 30 60 220 30 60 220 30 60 220 30 60 220 30 60 220 30 60 220 30 60 220 30 60 220 30 60 220 30 60 220 30 60 220 30 60 220 30 60 220 30 60 220 30 60 220 30 60 220 30 60 220 30 60 220 30 60 220 30 60 220 30 60 220 30 60 220 30 60 220 30 60 220 30 60 220 30 60 220 30 60 220 30 60 220 30 60 220 30 60 220 30 60 220 30 60 220 30 60 220 30 60 220 30 60 220 30 60 220 30 60 220 30 60 220 30 60 220 30 60 220 30 60 220 30 60 220 30 60 220 30 60 220 30 60 220 30 60 220 30 60 220 30 60 220 30 60 220 30 60 220 30 60 220 30 60 220 30 60 220 30 60 220 30 60 220 30 60 220 30 60 220 30 60 220 30 60 220 30 60 220 30 60 220 30 60 220 30 60 220 30 60 220 30 60 220 30 60 220 30 60 220 30 60 220 30 60 220 30 60 220 30 60 220 30 60 220 30 60 220 30 60 220 30 60 220 30 60 220 30 60 220 30 60 220 30 60 220 30 60 220 30 60 220 30 60 220 30 60 220 30 60 220 30 60 220 30 60 220 30 60 220 30 60 220 30 60 220 30 60 220 30 60 220 30 60 220 30 60 220 30 60 220 30 60 220 30 60 220 30 60 220 30 60 220 30 60 220 30 60 220 30 60 220 30 60 220 30 60 220 199 180 65 200 180 64 201 180 64 202 180 63 203 180 63 204 180 62 205 180 62 206 180 61 207 180 61 208 180 60 209 180 60 210 180 59 211 180 59 212 180 58 213 180 58 214 180 57 215 180 57 216 180 56 217 180 56 218 180 55 219 180 55 220 180 54 221 180 54 222 180 53 223 180 53 224 180 52 225 180 52 226 180 51 227 180 51 228 180 50 229 180 50 230 180 49 231 180 49 232 180 48 233 180 48 234 180 47 235 180 47 236 180 46 237 180 46 238 180 45 239 180 45 240 180 44 241 180 44 242 180 43 243 180 43 244 180 42 245 180 42 246 180 41 247 180 41 248 180 40 249 180 40 250 180 39 251 180 39 252 180 38 253 180 38 254 180 37 
0 181 164 0 181 163 1 181 163 2 181 162 3 181 162 4 181 161 5 181 161 6 181 160 7 181 160 8 181 159 9 181 159 10 181 158 11 181 158 12 181 157 13 181 157 14 181 156 15 181 156 16 181 155 17 181 155 18 181 154 19 181 154 20 181 153 21 181 153 22 181 152 23 181 152 24 181 151 25 181 151 26 181 150 27 181 150 28 181 149 29 181 149 30 181 148 31 181 148 32 181 147 33 181 147 34 181 146 35 181 146 36 181 145 37 181 145 38 181 144 39 181 144 40 181 143 41 181 143 42 181 142 43 181 142 44 181 141 45 181 141 46 181 140 47 181 140 48 181 139 49 181 139 50 181 138 51 181 138 52 181 137 53 181 137 54 181 136 55 181 136 56 181 135 57 181 135 58 181 134 59 181 134 30 60 220 30 60 220 30 60 220 30 60 220 30 60 220 30 60 220 30 60 220 30 60 220 30 60 220 30 60 220 30 60 220 30 60 220 30 60 220 30 60 220 30 60 220 30 60 220 30 60 220 30 60 220 30 60 220 30 60 220 30 60 220 30 60 220 30 60 220 30 60 220 30 60 220 30 60 220 30 60 220 30 60 220 30 60 220 30 60 220 30 60 220 30 60 220 30 60 220 30 60 220 30 60 220 30 60 220 30 60 220 30 60 220 30 60 220 30 60 220 30 60 220 30 60 220 30 60 220 30 60 220 30 60 220 30 60 220 30 60 220 30 60 220 30 60 220 30 60 220 30 60 220 30 60 220 30 60 220 30 60 220 30 60 220 30 60 220 30 60 220 30 60 220 30 60 220 30 60 220 30 60 220 30 60 220 30 60 220 30 60 220 30 60 220 30 60 220 30 60 220 30 60 220 30 60 220 30 60 220 30 60 220 30 60 220 30 60 220 30 60 220 30 60 220 30 60 220 30 60 220 30 60 220 30 60 220 30 60 220 30 60 220 30 60 220 30 60 220 30 60 220 30 60 220 30 60 220 30 60 220 30 60 220 30 60 220 30 60 220 30 60 220 30 60 220 30 60 220 30 60 220 30 60 220 30 60 220 30 60 220 30 60 220 30 60 220 30 60 220 30 60 220 30 60 220 30 60 220 30 60 220 30 60 220 30 60 220 30 60 220 30 60 220 30 60 220 30 60 220 30 60 220 30 60 220 30 60 220 30 60 220 30 60 220 30 60 220 30 60 220 30 60 220 30 60 220 30 60 220 30 60 220 30 60 220 30 60 220 30 60 220 30 60 220 30 60 220 30 60 220 30 60 220 30 60 220 30 60 220 30 60 220 30 60 220 30 60 220 30 60 220 30 60 220 30 60 220 30 60 220 30 60 220 30 60 220 199 181 64 200 181 64 201 181 63 202 181 63 203 181 62 204 181 62 205 181 61 206 181 61 207 181 60 208 181 60 209 181 59 210 181 59 211 181 58 212 181 58 213 181 57 214 181 57 215 181 56 216 181 56 217 181 55 218 181 55 219 181 54 220 181 54 221 181 53 222 181 53 223 181 52 224 181 52 225 181 51 226 181 51 227 181 50 228 181 50 229 181 49 230 181 49 231 181 48 232 181 48 233 181 47 234 181 47 235 181 46 236 181 46 237 181 45 238 181 45 239 181 44 240 181 44 241 181 43 242 181 43 243 181 42 244 181 42 245 181 41 246 181 41 247 181 40 248 181 40 249 181 39 250 181 39 251 181 38 252 181 38 253 181 37 254 181 37 
0 182 163 0 182 163 1 182 162 2 182 162 3 182 161 4 182 161 5 182 160 6 182 160 7 182 159 8 182 159 9 182 158 10 182 158 11 182 157 12 182 157 13 182 156 14 182 156 15 182 155 16 182 155 17 182 154 18 182 154 19 182 153 20 182 153 21 182 152 22 182 152 23 182 151 24 182 151 25 182 150 26 182 150 27 182 149 28 182 149 29 182 148 30 182 148 31 182 147 32 182 147 33 182 146 34 182 146 35 182 145 36 182 145 37 182 144 38 182 144 39 182 143 40 182 143 41 182 142 42 182 142 43 182 141 44 182 141 45 182 140 46 182 140 47 182 139 48 182 139 49 182 138 50 182 138 51 182 137 52 182 137 53 182 136 54 182 136 55 182 135 56 182 135 57 182 134 58 182 134 59 182 133 30 60 220 30 60 220 30 60 220 30 60 220 30 60 220 30 60 220 30 60 220 30 60 220 30 60 220 30 60 220 30 60 220 30 60 220 30 60 220 30 60 220 30 60 220 30 60 220 30 60 220 30 60 220 30 60 220 30 60 220 30 60 220 30 60 220 30 60 220 30 60 220 30 60 220 30 60 220 30 60 220 30 60 220 30 60 220 30 60 220 30 60 220 30 60 220 30 60 220 30 60 220 30 60 220 30 60 220 30 60 220 30 60 220 30 60 220 30 60 220 30 60 220 30 60 220 30 60 220 30 60 220 30 60 220 30 60 220 30 60 220 30 60 220 30 60 220 30 60 220 30 60 220 30 60 220 30 60 220 30 60 220 30 60 220 30 60 220 30 60 220 30 60 220 30 60 220 30 60 220 30 60 220 30 60 220 30 60 220 30 60 220 30 60 220 30 60 220 30 60 220 30 60 220 30 60 220 30 60 220 30 60 220 30 60 220 30 60 220 30 60 220 30 60 220 30 60 220 30 60 220 30 60 220 30 60 220 30 60 220 30 60 220 30 60 220 30 60 220 30 60 220 30 60 220 30 60 220 30 60 220 30 60 220 30 60 220 30 60 220 30 60 220 30 60 220 30 60 220 30 60 220 30 60 220 30 60 220 30 60 220 30 60 220 30 60 220 30 60 220 30 60 220 30 60 220 30 60 220 30 60 220 30 60 220 30 60 220 30 60 220 30 60 220 30 60 220 30 60 220 30 60 220 30 60 220 30 60 220 30 60 220 30 60 220 30 60 220 30 60 220 30 60 220 30 60 220 30 60 220 30 60 220 30 60 220 30 60 220 30 60 220 30 60 220 30 60 220 30 60 220 30 60 220 30 60 220 30 60 220 30 60 220 30 60 220 30 60 220 30 60 220 30 60 220 30 60 220 30 60 220 30 60 220 30 60 220 199 182 64 200 182 63 201 182 63 202 182 62 203 182 62 204 182 61 205 182 61 206 182 60 207 182 60 208 182 59 209 182 59 210 182 58 211 182 58 212 182 57 213 182 57 214 182 56 215 182 56 216 182 55 217 182 55 218 182 54 219 182 54 220 182 53 221 182 53 222 182 52 223 182 52 224 182 51 225 182 51 226 182 50 227 182 50 228 182 49 229 182 49 230 182 48 231 182 48 232 182 47 233 182 47 234 182 46 235 182 46 236 182 45 237 182 45 238 182 44 239 182 44 240 182 43 241 182 43 242 182 42 243 182 42 244 182 41 245 182 41 246 182 40 247 182 40 248 182 39 249 182 39 250 182 38 251 182 38 252 182 37 253 182 37 254 182 36 
0 183 163 0 183 162 1 183 162 2 183 161 3 183 161 4 183 160 5 183 160 6 183 159 7 183 159 8 183 158 9 183 158 10 183 157 11 183 157 12 183 156 13 183 156 14 183 155 15 183 155 16 183 154 17 183 154 18 183 153 19 183 153 20 183 152 21 183 152 22 183 151 23 183 151 24 183 150 25 183 150 26 183 149 27 183 149 28 183 148 29 183 148 30 183 147 31 183 147 32 183 146 33 183 146 34 183 145 35 183 145 36 183 144 37 183 144 38 183 143 39 183 143 40 183 142 41 183 142 42 183 141 43 183 141 44 183 140 45 183 140 46 183 139 47 183 139 48 183 138 49 183 138 50 183 137 51 183 137 52 183 136 53 183 136 54 183 135 55 183 135 56 183 134 57 183 134 58 183 133 59 183 133 30 60 220 30 60 220 30 60 220 30 60 220 30 60 220 30 60 220 30 60 220 30 60 220 30 60 220 30 60 220 30 60 220 30 60 220 30 60 220 30 60 220 30 60 220 30 60 220 30 60 220 30 60 220 30 60 220 30 60 220 30 60 220 30 60 220 30 60 220 30 60 220 30 60 220 30 60 220 30 60 220 30 60 220 30 60 220 30 60 220 30 60 220 30 60 220 30 60 220 30 60 220 30 60 220 30 60 220 30 60 220 30 60 220 30 60 220 30 60 220 30 60 220 30 60 220 30 60 220 30 60 220 30 60 220 30 60 220 30 60 220 30 60 220 30 60 220 30 60 220 30 60 220 30 60 220 30 60 220 30 60 220 30 60 220 30 60 220 30 60 220 30 60 220 30 60 220 30 60 220 30 60 220 30 60 220 30 60 220 30 60 220 30 60 220 30 60 220 30 60 220 30 60 220 30 60 220 30 60 220 30 60 220 30 60 220 30 60 220 30 60 220 30 60 220 30 60 220 30 60 220 30 60 220 30 60 220 30 60 220 30 60 220 30 60 220 30 60 220 30 60 220 30 60 220 30 60 220 30 60 220 30 60 220 30 60 220 30 60 220 30 60 220 30 60 220 30 60 220 30 60 220 30 60 220 30 60 220 30 60 220 30 60 220 30 60 220 30 60 220 30 60 220 30 60 220 30 60 220 30 60 220 30 60 220 30 60 220 30 60 220 30 60 220 30 60 220 30 60 220 30 60 220 30 60 220 30 60 220 30 60 220 30 60 220 30 60 220 30 60 220 30 60 220 30 60 220 30 60 220 30 60 220 30 60 220 30 60 220 30 60 220 30 60 220 30 60 220 30 60 220 30 60 220 30 60 220 30 60 220 30 60 220 30 60 220 30 60 220 30 60 220 30 60 220 30 60 220 30 60 220 30 60 220 30 60 220 199 183 63 200 183 63 201 183 62 202 183 62 203 183 61 204 183 61 205 183 60 206 183 60 207 183 59 208 183 59 209 183 58 210 183 58 211 183 57 212 183 57 213 183 56 214 183 56 215 183 55 216 183 55 217 183 54 218 183 54 219 183 53 220 183 53 221 183 52 222 183 52 223 183 51 224 183 51 225 183 50 226 183 50 227 183 49 228 183 49 229 183 48 230 183 48 231 183 47 232 183 47 233 183 46 234 183 46 235 183 45 236 183 45 237 183 44 238 183 44 239 183 43 240 183 43 241 183 42 242 183 42 243 183 41 244 183 41 245 183 40 246 183 40 247 183 39 248 183 39 249 183 38 250 183 38 251 183 37 252 183 37 253 183 36 254 183 36 
0 184 162 0 184 162 1 184 161 2 184 161 3 184 160 4 184 160 5 184 159 6 184 159 7 184 158 8 184 158 9 184 157 10 184 157 11 184 156 12 184 156 13 184 155 14 184 155 15 184 154 16 184 154 17 184 153 18 184 153 19 184 152 20 184 152 21 184 151 22 184 151 23 184 150 24 184 150 25 184 149 26 184 149 27 184 148 28 184 148 29 184 147 30 184 147 31 184 146 32 184 146 33 184 145 34 184 145 35 184 144 36 184 144 37 184 143 38 184 143 39 184 142 40 184 142 41 184 141 42 184 141 43 184 140 44 184 140 45 184 139 46 184 139 47 184 138 48 184 138 49 184 137 50 184 137 51 184 136 52 184 136 53 184 135 54 184 135 55 184 134 56 184 134 57 184 133 58 184 133 59 184 132 30 60 220 30 60 220 30 60 220 30 60 220 30 60 220 30 60 220 30 60 220 30 60 220 30 60 220 30 60 220 30 60 220 30 60 220 30 60 220 30 60 220 30 60 220 30 60 220 30 60 220 30 60 220 30 60 220 30 60 220 30 60 220 30 60 220 30 60 220 30 60 220 30 60 220 30 60 220 30 60 220 30 60 220 30 60 220 30 60 220 30 60 220 30 60 220 30 60 220 30 60 220 30 60 220 30 60 220 30 60 220 30 60 220 30 60 220 30 60 220 30 60 220 30 60 220 30 60 220 30 60 220 30 60 220 30 60 220 30 60 220 30 60 220 30 60 220 30 60 220 30 60 220 30 60 220 30 60 220 30 60 220 30 60 220 30 60 220 30 60 220 30 60 220 30 60 220 30 60 220 30 60 220 30 60 220 30 60 220 30 60 220 30 60 220 30 60 220 30 60 220 30 60 220 30 60 220 30 60 220 30 60 220 30 60 220 30 60 220 30 60 220 30 60 220 30 60 220 30 60 220 30 60 220 30 60 220 30 60 220 30 60 220 30 60 220 30 60 220 30 60 220 30 60 220 30 60 220 30 60 220 30 60 220 30 60 220 30 60 220 30 60 220 30 60 220 30 60 220 30 60 220 30 60 220 30 60 220 30 60 220 30 60 220 30 60 220 30 60 220 30 60 220 30 60 220 30 60 220 30 60 220 30 60 220 30 60 220 30 60 220 30 60 220 30 60 220 30 60 220 30 60 220 30 60 220 30 60 220 30 60 220 30 60 220 30 60 220 30 60 220 30 60 220 30 60 220 30 60 220 30 60 220 30 60 220 30 60 220 30 60 220 30 60 220 30 60 220 30 60 220 30 60 220 30 60 220 30 60 220 30 60 220 30 60 220 30 60 220 30 60 220 30 60 220 30 60 220 30 60 220 30 60 220 30 60 220 199 184 63 200 184 62 201 184 62 202 184 61 203 184 61 204 184 60 205 184 60 206 184 59 207 184 59 208 184 58 209 184 58 210 184 57 211 184 57 212 184 56 213 184 56 214 184 55 215 184 55 216 184 54 217 184 54 218 184 53 219 184 53 220 184 52 221 184 52 222 184 51 223 184 51 224 184 50 225 184 50 226 184 49 227 184 49 228 184 48 229 184 48 230 184 47 231 184 47 232 184 46 233 184 46 234 184 45 235 184 45 236 184 44 237 184 44 238 184 43 239 184 43 240 184 42 241 184 42 242 184 41 243 184 41 244 184 40 245 184 40 246 184 39 247 184 39 248 184 38 249 184 38 250 184 37 251 184 37 252 184 36 253 184 36 254 184 35 
0 185 162 0 185 161 1 185 161 2 185 160 3 185 160 4 185 159 5 185 159 6 185 158 7 185 158 8 185 157 9 185 157 10 185 156 11 185 156 12 185 155 13 185 155 14 185 154 15 185 154 16 185 153 17 185 153 18 185 152 19 185 152 20 185 151 21 185 151 22 185 150 23 185 150 24 185 149 25 185 149 26 185 148 27 185 148 28 185 147 29 185 147 30 185 146 31 185 146 32 185 145 33 185 145 34 185 144 35 185 144 36 185 143 37 185 143 38 185 142 39 185 142 40 185 141 41 185 141 42 185 140 43 185 140 44 185 139 45 185 139 46 185 138 47 185 138 48 185 137 49 185 137 50 185 136 51 185 136 52 185 135 53 185 135 54 185 134 55 185 134 56 185 133 57 185 133 58 185 132 59 185 132 30 60 220 30 60 220 30 60 220 30 60 220 30 60 220 30 60 220 30 60 220 30 60 220 30 60 220 30 60 220 30 60 220 30 60 220 30 60 220 30 60 220 30 60 220 30 60 220 30 60 220 30 60 220 30 60 220 30 60 220 30 60 220 30 60 220 30 60 220 30 60 220 30 60 220 30 60 220 30 60 220 30 60 220 30 60 220 30 60 220 30 60 220 30 60 220 30 60 220 30 60 220 30 60 220 30 60 220 30 60 220 30 60 220 30 60 220 30 60 220 30 60 220 30 60 220 30 60 220 30 60 220 30 60 220 30 60 220 30 60 220 30 60 220 30 60 220 30 60 220 30 60 220 30 60 220 30 60 220 30 60 220 30 60 220 30 60 220 30 60 220 30 60 220 30 60 220 30 60 220 30 60 220 30 60 220 30 60 220 30 60 220 30 60 220 30 60 220 30 60 220 30 60 220 30 60 220 30 60 220 30 60 220 30 60 220 30 60 220 30 60 220 30 60 220 30 60 220 30 60 220 30 60 220 30 60 220 30 60 220 30 60 220 30 60 220 30 60 220 30 60 220 30 60 220 30 60 220 30 60 220 30 60 220 30 60 220 30 60 220 30 60 220 30 60 220 30 60 220 30 60 220 30 60 220 30 60 220 30 60 220 30 60 220 30 60 220 30 60 220 30 60 220 30 60 220 30 60 220 30 60 220 30 60 220 30 60 220 30 60 220 30 60 220 30 60 220 30 60 220 30 60 220 30 60 220 30 60 220 30 60 220 30 60 220 30 60 220 30 60 220 30 60 220 30 60 220 30 60 220 30 60 220 30 60 220 30 60 220 30 60 220 30 60 220 30 60 220 30 60 220 30 60 220 30 60 220 30 60 220 30 60 220 30 60 220 30 60 220 30 60 220 30 60 220 30 60 220 30 60 220 30 60 220 30 60 220 199 185 62 200 185 62 201 185 61 202 185 61 203 185 60 204 185 60 205 185 59 206 185 59 207 185 58 208 185 58 209 185 57 210 185 57 211 185 56 212 185 56 213 185 55 214 185 55 215 185 54 216 185 54 217 185 53 218 185 53 219 185 52 220 185 52 221 185 51 222 185 51 223 185 50 224 185 50 225 185 49 226 185 49 227 185 48 228 185 48 229 185 47 230 185 47 231 185 46 232 185 46 233 185 45 234 185 45 235 185 44 236 185 44 237 185 43 238 185 43 239 185 42 240 185 42 241 185 41 242 185 41 243 185 40 244 185 40 245 185 39 246 185 39 247 185 38 248 185 38 249 185 37 250 185 37 251 185 36 252 185 36 253 185 35 254 185 35 
0 186 161 0 186 161 1 186 160 2 186 160 3 186 159 4 186 159 5 186 158 6 186 158 7 186 157 8 186 157 9 186 156 10 186 156 11 186 155 12 186 155 13 186 154 14 186 154 15 186 153 16 186 153 17 186 152 18 186 152 19 186 151 20 186 151 21 186 150 22 186 150 23 186 149 24 186 149 25 186 148 26 186 148 27 186 147 28 186 147 29 186 146 30 186 146 31 186 145 32 186 145 33 186 144 34 186 144 35 186 143 36 186 143 37 186 142 38 186 142 39 186 141 40 186 141 41 186 140 42 186 140 43 186 139 44 186 139 45 186 138 46 186 138 47 186 137 48 186 137 49 186 136 50 186 136 51 186 135 52 186 135 53 186 134 54 186 134 55 186 133 56 186 133 57 186 132 58 186 132 59 186 131 30 60 220 30 60 220 30 60 220 30 60 220 30 60 220 30 60 220 30 60 220 30 60 220 30 60 220 30 60 220 30 60 220 30 60 220 30 60 220 30 60 220 30 60 220 30 60 220 30 60 220 30 60 220 30 60 220 30 60 220 30 60 220 30 60 220 30 60 220 30 60 220 30 60 220 30 60 220 30 60 220 30 60 220 30 60 220 30 60 220 30 60 220 30 60 220 30 60 220 30 60 220 30 60 220 30 60 220 30 60 220 30 60 220 30 60 220 30 60 220 30 60 220 30 60 220 30 60 220 30 60 220 30 60 220 30 60 220 30 60 220 30 60 220 30 60 220 30 60 220 30 60 220 30 60 220 30 60 220 30 60 220 30 60 220 30 60 220 30 60 220 30 60 220 30 60 220 30 60 220 30 60 220 30 60 220 30 60 220 30 60 220 30 60 220 30 60 220 30 60 220 30 60 220 30 60 220 30 60 220 30 60 220 30 60 220 30 60 220 30 60 220 30 60 220 30 60 220 30 60 220 30 60 220 30 60 220 30 60 220 30 60 220 30 60 220 30 60 220 30 60 220 30 60 220 30 60 220 30 60 220 30 60 220 30 60 220 30 60 220 30 60 220 30 60 220 30 60 220 30 60 220 30 60 220 30 60 220 30 60 220 30 60 220 30 60 220 30 60 220 30 60 220 30 60 220 30 60 220 30 60 220 30 60 220 30 60 220 30 60 220 30 60 220 30 60 220 30 60 220 30 60 220 30 60 220 30 60 220 30 60 220 30 60 220 30 60 220 30 60 220 30 60 220 30 60 220 30 60 220 30 60 220 30 60 220 30 60 220 30 60 220 30 60 220 30 60 220 30 60 220 30 60 220 30 60 220 30 60 220 30 60 220 30 60 220 30 60 220 30 60 220 30 60 220 30 60 220 30 60 220 30 60 220 30 60 220 199 186 62 200 186 61 201 186 61 202 186 60 203 186 60 204 186 59 205 186 59 206 186 58 207 186 58 208 186 57 209 186 57 210 186 56 211 186 56 212 186 55 213 186 55 214 186 54 215 186 54 216 186 53 217 186 53 218 186 52 219 186 52 220 186 51 221 186 51 222 186 50 223 186 50 224 186 49 225 186 49 226 186 48 227 186 48 228 186 47 229 186 47 230 186 46 231 186 46 232 186 45 233 186 45 234 186 44 235 186 44 236 186 43 237 186 43 238 186 42 239 186 42 240 186 41 241 186 41 242 186 40 243 186 40 244 186 39 245 186 39 246 186 38 247 186 38 248 186 37 249 186 37 250 186 36 251 186 36 252 186 35 253 186 35 254 186 34 
0 187 161 0 187 160 1 187 160 2 187 159 3 187 159 4 187 158 5 187 158 6 187 157 7 187 157 8 187 156 9 187 156 10 187 155 11 187 155 12 187 154 13 187 154 14 187 153 15 187 153 16 187 152 17 187 152 18 187 151 19 187 151 20 187 150 21 187 150 22 187 149 23 187 149 24 187 148 25 187 148 26 187 147 27 187 147 28 187 146 29 187 146 30 187 145 31 187 145 32 187 144 33 187 144 34 187 143 35 187 143 36 187 142 37 187 142 38 187 141 39 187 141 40 187 140 41 187 140 42 187 139 43 187 139 44 187 138 45 187 138 46 187 137 47 187 137 48 187 136 49 187 136 50 187 135 51 187 135 52 187 134 53 187 134 54 187 133 55 187 133 56 187 132 57 187 132 58 187 131 59 187 131 30 60 220 30 60 220 30 60 220 30 60 220 30 60 220 30 60 220 30 60 220 30 60 220 30 60 220 30 60 220 30 60 220 30 60 220 30 60 220 30 60 220 30 60 220 30 60 220 30 60 220 30 60 220 30 60 220 30 60 220 30 60 220 30 60 220 30 60 220 30 60 220 30 60 220 30 60 220 30 60 220 30 60 220 30 60 220 30 60 220 30 60 220 30 60 220 30 60 220 30 60 220 30 60 220 30 60 220 30 60 220 30 60 220 30 60 220 30 60 220 30 60 220 30 60 220 30 60 220 30 60 220 30 60 220 30 60 220 30 60 220 30 60 220 30 60 220 30 60 220 30 60 220 30 60 220 30 60 220 30 60 220 30 60 220 30 60 220 30 60 220 30 60 220 30 60 220 30 60 220 30 60 220 30 60 220 30 60 220 30 60 220 30 60 220 30 60 220 30 60 220 30 60 220 30 60 220 30 60 220 30 60 220 30 60 220 30 60 220 30 60 220 30 60 220 30 60 220 30 60 220 30 60 220 30 60 220 30 60 220 30 60 220 30 60 220 30 60 220 30 60 220 30 60 220 30 60 220 30 60 220 30 60 220 30 60 220 30 60 220 30 60 220 30 60 220 30 60 220 30 60 220 30 60 220 30 60 220 30 60 220 30 60 220 30 60 220 30 60 220 30 60 220 30 60 220 30 60 220 30 60 220 30 60 220 30 60 220 30 60 220 30 60 220 30 60 220 30 60 220 30 60 220 30 60 220 30 60 220 30 60 220 30 60 220 30 60 220 30 60 220 30 60 220 30 60 220 30 60 220 30 60 220 30 60 220 30 60 220 30 60 220 30 60 220 30 60 220 30 60 220 30 60 220 30 60 220 30 60 220 30 60 220 30 60 220 30 60 220 30 60 220 30 60 220 30 60 220 30 60 220 30 60 220 30 60 220 199 187 61 200 187 61 201 187 60 202 187 60 203 187 59 204 187 59 205 187 58 206 187 58 207 187 57 208 187 57 209 187 56 210 187 56 211 187 55 212 187 55 213 187 54 214 187 54 215 187 53 216 187 53 217 187 52 218 187 52 219 187 51 220 187 51 221 187 50 222 187 50 223 187 49 224 187 49 225 187 48 226 187 48 227 187 47 228 187 47 229 187 46 230 187 46 231 187 45 232 187 45 233 187 44 234 187 44 235 187 43 236 187 43 237 187 42 238 187 42 239 187 41 240 187 41 241 187 40 242 187 40 243 187 39 244 187 39 245 187 38 246 187 38 247 187 37 248 187 37 249 187 36 250 187 36 251 187 35 252 187 35 253 187 34 254 187 34 
0 188 160 0 188 160 1 188 159 2 188 159 3 188 158 4 188 158 5 188 157 6 188 157 7 188 156 8 188 156 9 188 155 10 188 155 11 188 154 12 188 154 13 188 153 14 188 153 15 188 152 16 188 152 17 188 151 18 188 151 19 188 150 20 188 150 21 188 149 22 188 149 23 188 148 24 188 148 25 188 147 26 188 147 27 188 146 28 188 146 29 188 145 30 188 145 31 188 144 32 188 144 33 188 143 34 188 143 35 188 142 36 188 142 37 188 141 38 188 141 39 188 140 40 188 140 41 188 139 42 188 139 43 188 138 44 188 138 45 188 137 46 188 137 47 188 136 48 188 136 49 188 135 50 188 135 51 188 134 52 188 134 53 188 133 54 188 133 55 188 132 56 188 132 57 188 131 58 188 131 59 188 130 30 60 220 30 60 220 30 60 220 30 60 220 30 60 220 30 60 220 30 60 220 30 60 220 30 60 220 30 60 220 30 60 220 30 60 220 30 60 220 30 60 220 30 60 220 30 60 220 30 60 220 30 60 220 30 60 220 30 60 220 30 60 220 30 60 220 30 60 220 30 60 220 30 60 220 30 60 220 30 60 220 30 60 220 30 60 220 30 60 220 30 60 220 30 60 220 30 60 220 30 60 220 30 60 220 30 60 220 30 60 220 30 60 220 30 60 220 30 60 220 30 60 220 30 60 220 30 60 220 30 60 220 30 60 220 30 60 220 30 60 220 30 60 220 30 60 220 30 60 220 30 60 220 30 60 220 30 60 220 30 60 220 30 60 220 30 60 220 30 60 220 30 60 220 30 60 220 30 60 220 30 60 220 30 60 220 30 60 220 30 60 220 30 60 220 30 60 220 30 60 220 30 60 220 30 60 220 30 60 220 30 60 220 30 60 220 30 60 220 30 60 220 30 60 220 30 60 220 30 60 220 30 60 220 30 60 220 30 60 220 30 60 220 30 60 220 30 60 220 30 60 220 30 60 220 30 60 220 30 60 220 30 60 220 30 60 220 30 60 220 30 60 220 30 60 220 30 60 220 30 60 220 30 60 220 30 60 220 30 60 220 30 60 220 30 60 220 30 60 220 30 60 220 30 60 220 30 60 220 30 60 220 30 60 220 30 60 220 30 60 220 30 60 220 30 60 220 30 60 220 30 60 220 30 60 220 30 60 220 30 60 220 30 60 220 30 60 220 30 60 220 30 60 220 30 60 220 30 60 220 30 60 220 30 60 220 30 60 220 30 60 220 30 60 220 30 60 220 30 60 220 30 60 220 30 60 220 30 60 220 30 60 220 30 60 220 30 60 220 30 60 220 30 60 220 30 60 220 30 60 220 30 60 220 30 60 220 199 188 61 200 188 60 201 188 60 202 188 59 203 188 59 204 188 58 205 188 58 206 188 57 207 188 57 208 188 56 209 188 56 210 188 55 211 188 55 212 188 54 213 188 54 214 188 53 215 188 53 216 188 52 217 188 52 218 188 51 219 188 51 220 188 50 221 188 50 222 188 49 223 188 49 224 188 48 225 188 48 226 188 47 227 188 47 228 188 46 229 188 46 230 188 45 231 188 45 232 188 44 233 188 44 234 188 43 235 188 43 236 188 42 237 188 42 238 188 41 239 188 41 240 188 40 241 188 40 242 188 39 243 188 39 244 188 38 245 188 38 246 188 37 247 188 37 248 188 36 249 188 36 250 188 35 251 188 35 252 188 34 253 188 34 254 188 33 
0 189 160 0 189 159 1 189 159 2 189 158 3 189 158 4 189 157 5 189 157 6 189 156 7 189 156 8 189 155 9 189 155 10 189 154 11 189 154 12 189 153 13 189 153 14 189 152 15 189 152 16 189 151 17 189 151 18 189 150 19 189 150 20 189 149 21 189 149 22 189 148 23 189 148 24 189 147 25 189 147 26 189 146 27 189 146 28 189 145 29 189 145 30 189 144 31 189 144 32 189 143 33 189 143 34 189 142 35 189 142 36 189 141 37 189 141 38 189 140 39 189 140 40 189 139 41 189 139 42 189 138 43 189 138 44 189 137 45 189 137 46 189 136 47 189 136 48 189 135 49 189 135 50 189 134 51 189 134 52 189 133 53 189 133 54 189 132 55 189 132 56 189 131 57 189 131 58 189 130 59 189 130 30 60 220 30 60 220 30 60 220 30 60 220 30 60 220 30 60 220 30 60 220 30 60 220 30 60 220 30 60 220 30 60 220 30 60 220 30 60 220 30 60 220 30 60 220 30 60 220 30 60 220 30 60 220 30 60 220 30 60 220 30 60 220 30 60 220 30 60 220 30 60 220 30 60 220 30 60 220 30 60 220 30 60 220 30 60 220 30 60 220 30 60 220 30 60 220 30 60 220 30 60 220 30 60 220 30 60 220 30 60 220 30 60 220 30 60 220 30 60 220 30 60 220 30 60 220 30 60 220 30 60 220 30 60 220 30 60 220 30 60 220 30 60 220 30 60 220 30 60 220 30 60 220 30 60 220 30 60 220 30 60 220 30 60 220 30 60 220 30 60 220 30 60 220 30 60 220 30 60 220 30 60 220 30 60 220 30 60 220 30 60 220 30 60 220 30 60 220 30 60 220 30 60 220 30 60 220 30 60 220 30 60 220 30 60 220 30 60 220 30 60 220 30 60 220 30 60 220 30 60 220 30 60 220 30 60 220 30 60 220 30 60 220 30 60 220 30 60 220 30 60 220 30 60 220 30 60 220 30 60 220 30 60 220 30 60 220 30 60 220 30 60 220 30 60 220 30 60 220 30 60 220 30 60 220 30 60 220 30 60 220 30 60 220 30 60 220 30 60 220 30 60 220 30 60 220 30 60 220 30 60 220 30 60 220 30 60 220 30 60 220 30 60 220 30 60 220 30 60 220 30 60 220 30 60 220 30 60 220 30 60 220 30 60 220 30 60 220 30 60 220 30 60 220 30 60 220 30 60 220 30 60 220 30 60 220 30 60 220 30 60 220 30 60 220 30 60 220 30 60 220 30 60 220 30 60 220 30 60 220 30 60 220 30 60 220 30 60 220 30 60 220 30 60 220 30 60 220 30 60 220 30 60 220 30 60 220 199 189 60 200 189 60 201 189 59 202 189 59 203 189 58 204 189 58 205 189 57 206 189 57 207 189 56 208 189 56 209 189 55 210 189 55 211 189 54 212 189 54 213 189 53 214 189 53 215 189 52 216 189 52 217 189 51 218 189 51 219 189 50 220 189 50 221 189 49 222 189 49 223 189 48 224 189 48 225 189 47 226 189 47 227 189 46 228 189 46 229 189 45 230 189 45 231 189 44 232 189 44 233 189 43 234 189 43 235 189 42 236 189 42 237 189 41 238 189 41 239 189 40 240 189 40 241 189 39 242 189 39 243 189 38 244 189 38 245 189 37 246 189 37 247 189 36 248 189 36 249 189 35 250 189 35 251 189 34 252 189 34 253 189 33 254 189 33 
0 190 159 0 190 159 1 190 158 2 190 158 3 190 157 4 190 157 5 190 156 6 190 156 7 190 155 8 190 155 9 190 154 10 190 154 11 190 153 12 190 153 13 190 152 14 190 152 15 190 151 16 190 151 17 190 150 18 190 150 19 190 149 20 190 149 21 190 148 22 190 148 23 190 147 24 190 147 25 190 146 26 190 146 27 190 145 28 190 145 29 190 144 30 190 144 31 190 143 32 190 143 33 190 142 34 190 142 35 190 141 36 190 141 37 190 140 38 190 140 39 190 139 40 190 139 41 190 138 42 190 138 43 190 137 44 190 137 45 190 136 46 190 136 47 190 135 48 190 135 49 190 134 50 190 134 51 190 133 52 190 133 53 190 132 54 190 132 55 190 131 56 190 131 57 190 130 58 190 130 59 190 129 30 60 220 30 60 220 30 60 220 30 60 220 30 60 220 30 60 220 30 60 220 30 60 220 30 60 220 30 60 220 30 60 220 30 60 220 30 60 220 30 60 220 30 60 220 30 60 220 30 60 220 30 60 220 30 60 220 30 60 220 30 60 220 30 60 220 30 60 220 30 60 220 30 60 220 30 60 220 30 60 220 30 60 220 30 60 220 30 60 220 30 60 220 30 60 220 30 60 220 30 60 220 30 60 220 30 60 220 30 60 220 30 60 220 30 60 220 30 60 220 30 60 220 30 60 220 30 60 220 30 60 220 30 60 220 30 60 220 30 60 220 30 60 220 30 60 220 30 60 220 30 60 220 30 60 220 30 60 220 30 60 220 30 60 220 30 60 220 30 60 220 30 60 220 30 60 220 30 60 220 30 60 220 30 60 220 30 60 220 30 60 220 30 60 220 30 60 220 30 60 220 30 60 220 30 60 220 30 60 220 30 60 220 30 60 220 30 60 220 30 60 220 30 60 220 30 60 220 30 60 220 30 60 220 30 60 220 30 60 220 30 60 220 30 60 220 30 60 220 30 60 220 30 60 220 30 60 220 30 60 220 30 60 220 30 60 220 30 60 220 30 60 220 30 60 220 30 60 220 30 60 220 30 60 220 30 60 220 30 60 220 30 60 220 30 60 220 30 60 220 30 60 220 30 60 220 30 60 220 30 60 220 30 60 220 30 60 220 30 60 220 30 60 220 30 60 220 30 60 220 30 60 220 30 60 220 30 60 220 30 60 220 30 60 220 30 60 220 30 60 220 30 60 220 30 60 220 30 60 220 30 60 220 30 60 220 30 60 220 30 60 220 30 60 220 30 60 220 30 60 220 30 60 220 30 60 220 30 60 220 30 60 220 30 60 220 30 60 220 30 60 220 30 60 220 30 60 220 30 60 220 30 60 220 30 60 220 199 190 60 200 190 59 201 190 59 202 190 58 203 190 58 204 190 57 205 190 57 206 190 56 207 190 56 208 190 55 209 190 55 210 190 54 211 190 54 212 190 53 213 190 53 214 190 52 215 190 52 216 190 51 217 190 51 218 190 50 219 190 50 220 190 49 221 190 49 222 190 48 223 190 48 224 190 47 225 190 47 226 190 46 227 190 46 228 190 45 229 190 45 230 190 44 231 190 44 232 190 43 233 190 43 234 190 42 235 190 42 236 190 41 237 190 41 238 190 40 239 190 40 240 190 39 241 190 39 242 190 38 243 190 38 244 190 37 245 190 37 246 190 36 247 190 36 248 190 35 249 190 35 250 190 34 251 190 34 252 190 33 253 190 33 254 190 32 
0 191 159 0 191 158 1 191 158 2 191 157 3 191 157 4 191 156 5 191 156 6 191 155 7 191 155 8 191 154 9 191 154 10 191 153 11 191 153 12 191 152 13 191 152 14 191 151 15 191 151 16 191 150 17 191 150 18 191 149 19 191 149 20 191 148 21 191 148 22 191 147 23 191 147 24 191 146 25 191 146 26 191 145 27 191 145 28 191 144 29 191 144 30 191 143 31 191 143 32 191 142 33 191 142 34 191 141 35 191 141 36 191 140 37 191 140 38 191 139 39 191 139 40 191 138 41 191 138 42 191 137 43 191 137 44 191 136 45 191 136 46 191 135 47 191 135 48 191 134 49 191 134 50 191 133 51 191 133 52 191 132 53 191 132 54 191 131 55 191 131 56 191 130 57 191 130 58 191 129 59 191 129 30 60 220 30 60 220 30 60 220 30 60 220 30 60 220 30 60 220 30 60 220 30 60 220 30 60 220 30 60 220 30 60 220 30 60 220 30 60 220 30 60 220 30 60 220 30 60 220 30 60 220 30 60 220 30 60 220 30 60 220 30 60 220 30 60 220 30 60 220 30 60 220 30 60 220 30 60 220 30 60 220 30 60 220 30 60 220 30 60 220 30 60 220 30 60 220 30 60 220 30 60 220 30 60 220 30 60 220 30 60 220 30 60 220 30 60 220 30 60 220 30 60 220 30 60 220 30 60 220 30 60 220 30 60 220 30 60 220 30 60 220 30 60 220 30 60 220 30 60 220 30 60 220 30 60 220 30 60 220 30 60 220 30 60 220 30 60 220 30 60 220 30 60 220 30 60 220 30 60 220 30 60 220 30 60 220 30 60 220 30 60 220 30 60 220 30 60 220 30 60 220 30 60 220 30 60 220 30 60 220 30 60 220 30 60 220 30 60 220 30 60 220 30 60 220 30 60 220 30 60 220 30 60 220 30 60 220 30 60 220 30 60 220 30 60 220 30 60 220 30 60 220 30 60 220 30 60 220 30 60 220 30 60 220 30 60 220 30 60 220 30 60 220 30 60 220 30 60 220 30 60 220 30 60 220 30 60 220 30 60 220 30 60 220 30 60 220 30 60 220 30 60 220 30 60 220 30 60 220 30 60 220 30 60 220 30 60 220 30 60 220 30 60 220 30 60 220 30 60 220 30 60 220 30 60 220 30 60 220 30 60 220 30 60 220 30 60 220 30 60 220 30 60 220 30 60 220 30 60 220 30 60 220 30 60 220 30 60 220 30 60 220 30 60 220 30 60 220 30 60 220 30 60 220 30 60 220 30 60 220 30 60 220 30 60 220 30 60 220 30 60 220 30 60 220 30 60 220 30 60 220 30 60 220 30 60 220 199 191 59 200 191 59 201 191 58 202 191 58 203 191 57 204 191 57 205 191 56 206 191 56 207 191 55 208 191 55 209 191 54 210 191 54 211 191 53 212 191 53 213 191 52 214 191 52 215 191 51 216 191 51 217 191 50 218 191 50 219 191 49 220 191 49 221 191 48 222 191 48 223 191 47 224 191 47 225 191 46 226 191 46 227 191 45 228 191 45 229 191 44 230 191 44 231 191 43 232 191 43 233 191 42 234 191 42 235 191 41 236 191 41 237 191 40 238 191 40 239 191 39 240 191 39 241 191 38 242 191 38 243 191 37 244 191 37 245 191 36 246 191 36 247 191 35 248 191 35 249 191 34 250 191 34 251 191 33 252 191 33 253 191 32 254 191 32 
0 192 158 0 192 158 1 192 157 2 192 157 3 192 156 4 192 156 5 192 155 6 192 155 7 192 154 8 192 154 9 192 153 10 192 153 11 192 152 12 192 152 13 192 151 14 192 151 15 192 150 16 192 150 17 192 149 18 192 149 19 192 148 20 192 148 21 192 147 22 192 147 23 192 146 24 192 146 25 192 145 26 192 145 27 192 144 28 192 144 29 192 143 30 192 143 31 192 142 32 192 142 33 192 141 34 192 141 35 192 140 36 192 140 37 192 139 38 192 139 39 192 138 40 192 138 41 192 137 42 192 137 43 192 136 44 192 136 45 192 135 46 192 135 47 192 134 48 192 134 49 192 133 50 192 133 51 192 132 52 192 132 53 192 131 54 192 131 55 192 130 56 192 130 57 192 129 58 192 129 59 192 128 30 60 220 30 60 220 30 60 220 30 60 220 30 60 220 30 60 220 30 60 220 30 60 220 30 60 220 30 60 220 30 60 220 30 60 220 30 60 220 30 60 220 30 60 220 30 60 220 30 60 220 30 60 220 30 60 220 30 60 220 30 60 220 30 60 220 30 60 220 30 60 220 30 60 220 30 60 220 30 60 220 30 60 220 30 60 220 30 60 220 30 60 220 30 60 220 30 60 220 30 60 220 30 60 220 30 60 220 30 60 220 30 60 220 30 60 220 30 60 220 30 60 220 30 60 220 30 60 220 30 60 220 30 60 220 30 60 220 30 60 220 30 60 220 30 60 220 30 60 220 30 60 220 30 60 220 30 60 220 30 60 220 30 60 220 30 60 220 30 60 220 30 60 220 30 60 220 30 60 220 30 60 220 30 60 220 30 60 220 30 60 220 30 60 220 30 60 220 30 60 220 30 60 220 30 60 220 30 60 220 30 60 220 30 60 220 30 60 220 30 60 220 30 60 220 30 60 220 30 60 220 30 60 220 30 60 220 30 60 220 30 60 220 30 60 220 30 60 220 30 60 220 30 60 220 30 60 220 30 60 220 30 60 220 30 60 220 30 60 220 30 60 220 30 60 220 30 60 220 30 60 220 30 60 220 30 60 220 30 60 220 30 60 220 30 60 220 30 60 220 30 60 220 30 60 220 30 60 220 30 60 220 30 60 220 30 60 220 30 60 220 30 60 220 30 60 220 30 60 220 30 60 220 30 60 220 30 60 220 30 60 220 30 60 220 30 60 220 30 60 220 30 60 220 30 60 220 30 60 220 30 60 220 30 60 220 30 60 220 30 60 220 30 60 220 30 60 220 30 60 220 30 60 220 30 60 220 30 60 220 30 60 220 30 60 220 30 60 220 30 60 220 30 60 220 30 60 220 30 60 220 30 60 220 30 60 220 199 192 59 200 192 58 201 192 58 202 192 57 203 192 57 204 192 56 205 192 56 206 192 55 207 192 55 208 192 54 209 192 54 210 192 53 211 192 53 212 192 52 213 192 52 214 192 51 215 192 51 216 192 50 217 192 50 218 192 49 219 192 49 220 192 48 221 192 48 222 192 47 223 192 47 224 192 46 225 192 46 226 192 45 227 192 45 228 192 44 229 192 44 230 192 43 231 192 43 232 192 42 233 192 42 234 192 41 235 192 41 236 192 40 237 192 40 238 192 39 239 192 39 240 192 38 241 192 38 242 192 37 243 192 37 244 192 36 245 192 36 246 192 35 247 192 35 248 192 34 249 192 34 250 192 33 251 192 33 252 192 32 253 192 32 254 192 31 
0 193 158 0 193 157 1 193 157 2 193 156 3 193 156 4 193 155 5 193 155 6 193 154 7 193 154 8 193 153 9 193 153 10 193 152 11 193 152 12 193 151 13 193 151 14 193 150 15 193 150 16 193 149 17 193 149 18 193 148 19 193 148 20 193 147 21 193 147 22 193 146 23 193 146 24 193 145 25 193 145 26 193 144 27 193 144 28 193 143 29 193 143 30 193 142 31 193 142 32 193 141 33 193 141 34 193 140 35 193 140 36 193 139 37 193 139 38 193 138 39 193 138 40 193 137 41 193 137 42 193 136 43 193 136 44 193 135 45 193 135 46 193 134 47 193 134 48 193 133 49 193 133 50 193 132 51 193 132 52 193 131 53 193 131 54 193 130 55 193 130 56 193 129 57 193 129 58 193 128 59 193 128 30 60 220 30 60 220 30 60 220 30 60 220 30 60 220 30 60 220 30 60 220 30 60 220 30 60 220 30 60 220 30 60 220 30 60 220 30 60 220 30 60 220 30 60 220 30 60 220 30 60 220 30 60 220 30 60 220 30 60 220 30 60 220 30 60 220 30 60 220 30 60 220 30 60 220 30 60 220 30 60 220 30 60 220 30 60 220 30 60 220 30 60 220 30 60 220 30 60 220 30 60 220 30 60 220 30 60 220 30 60 220 30 60 220 30 60 220 30 60 220 30 60 220 30 60 220 30 60 220 30 60 220 30 60 220 30 60 220 30 60 220 30 60 220 30 60 220 30 60 220 30 60 220 30 60 220 30 60 220 30 60 220 30 60 220 30 60 220 30 60 220 30 60 220 30 60 220 30 60 220 30 60 220 30 60 220 30 60 220 30 60 220 30 60 220 30 60 220 30 60 220 30 60 220 30 60 220 30 60 220 30 60 220 30 60 220 30 60 220 30 60 220 30 60 220 30 60 220 30 60 220 30 60 220 30 60 220 30 60 220 30 60 220 30 60 220 30 60 220 30 60 220 30 60 220 30 60 220 30 60 220 30 60 220 30 60 220 30 60 220 30 60 220 30 60 220 30 60 220 30 60 220 30 60 220 30 60 220 30 60 220 30 60 220 30 60 220 30 60 220 30 60 220 30 60 220 30 60 220 30 60 220 30 60 220 30 60 220 30 60 220 30 60 220 30 60 220 30 60 220 30 60 220 30 60 220 30 60 220 30 60 220 30 60 220 30 60 220 30 60 220 30 60 220 30 60 220 30 60 220 30 60 220 30 60 220 30 60 220 30 60 220 30 60 220 30 60 220 30 60 220 30 60 220 30 60 220 30 60 220 30 60 220 30 60 220 30 60 220 30 60 220 30 60 220 30 60 220 30 60 220 30 60 220 30 60 220 199 193 58 200 193 58 201 193 57 202 193 57 203 193 56 204 193 56 205 193 55 206 193 55 207 193 54 208 193 54 209 193 53 210 193 53 211 193 52 212 193 52 213 193 51 214 193 51 215 193 50 216 193 50 217 193 49 218 193 49 219 193 48 220 193 48 221 193 47 222 193 47 223 193 46 224 193 46 225 193 45 226 193 45 227 193 44 228 193 44 229 193 43 230 193 43 231 193 42 232 193 42 233 193 41 234 193 41 235 193 40 236 193 40 237 193 39 238 193 39 239 193 38 240 193 38 241 193 37 242 193 37 243 193 36 244 193 36 245 193 35 246 193 35 247 193 34 248 193 34 249 193 33 250 193 33 251 193 32 252 193 32 253 193 31 254 193 31 
0 194 157 0 194 157 1 194 156 2 194 156 3 194 155 4 194 155 5 194 154 6 194 154 7 194 153 8 194 153 9 194 152 10 194 152 11 194 151 12 194 151 13 194 150 14 194 150 15 194 149 16 194 149 17 194 148 18 194 148 19 194 147 20 194 147 21 194 146 22 194 146 23 194 145 24 194 145 25 194 144 26 194 144 27 194 143 28 194 143 29 194 142 30 194 142 31 194 141 32 194 141 33 194 140 34 194 140 35 194 139 36 194 139 37 194 138 38 194 138 39 194 137 40 194 137 41 194 136 42 194 136 43 194 135 44 194 135 45 194 134 46 194 134 47 194 133 48 194 133 49 194 132 50 194 132 51 194 131 52 194 131 53 194 130 54 194 130 55 194 129 56 194 129 57 194 128 58 194 128 59 194 127 30 60 220 30 60 220 30 60 220 30 60 220 30 60 220 30 60 220 30 60 220 30 60 220 30 60 220 30 60 220 30 60 220 30 60 220 30 60 220 30 60 220 30 60 220 30 60 220 30 60 220 30 60 220 30 60 220 30 60 220 30 60 220 30 60 220 30 60 220 30 60 220 30 60 220 30 60 220 30 60 220 30 60 220 30 60 220 30 60 220 30 60 220 30 60 220 30 60 220 30 60 220 30 60 220 30 60 220 30 60 220 30 60 220 30 60 220 30 60 220 30 60 220 30 60 220 30 60 220 30 60 220 30 60 220 30 60 220 30 60 220 30 60 220 30 60 220 30 60 220 30 60 220 30 60 220 30 60 220 30 60 220 30 60 220 30 60 220 30 60 220 30 60 220 30 60 220 30 60 220 30 60 220 30 60 220 30 60 220 30 60 220 30 60 220 30 60 220 30 60 220 30 60 220 30 60 220 30 60 220 30 60 220 30 60 220 30 60 220 30 60 220 30 60 220 30 60 220 30 60 220 30 60 220 30 60 220 30 60 220 30 60 220 30 60 220 30 60 220 30 60 220 30 60 220 30 60 220 30 60 220 30 60 220 30 60 220 30 60 220 30 60 220 30 60 220 30 60 220 30 60 220 30 60 220 30 60 220 30 60 220 30 60 220 30 60 220 30 60 220 30 60 220 30 60 220 30 60 220 30 60 220 30 60 220 30 60 220 30 60 220 30 60 220 30 60 220 30 60 220 30 60 220 30 60 220 30 60 220 30 60 220 30 60 220 30 60 220 30 60 220 30 60 220 30 60 220 30 60 220 30 60 220 30 60 220 30 60 220 30 60 220 30 60 220 30 60 220 30 60 220 30 60 220 30 60 220 30 60 220 30 60 220 30 60 220 30 60 220 30 60 220 30 60 220 30 60 220 30 60 220 30 60 220 30 60 220 199 194 58 200 194 57 201 194 57 202 194 56 203 194 56 204 194 55 205 194 55 206 194 54 207 194 54 208 194 53 209 194 53 210 194 52 211 194 52 212 194 51 213 194 51 214 194 50 215 194 50 216 194 49 217 194 49 218 194 48 219 194 48 220 194 47 221 194 47 222 194 46 223 194 46 224 194 45 225 194 45 226 194 44 227 194 44 228 194 43 229 194 43 230 194 42 231 194 42 232 194 41 233 194 41 234 194 40 235 194 40 236 194 39 237 194 39 238 194 38 239 194 38 240 194 37 241 194 37 242 194 36 243 194 36 244 194 35 245 194 35 246 194 34 247 194 34 248 194 33 249 194 33 250 194 32 251 194 32 252 194 31 253 194 31 254 194 30 
0 195 157 0 195 156 1 195 156 2 195 155 3 195 155 4 195 154 5 195 154 6 195 153 7 195 153 8 195 152 9 195 152 10 195 151 11 195 151 12 195 150 13 195 150 14 195 149 15 195 149 16 195 148 17 195 148 18 195 147 19 195 147 20 195 146 21 195 146 22 195 145 23 195 145 24 195 144 25 195 144 26 195 143 27 195 143 28 195 142 29 195 142 30 195 141 31 195 141 32 195 140 33 195 140 34 195 139 35 195 139 36 195 138 37 195 138 38 195 137 39 195 137 40 195 136 41 195 136 42 195 135 43 195 135 44 195 134 45 195 134 46 195 133 47 195 133 48 195 132 49 195 132 50 195 131 51 195 131 52 195 130 53 195 130 54 195 129 55 195 129 56 195 128 57 195 128 58 195 127 59 195 127 30 60 220 30 60 220 30 60 220 30 60 220 30 60 220 30 60 220 30 60 220 30 60 220 30 60 220 30 60 220 30 60 220 30 60 220 30 60 220 30 60 220 30 60 220 30 60 220 30 60 220 30 60 220 30 60 220 30 60 220 30 60 220 30 60 220 30 60 220 30 60 220 30 60 220 30 60 220 30 60 220 30 60 220 30 60 220 30 60 220 30 60 220 30 60 220 30 60 220 30 60 220 30 60 220 30 60 220 30 60 220 30 60 220 30 60 220 30 60 220 30 60 220 30 60 220 30 60 220 30 60 220 30 60 220 30 60 220 30 60 220 30 60 220 30 60 220 30 60 220 30 60 220 30 60 220 30 60 220 30 60 220 30 60 220 30 60 220 30 60 220 30 60 220 30 60 220 30 60 220 30 60 220 30 60 220 30 60 220 30 60 220 30 60 220 30 60 220 30 60 220 30 60 220 30 60 220 30 60 220 30 60 220 30 60 220 30 60 220 30 60 220 30 60 220 30 60 220 30 60 220 30 60 220 30 60 220 30 60 220 30 60 220 30 60 220 30 60 220 30 60 220 30 60 220 30 60 220 30 60 220 30 60 220 30 60 220 30 60 220 30 60 220 30 60 220 30 60 220 30 60 220 30 60 220 30 60 220 30 60 220 30 60 220 30 60 220 30 60 220 30 60 220 30 60 220 30 60 220 30 60 220 30 60 220 30 60 220 30 60 220 30 60 220 30 60 220 30 60 220 30 60 220 30 60 220 30 60 220 30 60 220 30 60 220 30 60 220 30 60 220 30 60 220 30 60 220 30 60 220 30 60 220 30 60 220 30 60 220 30 60 220 30 60 220 30 60 220 30 60 220 30 60 220 30 60 220 30 60 220 30 60 220 30 60 220 30 60 220 30 60 220 30 60 220 30 60 220 30 60 220 30 60 220 30 60 220 199 195 57 200 195 57 201 195 56 202 195 56 203 195 55 204 195 55 205 195 54 206 195 54 207 195 53 208 195 53 209 195 52 210 195 52 211 195 51 212 195 51 213 195 50 214 195 50 215 195 49 216 195 49 217 195 48 218 195 48 219 195 47 220 195 47 221 195 46 222 195 46 223 195 45 224 195 45 225 195 44 226 195 44 227 195 43 228 195 43 229 195 42 230 195 42 231 195 41 232 195 41 233 195 40 234 195 40 235 195 39 236 195 39 237 195 38 238 195 38 239 195 37 240 195 37 241 195 36 242 195 36 243 195 35 244 195 35 245 195 34 246 195 34 247 195 33 248 195 33 249 195 32 250 195 32 251 195 31 252 195 31 253 195 30 254 195 30 
0 196 156 0 196 156 1 196 155 2 196 155 3 196 154 4 196 154 5 196 153 6 196 153 7 196 152 8 196 152 9 196 151 10 196 151 11 196 150 12 196 150 13 196 149 14 196 149 15 196 148 16 196 148 17 196 147 18 196 147 19 196 146 20 196 146 21 196 145 22 196 145 23 196 144 24 196 144 25 196 143 26 196 143 27 196 142 28 196 142 29 196 141 30 196 141 31 196 140 32 196 140 33 196 139 34 196 139 35 196 138 36 196 138 37 196 137 38 196 137 39 196 136 40 196 136 41 196 135 42 196 135 43 196 134 44 196 134 45 196 133 46 196 133 47 196 132 48 196 132 49 196 131 50 196 131 51 196 130 52 196 130 53 196 129 54 196 129 55 196 128 56 196 128 57 196 127 58 196 127 59 196 127 30 60 220 30 60 220 30 60 220 30 60 220 30 60 220 30 60 220 30 60 220 30 60 220 30 60 220 30 60 220 30 60 220 30 60 220 30 60 220 30 60 220 30 60 220 30 60 220 30 60 220 30 60 220 30 60 220 30 60 220 30 60 220 30 60 220 30 60 220 30 60 220 30 60 220 30 60 220 30 60 220 30 60 220 30 60 220 30 60 220 30 60 220 30 60 220 30 60 220 30 60 220 30 60 220 30 60 220 30 60 220 30 60 220 30 60 220 30 60 220 30 60 220 30 60 220 30 60 220 30 60 220 30 60 220 30 60 220 30 60 220 30 60 220 30 60 220 30 60 220 30 60 220 30 60 220 30 60 220 30 60 220 30 60 220 30 60 220 30 60 220 30 60 220 30 60 220 30 60 220 30 60 220 30 60 220 30 60 220 30 60 220 30 60 220 30 60 220 30 60 220 30 60 220 30 60 220 30 60 220 30 60 220 30 60 220 30 60 220 30 60 220 30 60 220 30 60 220 30 60 220 30 60 220 30 60 220 30 60 220 30 60 220 30 60 220 30 60 220 30 60 220 30 60 220 30 60 220 30 60 220 30 60 220 30 60 220 30 60 220 30 60 220 30 60 220 30 60 220 30 60 220 30 60 220 30 60 220 30 60 220 30 60 220 30 60 220 30 60 220 30 60 220 30 60 220 30 60 220 30 60 220 30 60 220 30 60 220 30 60 220 30 60 220 30 60 220 30 60 220 30 60 220 30 60 220 30 60 220 30 60 220 30 60 220 30 60 220 30 60 220 30 60 220 30 60 220 30 60 220 30 60 220 30 60 220 30 60 220 30 60 220 30 60 220 30 60 220 30 60 220 30 60 220 30 60 220 30 60 220 30 60 220 30 60 220 30 60 220 30 60 220 30 60 220 30 60 220 30 60 220 30 60 220 30 60 220 199 196 57 200 196 56 201 196 56 202 196 55 203 196 55 204 196 54 205 196 54 206 196 53 207 196 53 208 196 52 209 196 52 210 196 51 211 196 51 212 196 50 213 196 50 214 196 49 215 196 49 216 196 48 217 196 48 218 196 47 219 196 47 220 196 46 221 196 46 222 196 45 223 196 45 224 196 44 225 196 44 226 196 43 227 196 43 228 196 42 229 196 42 230 196 41 231 196 41 232 196 40 233 196 40 234 196 39 235 196 39 236 196 38 237 196 38 238 196 37 239 196 37 240 196 36 241 196 36 242 196 35 243 196 35 244 196 34 245 196 34 246 196 33 247 196 33 248 196 32 249 196 32 250 196 31 251 196 31 252 196 30 253 196 30 254 196 29 
0 197 156 0 197 155 1 197 155 2 197 154 3 197 154 4 197 153 5 197 153 6 197 152 7 197 152 8 197 151 9 197 151 10 197 150 11 197 150 12 197 149 13 197 149 14 197 148 15 197 148 16 197 147 17 197 147 18 197 146 19 197 146 20 197 145 21 197 145 22 197 144 23 197 144 24 197 143 25 197 143 26 197 142 27 197 142 28 197 141 29 197 141 30 197 140 31 197 140 32 197 139 33 197 139 34 197 138 35 197 138 36 197 137 37 197 137 38 197 136 39 197 136 40 197 135 41 197 135 42 197 134 43 197 134 44 197 133 45 197 133 46 197 132 47 197 132 48 197 131 49 197 131 50 197 130 51 197 130 52 197 129 53 197 129 54 197 128 55 197 128 56 197 127 57 197 127 58 197 127 59 197 126 30 60 220 30 60 220 30 60 220 30 60 220 30 60 220 30 60 220 30 60 220 30 60 220 30 60 220 30 60 220 30 60 220 30 60 220 30 60 220 30 60 220 30 60 220 30 60 220 30 60 220 30 60 220 30 60 220 30 60 220 30 60 220 30 60 220 30 60 220 30 60 220 30 60 220 30 60 220 30 60 220 30 60 220 30 60 220 30 60 220 30 60 220 30 60 220 30 60 220 30 60 220 30 60 220 30 60 220 30 60 220 30 60 220 30 60 220 30 60 220 30 60 220 30 60 220 30 60 220 30 60 220 30 60 220 30 60 220 30 60 220 30 60 220 30 60 220 30 60 220 30 60 220 30 60 220 30 60 220 30 60 220 30 60 220 30 60 220 30 60 220 30 60 220 30 60 220 30 60 220 30 60 220 30 60 220 30 60 220 30 60 220 30 60 220 30 60 220 30 60 220 30 60 220 30 60 220 30 60 220 30 60 220 30 60 220 30 60 220 30 60 220 30 60 220 30 60 220 30 60 220 30 60 220 30 60 220 30 60 220 30 60 220 30 60 220 30 60 220 30 60 220 30 60 220 30 60 220 30 60 220 30 60 220 30 60 220 30 60 220 30 60 220 30 60 220 30 60 220 30 60 220 30 60 220 30 60 220 30 60 220 30 60 220 30 60 220 30 60 220 30 60 220 30 60 220 30 60 220 30 60 220 30 60 220 30 60 220 30 60 220 30 60 220 30 60 220 30 60 220 30 60 220 30 60 220 30 60 220 30 60 220 30 60 220 30 60 220 30 60 220 30 60 220 30 60 220 30 60 220 30 60 220 30 60 220 30 60 220 30 60 220 30 60 220 30 60 220 30 60 220 30 60 220 30 60 220 30 60 220 30 60 220 30 60 220 30 60 220 30 60 220 30 60 220 30 60 220 30 60 220 30 60 220 30 60 220 199 197 56 200 197 56 201 197 55 202 197 55 203 197 54 204 197 54 205 197 53 206 197 53 207 197 52 208 197 52 209 197 51 210 197 51 211 197 50 212 197 50 213 197 49 214 197 49 215 197 48 216 197 48 217 197 47 218 197 47 219 197 46 220 197 46 221 197 45 222 197 45 223 197 44 224 197 44 225 197 43 226 197 43 227 197 42 228 197 42 229 197 41 230 197 41 231 197 40 232 197 40 233 197 39 234 197 39 235 197 38 236 197 38 237 197 37 238 197 37 239 197 36 240 197 36 241 197 35 242 197 35 243 197 34 244 197 34 245 197 33 246 197 33 247 197 32 248 197 32 249 197 31 250 197 31 251 197 30 252 197 30 253 197 29 254 197 29 
0 198 155 0 198 155 1 198 154 2 198 154 3 198 153 4 198 153 5 198 152 6 198 152 7 198 151 8 198 151 9 198 150 10 198 150 11 198 149 12 198 149 13 198 148 14 198 148 15 198 147 16 198 147 17 198 146 18 198 146 19 198 145 20 198 145 21 198 144 22 198 144 23 198 143 24 198 143 25 198 142 26 198 142 27 198 141 28 198 141 29 198 140 30 198 140 31 198 139 32 198 139 33 198 138 34 198 138 35 198 137 36 198 137 37 198 136 38 198 136 39 198 135 40 198 135 41 198 134 42 198 134 43 198 133 44 198 133 45 198 132 46 198 132 47 198 131 48 198 131 49 198 130 50 198 130 51 198 129 52 198 129 53 198 128 54 198 128 55 198 127 56 198 127 57 198 127 58 198 126 59 198 126 30 60 220 30 60 220 30 60 220 30 60 220 30 60 220 30 60 220 30 60 220 30 60 220 30 60 220 30 60 220 30 60 220 30 60 220 30 60 220 30 60 220 30 60 220 30 60 220 30 60 220 30 60 220 30 60 220 30 60 220 30 60 220 30 60 220 30 60 220 30 60 220 30 60 220 30 60 220 30 60 220 30 60 220 30 60 220 30 60 220 30 60 220 30 60 220 30 60 220 30 60 220 30 60 220 30 60 220 30 60 220 30 60 220 30 60 220 30 60 220 30 60 220 30 60 220 30 60 220 30 60 220 30 60 220 30 60 220 30 60 220 30 60 220 30 60 220 30 60 220 30 60 220 30 60 220 30 60 220 30 60 220 30 60 220 30 60 220 30 60 220 30 60 220 30 60 220 30 60 220 30 60 220 30 60 220 30 60 220 30 60 220 30 60 220 30 60 220 30 60 220 30 60 220 30 60 220 30 60 220 30 60 220 30 60 220 30 60 220 30 60 220 30 60 220 30 60 220 30 60 220 30 60 220 30 60 220 30 60 220 30 60 220 30 60 220 30 60 220 30 60 220 30 60 220 30 60 220 30 60 220 30 60 220 30 60 220 30 60 220 30 60 220 30 60 220 30 60 220 30 60 220 30 60 220 30 60 220 30 60 220 30 60 220 30 60 220 30 60 220 30 60 220 30 60 220 30 60 220 30 60 220 30 60 220 30 60 220 30 60 220 30 60 220 30 60 220 30 60 220 30 60 220 30 60 220 30 60 220 30 60 220 30 60 220 30 60 220 30 60 220 30 60 220 30 60 220 30 60 220 30 60 220 30 60 220 30 60 220 30 60 220 30 60 220 30 60 220 30 60 220 30 60 220 30 60 220 30 60 220 30 60 220 30 60 220 30 60 220 30 60 220 30 60 220 30 60 220 30 60 220 30 60 220 30 60 220 199 198 56 200 198 55 201 198 55 202 198 54 203 198 54 204 198 53 205 198 53 206 198 52 207 198 52 208 198 51 209 198 51 210 198 50 211 198 50 212 198 49 213 198 49 214 198 48 215 198 48 216 198 47 217 198 47 218 198 46 219 198 46 220 198 45 221 198 45 222 198 44 223 198 44 224 198 43 225 198 43 226 198 42 227 198 42 228 198 41 229 198 41 230 198 40 231 198 40 232 198 39 233 198 39 234 198 38 235 198 38 236 198 37 237 198 37 238 198 36 239 198 36 240 198 35 241 198 35 242 198 34 243 198 34 244 198 33 245 198 33 246 198 32 247 198 32 248 198 31 249 198 31 250 198 30 251 198 30 252 198 29 253 198 29 254 198 28 
0 199 155 0 199 154 1 199 154 2 199 153 3 199 153 4 199 152 5 199 152 6 199 151 7 199 151 8 199 150 9 199 150 10 199 149 11 199 149 12 199 148 13 199 148 14 199 147 15 199 147 16 199 146 17 199 146 18 199 145 19 199 145 20 199 144 21 199 144 22 199 143 23 199 143 24 199 142 25 199 142 26 199 141 27 199 141 28 199 140 29 199 140 30 199 139 31 199 139 32 199 138 33 199 138 34 199 137 35 199 137 36 199 136 37 199 136 38 199 135 39 199 135 40 199 134 41 199 134 42 199 133 43 199 133 44 199 132 45 199 132 46 199 131 47 199 131 48 199 130 49 199 130 50 199 129 51 199 129 52 199 128 53 199 128 54 199 127 55 199 127 56 199 127 57 199 126 58 199 126 59 199 125 30 60 220 30 60 220 30 60 220 30 60 220 30 60 220 30 60 220 30 60 220 30 60 220 30 60 220 30 60 220 30 60 220 30 60 220 30 60 220 30 60 220 30 60 220 30 60 220 30 60 220 30 60 220 30 60 220 30 60 220 30 60 220 30 60 220 30 60 220 30 60 220 30 60 220 30 60 220 30 60 220 30 60 220 30 60 220 30 60 220 30 60 220 30 60 220 30 60 220 30 60 220 30 60 220 30 60 220 30 60 220 30 60 220 30 60 220 30 60 220 30 60 220 30 60 220 30 60 220 30 60 220 30 60 220 30 60 220 30 60 220 30 60 220 30 60 220 30 60 220 30 60 220 30 60 220 30 60 220 30 60 220 30 60 220 30 60 220 30 60 220 30 60 220 30 60 220 30 60 220 30 60 220 30 60 220 30 60 220 30 60 220 30 60 220 30 60 220 30 60 220 30 60 220 30 60 220 30 60 220 30 60 220 30 60 220 30 60 220 30 60 220 30 60 220 30 60 220 30 60 220 30 60 220 30 60 220 30 60 220 30 60 220 30 60 220 30 60 220 30 60 220 30 60 220 30 60 220 30 60 220 30 60 220 30 60 220 30 60 220 30 60 220 30 60 220 30 60 220 30 60 220 30 60 220 30 60 220 30 60 220 30 60 220 30 60 220 30 60 220 30 60 220 30 60 220 30 60 220 30 60 220 30 60 220 30 60 220 30 60 220 30 60 220 30 60 220 30 60 220 30 60 220 30 60 220 30 60 220 30 60 220 30 60 220 30 60 220 30 60 220 30 60 220 30 60 220 30 60 220 30 60 220 30 60 220 30 60 220 30 60 220 30 60 220 30 60 220 30 60 220 30 60 220 30 60 220 30 60 220 30 60 220 30 60 220 30 60 220 30 60 220 30 60 220 30 60 220 30 60 220 30 60 220 30 60 220 199 199 55 200 199 55 201 199 54 202 199 54 203 199 53 204 199 53 205 199 52 206 199 52 207 199 51 208 199 51 209 199 50 210 199 50 211 199 49 212 199 49 213 199 48 214 199 48 215 199 47 216 199 47 217 199 46 218 199 46 219 199 45 220 199 45 221 199 44 222 199 44 223 199 43 224 199 43 225 199 42 226 199 42 227 199 41 228 199 41 229 199 40 230 199 40 231 199 39 232 199 39 233 199 38 234 199 38 235 199 37 236 199 37 237 199 36 238 199 36 239 199 35 240 199 35 241 199 34 242 199 34 243 199 33 244 199 33 245 199 32 246 199 32 247 199 31 248 199 31 249 199 30 250 199 30 251 199 29 252 199 29 253 199 28 254 199 28 
0 200 154 0 200 154 1 200 153 2 200 153 3 200 152 4 200 152 5 200 151 6 200 151 7 200 150 8 200 150 9 200 149 10 200 149 11 200 148 12 200 148 13 200 147 14 200 147 15 200 146 16 200 146 17 200 145 18 200 145 19 200 144 20 200 144 21 200 143 22 200 143 23 200 142 24 200 142 25 200 141 26 200 141 27 200 140 28 200 140 29 200 139 30 200 139 31 200 138 32 200 138 33 200 137 34 200 137 35 200 136 36 200 136 37 200 135 38 200 135 39 200 134 40 200 134 41 200 133 42 200 133 43 200 132 44 200 132 45 200 131 46 200 131 47 200 130 48 200 130 49 200 129 50 200 129 51 200 128 52 200 128 53 200 127 54 200 127 55 200 127 56 200 126 57 200 126 58 200 125 59 200 125 30 60 220 30 60 220 30 60 220 30 60 220 30 60 220 30 60 220 30 60 220 30 60 220 30 60 220 30 60 220 30 60 220 30 60 220 30 60 220 30 60 220 30 60 220 30 60 220 30 60 220 30 60 220 30 60 220 30 60 220 30 60 220 30 60 220 30 60 220 30 60 220 30 60 220 30 60 220 30 60 220 30 60 220 30 60 220 30 60 220 30 60 220 30 60 220 30 60 220 30 60 220 30 60 220 30 60 220 30 60 220 30 60 220 30 60 220 30 60 220 30 60 220 30 60 220 30 60 220 30 60 220 30 60 220 30 60 220 30 60 220 30 60 220 30 60 220 30 60 220 30 60 220 30 60 220 30 60 220 30 60 220 30 60 220 30 60 220 30 60 220 30 60 220 30 60 220 30 60 220 30 60 220 30 60 220 30 60 220 30 60 220 30 60 220 30 60 220 30 60 220 30 60 220 30 60 220 30 60 220 30 60 220 30 60 220 30 60 220 30 60 220 30 60 220 30 60 220 30 60 220 30 60 220 30 60 220 30 60 220 30 60 220 30 60 220 30 60 220 30 60 220 30 60 220 30 60 220 30 60 220 30 60 220 30 60 220 30 60 220 30 60 220 30 60 220 30 60 220 30 60 220 30 60 220 30 60 220 30 60 220 30 60 220 30 60 220 30 60 220 30 60 220 30 60 220 30 60 220 30 60 220 30 60 220 30 60 220 30 60 220 30 60 220 30 60 220 30 60 220 30 60 220 30 60 220 30 60 220 30 60 220 30 60 220 30 60 220 30 60 220 30 60 220 30 60 220 30 60 220 30 60 220 30 60 220 30 60 220 30 60 220 30 60 220 30 60 220 30 60 220 30 60 220 30 60 220 30 60 220 30 60 220 30 60 220 30 60 220 30 60 220 30 60 220 30 60 220 30 60 220 30 60 220 30 60 220 199 200 55 200 200 54 201 200 54 202 200 53 203 200 53 204 200 52 205 200 52 206 200 51 207 200 51 208 200 50 209 200 50 210 200 49 211 200 49 212 200 48 213 200 48 214 200 47 215 200 47 216 200 46 217 200 46 218 200 45 219 200 45 220 200 44 221 200 44 222 200 43 223 200 43 224 200 42 225 200 42 226 200 41 227 200 41 228 200 40 229 200 40 230 200 39 231 200 39 232 200 38 233 200 38 234 200 37 235 200 37 236 200 36 237 200 36 238 200 35 239 200 35 240 200 34 241 200 34 242 200 33 243 200 33 244 200 32 245 200 32 246 200 31 247 200 31 248 200 30 249 200 30 250 200 29 251 200 29 252 200 28 253 200 28 254 200 27 
0 201 154 0 201 153 1 201 153 2 201 152 3 201 152 4 201 151 5 201 151 6 201 150 7 201 150 8 201 149 9 201 149 10 201 148 11 201 148 12 201 147 13 201 147 14 201 146 15 201 146 16 201 145 17 201 145 18 201 144 19 201 144 20 201 143 21 201 143 22 201 142 23 201 142 24 201 141 25 201 141 26 201 140 27 201 140 28 201 139 29 201 139 30 201 138 31 201 138 32 201 137 33 201 137 34 201 136 35 201 136 36 201 135 37 201 135 38 201 134 39 201 134 40 201 133 41 201 133 42 201 132 43 201 132 44 201 131 45 201 131 46 201 130 47 201 130 48 201 129 49 201 129 50 201 128 51 201 128 52 201 127 53 201 127 54 201 127 55 201 126 56 201 126 57 201 125 58 201 125 59 201 124 30 60 220 30 60 220 30 60 220 30 60 220 30 60 220 30 60 220 30 60 220 30 60 220 30 60 220 30 60 220 30 60 220 30 60 220 30 60 220 30 60 220 30 60 220 30 60 220 30 60 220 30 60 220 30 60 220 30 60 220 30 60 220 30 60 220 30 60 220 30 60 220 30 60 220 30 60 220 30 60 220 30 60 220 30 60 220 30 60 220 30 60 220 30 60 220 30 60 220 30 60 220 30 60 220 30 60 220 30 60 220 30 60 220 30 60 220 30 60 220 30 60 220 30 60 220 30 60 220 30 60 220 30 60 220 30 60 220 30 60 220 30 60 220 30 60 220 30 60 220 30 60 220 30 60 220 30 60 220 30 60 220 30 60 220 30 60 220 30 60 220 30 60 220 30 60 220 30 60 220 30 60 220 30 60 220 30 60 220 30 60 220 30 60 220 30 60 220 30 60 220 30 60 220 30 60 220 30 60 220 30 60 220 30 60 220 30 60 220 30 60 220 30 60 220 30 60 220 30 60 220 30 60 220 30 60 220 30 60 220 30 60 220 30 60 220 30 60 220 30 60 220 30 60 220 30 60 220 30 60 220 30 60 220 30 60 220 30 60 220 30 60 220 30 60 220 30 60 220 30 60 220 30 60 220 30 60 220 30 60 220 30 60 220 30 60 220 30 60 220 30 60 220 30 60 220 30 60 220 30 60 220 30 60 220 30 60 220 30 60 220 30 60 220 30 60 220 30 60 220 30 60 220 30 60 220 30 60 220 30 60 220 30 60 220 30 60 220 30 60 220 30 60 220 30 60 220 30 60 220 30 60 220 30 60 220 30 60 220 30 60 220 30 60 220 30 60 220 30 60 220 30 60 220 30 60 220 30 60 220 30 60 220 30 60 220 30 60 220 30 60 220 30 60 220 30 60 220 30 60 220 30 60 220 30 60 220 199 201 54 200 201 54 201 201 53 202 201 53 203 201 52 204 201 52 205 201 51 206 201 51 207 201 50 208 201 50 209 201 49 210 201 49 211 201 48 212 201 48 213 201 47 214 201 47 215 201 46 216 201 46 217 201 45 218 201 45 219 201 44 220 201 44 221 201 43 222 201 43 223 201 42 224 201 42 225 201 41 226 201 41 227 201 40 228 201 40 229 201 39 230 201 39 231 201 38 232 201 38 233 201 37 234 201 37 235 201 36 236 201 36 237 201 35 238 201 35 239 201 34 240 201 34 241 201 33 242 201 33 243 201 32 244 201 32 245 201 31 246 201 31 247 201 30 248 201 30 249 201 29 250 201 29 251 201 28 252 201 28 253 201 27 254 201 27 
0 202 153 0 202 153 1 202 152 2 202 152 3 202 151 4 202 151 5 202 150 6 202 150 7 202 149 8 202 149 9 202 148 10 202 148 11 202 147 12 202 147 13 202 146 14 202 146 15 202 145 16 202 145 17 202 144 18 202 144 19 202 143 20 202 143 21 202 142 22 202 142 23 202 141 24 202 141 25 202 140 26 202 140 27 202 139 28 202 139 29 202 138 30 202 138 31 202 137 32 202 137 33 202 136 34 202 136 35 202 135 36 202 135 37 202 134 38 202 134 39 202 133 40 202 133 41 202 132 42 202 132 43 202 131 44 202 131 45 202 130 46 202 130 47 202 129 48 202 129 49 202 128 50 202 128 51 202 127 52 202 127 53 202 127 54 202 126 55 202 126 56 202 125 57 202 125 58 202 124 59 202 124 30 60 220 30 60 220 30 60 220 30 60 220 30 60 220 30 60 220 30 60 220 30 60 220 30 60 220 30 60 220 30 60 220 30 60 220 30 60 220 30 60 220 30 60 220 30 60 220 30 60 220 30 60 220 30 60 220 30 60 220 30 60 220 30 60 220 30 60 220 30 60 220 30 60 220 30 60 220 30 60 220 30 60 220 30 60 220 30 60 220 30 60 220 30 60 220 30 60 220 30 60 220 30 60 220 30 60 220 30 60 220 30 60 220 30 60 220 30 60 220 30 60 220 30 60 220 30 60 220 30 60 220 30 60 220 30 60 220 30 60 220 30 60 220 30 60 220 30 60 220 30 60 220 30 60 220 30 60 220 30 60 220 30 60 220 30 60 220 30 60 220 30 60 220 30 60 220 30 60 220 30 60 220 30 60 220 30 60 220 30 60 220 30 60 220 30 60 220 30 60 220 30 60 220 30 60 220 30 60 220 30 60 220 30 60 220 30 60 220 30 60 220 30 60 220 30 60 220 30 60 220 30 60 220 30 60 220 30 60 220 30 60 220 30 60 220 30 60 220 30 60 220 30 60 220 30 60 220 30 60 220 30 60 220 30 60 220 30 60 220 30 60 220 30 60 220 30 60 220 30 60 220 30 60 220 30 60 220 30 60 220 30 60 220 30 60 220 30 60 220 30 60 220 30 60 220 30 60 220 30 60 220 30 60 220 30 60 220 30 60 220 30 60 220 30 60 220 30 60 220 30 60 220 30 60 220 30 60 220 30 60 220 30 60 220 30 60 220 30 60 220 30 60 220 30 60 220 30 60 220 30 60 220 30 60 220 30 60 220 30 60 220 30 60 220 30 60 220 30 60 220 30 60 220 30 60 220 30 60 220 30 60 220 30 60 220 30 60 220 30 60 220 30 60 220 30 60 220 30 60 220 30 60 220 30 60 220 199 202 54 200 202 53 201 202 53 202 202 52 203 202 52 204 202 51 205 202 51 206 202 50 207 202 50 208 202 49 209 202 49 210 202 48 211 202 48 212 202 47 213 202 47 214 202 46 215 202 46 216 202 45 217 202 45 218 202 44 219 202 44 220 202 43 221 202 43 222 202 42 223 202 42 224 202 41 225 202 41 226 202 40 227 202 40 228 202 39 229 202 39 230 202 38 231 202 38 232 202 37 233 202 37 234 202 36 235 202 36 236 202 35 237 202 35 238 202 34 239 202 34 240 202 33 241 202 33 242 202 32 243 202 32 244 202 31 245 202 31 246 202 30 247 202 30 248 202 29 249 202 29 250 202 28 251 202 28 252 202 27 253 202 27 254 202 26 
0 203 153 0 203 152 1 203 152 2 203 151 3 203 151 4 203 150 5 203 150 6 203 149 7 203 149 8 203 148 9 203 148 10 203 147 11 203 147 12 203 146 13 203 146 14 203 145 15 203 145 16 203 144 17 203 144 18 203 143 19 203 143 20 203 142 21 203 142 22 203 141 23 203 141 24 203 140 25 203 140 26 203 139 27 203 139 28 203 138 29 203 138 30 203 137 31 203 137 32 203 136 33 203 136 34 203 135 35 203 135 36 203 134 37 203 134 38 203 133 39 203 133 40 203 132 41 203 132 42 203 131 43 203 131 44 203 130 45 203 130 46 203 129 47 203 129 48 203 128 49 203 128 50 203 127 51 203 127 52 203 127 53 203 126 54 203 126 55 203 125 56 203 125 57 203 124 58 203 124 59 203 123 30 60 220 30 60 220 30 60 220 30 60 220 30 60 220 30 60 220 30 60 220 30 60 220 30 60 220 30 60 220 30 60 220 30 60 220 30 60 220 30 60 220 30 60 220 30 60 220 30 60 220 30 60 220 30 60 220 30 60 220 30 60 220 30 60 220 30 60 220 30 60 220 30 60 220 30 60 220 30 60 220 30 60 220 30 60 220 30 60 220 30 60 220 30 60 220 30 60 220 30 60 220 30 60 220 30 60 220 30 60 220 30 60 220 30 60 220 30 60 220 30 60 220 30 60 220 30 60 220 30 60 220 30 60 220 30 60 220 30 60 220 30 60 220 30 60 220 30 60 220 30 60 220 30 60 220 30 60 220 30 60 220 30 60 220 30 60 220 30 60 220 30 60 220 30 60 220 30 60 220 30 60 220 30 60 220 30 60 220 30 60 220 30 60 220 30 60 220 30 60 220 30 60 220 30 60 220 30 60 220 30 60 220 30 60 220 30 60 220 30 60 220 30 60 220 30 60 220 30 60 220 30 60 220 30 60 220 30 60 220 30 60 220 30 60 220 30 60 220 30 60 220 30 60 220 30 60 220 30 60 220 30 60 220 30 60 220 30 60 220 30 60 220 30 60 220 30 60 220 30 60 220 30 60 220 30 60 220 30 60 220 30 60 220 30 60 220 30 60 220 30 60 220 30 60 220 30 60 220 30 60 220 30 60 220 30 60 220 30 60 220 30 60 220 30 60 220 30 60 220 30 60 220 30 60 220 30 60 220 30 60 220 30 60 220 30 60 220 30 60 220 30 60 220 30 60 220 30 60 220 30 60 220 30 60 220 30 60 220 30 60 220 30 60 220 30 60 220 30 60 220 30 60 220 30 60 220 30 60 220 30 60 220 30 60 220 30 60 220 30 60 220 30 60 220 30 60 220 30 60 220 30 60 220 30 60 220 199 203 53 200 203 53 201 203 52 202 203 52 203 203 51 204 203 51 205 203 50 206 203 50 207 203 49 208 203 49 209 203 48 210 203 48 211 203 47 212 203 47 213 203 46 214 203 46 215 203 45 216 203 45 217 203 44 218 203 44 219 203 43 220 203 43 221 203 42 222 203 42 223 203 41 224 203 41 225 203 40 226 203 40 227 203 39 228 203 39 229 203 38 230 203 38 231 203 37 232 203 37 233 203 36 234 203 36 235 203 35 236 203 35 237 203 34 238 203 34 239 203 33 240 203 33 241 203 32 242 203 32 243 203 31 244 203 31 245 203 30 246 203 30 247 203 29 248 203 29 249 203 28 250 203 28 251 203 27 252 203 27 253 203 26 254 203 26 
0 204 152 0 204 152 1 204 151 2 204 151 3 204 150 4 204 150 5 204 149 6 204 149 7 204 148 8 204 148 9 204 147 10 204 147 11 204 146 12 204 146 13 204 145 14 204 145 15 204 144 16 204 144 17 204 143 18 204 143 19 204 142 20 204 142 21 204 141 22 204 141 23 204 140 24 204 140 25 204 139 26 204 139 27 204 138 28 204 138 29 204 137 30 204 137 31 204 136 32 204 136 33 204 135 34 204 135 35 204 134 36 204 134 37 204 133 38 204 133 39 204 132 40 204 132 41 204 131 42 204 131 43 204 130 44 204 130 45 204 129 46 204 129 47 204 128 48 204 128 49 204 127 50 204 127 51 204 127 52 204 126 53 204 126 54 204 125 55 204 125 56 204 124 57 204 124 58 204 123 59 204 123 30 60 220 30 60 220 30 60 220 30 60 220 30 60 220 30 60 220 30 60 220 30 60 220 30 60 220 30 60 220 30 60 220 30 60 220 30 60 220 30 60 220 30 60 220 30 60 220 30 60 220 30 60 220 30 60 220 30 60 220 30 60 220 30 60 220 30 60 220 30 60 220 30 60 220 30 60 220 30 60 220 30 60 220 30 60 220 30 60 220 30 60 220 30 60 220 30 60 220 30 60 220 30 60 220 30 60 220 30 60 220 30 60 220 30 60 220 30 60 220 30 60 220 30 60 220 30 60 220 30 60 220 30 60 220 30 60 220 30 60 220 30 60 220 30 60 220 30 60 220 30 60 220 30 60 220 30 60 220 30 60 220 30 60 220 30 60 220 30 60 220 30 60 220 30 60 220 30 60 220 30 60 220 30 60 220 30 60 220 30 60 220 30 60 220 30 60 220 30 60 220 30 60 220 30 60 220 30 60 220 30 60 220 30 60 220 30 60 220 30 60 220 30 60 220 30 60 220 30 60 220 30 60 220 30 60 220 30 60 220 30 60 220 30 60 220 30 60 220 30 60 220 30 60 220 30 60 220 30 60 220 30 60 220 30 60 220 30 60 220 30 60 220 30 60 220 30 60 220 30 60 220 30 60 220 30 60 220 30 60 220 30 60 220 30 60 220 30 60 220 30 60 220 30 60 220 30 60 220 30 60 220 30 60 220 30 60 220 30 60 220 30 60 220 30 60 220 30 60 220 30 60 220 30 60 220 30 60 220 30 60 220 30 60 220 30 60 220 30 60 220 30 60 220 30 60 220 30 60 220 30 60 220 30 60 220 30 60 220 30 60 220 30 60 220 30 60 220 30 60 220 30 60 220 30 60 220 30 60 220 30 60 220 30 60 220 30 60 220 30 60 220 30 60 220 30 60 220 30 60 220 30 60 220 30 60 220 199 204 53 200 204 52 201 204 52 202 204 51 203 204 51 204 204 50 205 204 50 206 204 49 207 204 49 208 204 48 209 204 48 210 204 47 211 204 47 212 204 46 213 204 46 214 204 45 215 204 45 216 204 44 217 204 44 218 204 43 219 204 43 220 204 42 221 204 42 222 204 41 223 204 41 224 204 40 225 204 40 226 204 39 227 204 39 228 204 38 229 204 38 230 204 37 231 204 37 232 204 36 233 204 36 234 204 35 235 204 35 236 204 34 237 204 34 238 204 33 239 204 33 240 204 32 241 204 32 242 204 31 243 204 31 244 204 30 245 204 30 246 204 29 247 204 29 248 204 28 249 204 28 250 204 27 251 204 27 252 204 26 253 204 26 254 204 25 
0 205 152 0 205 151 1 205 151 2 205 150 3 205 150 4 205 149 5 205 149 6 205 148 7 205 148 8 205 147 9 205 147 10 205 146 11 205 146 12 205 145 13 205 145 14 205 144 15 205 144 16 205 143 17 205 143 18 205 142 19 205 142 20 205 141 21 205 141 22 205 140 23 205 140 24 205 139 25 205 139 26 205 138 27 205 138 28 205 137 29 205 137 30 205 136 31 205 136 32 205 135 33 205 135 34 205 134 35 205 134 36 205 133 37 205 133 38 205 132 39 205 132 40 205 131 41 205 131 42 205 130 43 205 130 44 205 129 45 205 129 46 205 128 47 205 128 48 205 127 49 205 127 50 205 127 51 205 126 52 205 126 53 205 125 54 205 125 55 205 124 56 205 124 57 205 123 58 205 123 59 205 122 30 60 220 30 60 220 30 60 220 30 60 220 30 60 220 30 60 220 30 60 220 30 60 220 30 60 220 30 60 220 30 60 220 30 60 220 30 60 220 30 60 220 30 60 220 30 60 220 30 60 220 30 60 220 30 60 220 30 60 220 30 60 220 30 60 220 30 60 220 30 60 220 30 60 220 30 60 220 30 60 220 30 60 220 30 60 220 30 60 220 30 60 220 30 60 220 30 60 220 30 60 220 30 60 220 30 60 220 30 60 220 30 60 220 30 60 220 30 60 220 30 60 220 30 60 220 30 60 220 30 60 220 30 60 220 30 60 220 30 60 220 30 60 220 30 60 220 30 60 220 30 60 220 30 60 220 30 60 220 30 60 220 30 60 220 30 60 220 30 60 220 30 60 220 30 60 220 30 60 220 30 60 220 30 60 220 30 60 220 30 60 220 30 60 220 30 60 220 30 60 220 30 60 220 30 60 220 30 60 220 30 60 220 30 60 220 30 60 220 30 60 220 30 60 220 30 60 220 30 60 220 30 60 220 30 60 220 30 60 220 30 60 220 30 60 220 30 60 220 30 60 220 30 60 220 30 60 220 30 60 220 30 60 220 30 60 220 30 60 220 30 60 220 30 60 220 30 60 220 30 60 220 30 60 220 30 60 220 30 60 220 30 60 220 30 60 220 30 60 220 30 60 220 30 60 220 30 60 220 30 60 220 30 60 220 30 60 220 30 60 220 30 60 220 30 60 220 30 60 220 30 60 220 30 60 220 30 60 220 30 60 220 30 60 220 30 60 220 30 60 220 30 60 220 30 60 220 30 60 220 30 60 220 30 60 220 30 60 220 30 60 220 30 60 220 30 60 220 30 60 220 30 60 220 30 60 220 30 60 220 30 60 220 30 60 220 30 60 220 30 60 220 30 60 220 30 60 220 30 60 220 30 60 220 30 60 220 199 205 52 200 205 52 201 205 51 202 205 51 203 205 50 204 205 50 205 205 49 206 205 49 207 205 48 208 205 48 209 205 47 210 205 47 211 205 46 212 205 46 213 205 45 214 205 45 215 205 44 216 205 44 217 205 43 218 205 43 219 205 42 220 205 42 221 205 41 222 205 41 223 205 40 224 205 40 225 205 39 226 205 39 227 205 38 228 205 38 229 205 37 230 205 37 231 205 36 232 205 36 233 205 35 234 205 35 235 205 34 236 205 34 237 205 33 238 205 33 239 205 32 240 205 32 241 205 31 242 205 31 243 205 30 244 205 30 245 205 29 246 205 29 247 205 28 248 205 28 249 205 27 250 205 27 251 205 26 252 205 26 253 205 25 254 205 25 
0 206 151 0 206 151 1 206 150 2 206 150 3 206 149 4 206 149 5 206 148 6 206 148 7 206 147 8 206 147 9 206 146 10 206 146 11 206 145 12 206 145 13 206 144 14 206 144 15 206 143 16 206 143 17 206 142 18 206 142 19 206 141 20 206 141 21 206 140 22 206 140 23 206 139 24 206 139 25 206 138 26 206 138 27 206 137 28 206 137 29 206 136 30 206 136 31 206 135 32 206 135 33 206 134 34 206 134 35 206 133 36 206 133 37 206 132 38 206 132 39 206 131 40 206 131 41 206 130 42 206 130 43 206 129 44 206 129 45 206 128 46 206 128 47 206 127 48 206 127 49 206 127 50 206 126 51 206 126 52 206 125 53 206 125 54 206 124 55 206 124 56 206 123 57 206 123 58 206 122 59 206 122 30 60 220 30 60 220 30 60 220 30 60 220 30 60 220 30 60 220 30 60 220 30 60 220 30 60 220 30 60 220 30 60 220 30 60 220 30 60 220 30 60 220 30 60 220 30 60 220 30 60 220 30 60 220 30 60 220 30 60 220 30 60 220 30 60 220 30 60 220 30 60 220 30 60 220 30 60 220 30 60 220 30 60 220 30 60 220 30 60 220 30 60 220 30 60 220 30 60 220 30 60 220 30 60 220 30 60 220 30 60 220 30 60 220 30 60 220 30 60 220 30 60 220 30 60 220 30 60 220 30 60 220 30 60 220 30 60 220 30 60 220 30 60 220 30 60 220 30 60 220 30 60 220 30 60 220 30 60 220 30 60 220 30 60 220 30 60 220 30 60 220 30 60 220 30 60 220 30 60 220 30 60 220 30 60 220 30 60 220 30 60 220 30 60 220 30 60 220 30 60 220 30 60 220 30 60 220 30 60 220 30 60 220 30 60 220 30 60 220 30 60 220 30 60 220 30 60 220 30 60 220 30 60 220 30 60 220 30 60 220 30 60 220 30 60 220 30 60 220 30 60 220 30 60 220 30 60 220 30 60 220 30 60 220 30 60 220 30 60 220 30 60 220 30 60 220 30 60 220 30 60 220 30 60 220 30 60 220 30 60 220 30 60 220 30 60 220 30 60 220 30 60 220 30 60 220 30 60 220 30 60 220 30 60 220 30 60 220 30 60 220 30 60 220 30 60 220 30 60 220 30 60 220 30 60 220 30 60 220 30 60 220 30 60 220 30 60 220 30 60 220 30 60 220 30 60 220 30 60 220 30 60 220 30 60 220 30 60 220 30 60 220 30 60 220 30 60 220 30 60 220 30 60 220 30 60 220 30 60 220 30 60 220 30 60 220 30 60 220 30 60 220 30 60 220 30 60 220 30 60 220 30 60 220 30 60 220 199 206 52 200 206 51 201 206 51 202 206 50 203 206 50 204 206 49 205 206 49 206 206 48 207 206 48 208 206 47 209 206 47 210 206 46 211 206 46 212 206 45 213 206 45 214 206 44 215 206 44 216 206 43 217 206 43 218 206 42 219 206 42 220 206 41 221 206 41 222 206 40 223 206 40 224 206 39 225 206 39 226 206 38 227 206 38 228 206 37 229 206 37 230 206 36 231 206 36 232 206 35 233 206 35 234 206 34 235 206 34 236 206 33 237 206 33 238 206 32 239 206 32 240 206 31 241 206 31 242 206 30 243 206 30 244 206 29 245 206 29 246 206 28 247 206 28 248 206 27 249 206 27 250 206 26 251 206 26 252 206 25 253 206 25 254 206 24 
0 207 151 0 207 150 1 207 150 2 207 149 3 207 149 4 207 148 5 207 148 6 207 147 7 207 147 8 207 146 9 207 146 10 207 145 11 207 145 12 207 144 13 207 144 14 207 143 15 207 143 16 207 142 17 207 142 18 207 141 19 207 141 20 207 140 21 207 140 22 207 139 23 207 139 24 207 138 25 207 138 26 207 137 27 207 137 28 207 136 29 207 136 30 207 135 31 207 135 32 207 134 33 207 134 34 207 133 35 207 133 36 207 132 37 207 132 38 207 131 39 207 131 40 207 130 41 207 130 42 207 129 43 207 129 44 207 128 45 207 128 46 207 127 47 207 127 48 207 127 49 207 126 50 207 126 51 207 125 52 207 125 53 207 124 54 207 124 55 207 123 56 207 123 57 207 122 58 207 122 59 207 121 30 60 220 30 60 220 30 60 220 30 60 220 30 60 220 30 60 220 30 60 220 30 60 220 30 60 220 30 60 220 30 60 220 30 60 220 30 60 220 30 60 220 30 60 220 30 60 220 30 60 220 30 60 220 30 60 220 30 60 220 30 60 220 30 60 220 30 60 220 30 60 220 30 60 220 30 60 220 30 60 220 30 60 220 30 60 220 30 60 220 30 60 220 30 60 220 30 60 220 30 60 220 30 60 220 30 60 220 30 60 220 30 60 220 30 60 220 30 60 220 30 60 220 30 60 220 30 60 220 30 60 220 30 60 220 30 60 220 30 60 220 30 60 220 30 60 220 30 60 220 30 60 220 30 60 220 30 60 220 30 60 220 30 60 220 30 60 220 30 60 220 30 60 220 30 60 220 30 60 220 30 60 220 30 60 220 30 60 220 30 60 220 30 60 220 30 60 220 30 60 220 30 60 220 30 60 220 30 60 220 30 60 220 30 60 220 30 60 220 30 60 220 30 60 220 30 60 220 30 60 220 30 60 220 30 60 220 30 60 220 30 60 220 30 60 220 30 60 220 30 60 220 30 60 220 30 60 220 30 60 220 30 60 220 30 60 220 30 60 220 30 60 220 30 60 220 30 60 220 30 60 220 30 60 220 30 60 220 30 60 220 30 60 220 30 60 220 30 60 220 30 60 220 30 60 220 30 60 220 30 60 220 30 60 220 30 60 220 30 60 220 30 60 220 30 60 220 30 60 220 30 60 220 30 60 220 30 60 220 30 60 220 30 60 220 30 60 220 30 60 220 30 60 220 30 60 220 30 60 220 30 60 220 30 60 220 30 60 220 30 60 220 30 60 220 30 60 220 30 60 220 30 60 220 30 60 220 30 60 220 30 60 220 30 60 220 30 60 220 30 60 220 30 60 220 30 60 220 30 60 220 30 60 220 30 60 220 199 207 51 200 207 51 201 207 50 202 207 50 203 207 49 204 207 49 205 207 48 206 207 48 207 207 47 208 207 47 209 207 46 210 207 46 211 207 45 212 207 45 213 207 44 214 207 44 215 207 43 216 207 43 217 207 42 218 207 42 219 207 41 220 207 41 221 207 40 222 207 40 223 207 39 224 207 39 225 207 38 226 207 38 227 207 37 228 207 37 229 207 36 230 207 36 231 207 35 232 207 35 233 207 34 234 207 34 235 207 33 236 207 33 237 207 32 238 207 32 239 207 31 240 207 31 241 207 30 242 207 30 243 207 29 244 207 29 245 207 28 246 207 28 247 207 27 248 207 27 249 207 26 250 207 26 251 207 25 252 207 25 253 207 24 254 207 24 
0 208 150 0 208 150 1 208 149 2 208 149 3 208 148 4 208 148 5 208 147 6 208 147 7 208 146 8 208 146 9 208 145 10 208 145 11 208 144 12 208 144 13 208 143 14 208 143 15 208 142 16 208 142 17 208 141 18 208 141 19 208 140 20 208 140 21 208 139 22 208 139 23 208 138 24 208 138 25 208 137 26 208 137 27 208 136 28 208 136 29 208 135 30 208 135 31 208 134 32 208 134 33 208 133 34 208 133 35 208 132 36 208 132 37 208 131 38 208 131 39 208 130 40 208 130 41 208 129 42 208 129 43 208 128 44 208 128 45 208 127 46 208 127 47 208 127 48 208 126 49 208 126 50 208 125 51 208 125 52 208 124 53 208 124 54 208 123 55 208 123 56 208 122 57 208 122 58 208 121 59 208 121 30 60 220 30 60 220 30 60 220 30 60 220 30 60 220 30 60 220 30 60 220 30 60 220 30 60 220 30 60 220 30 60 220 30 60 220 30 60 220 30 60 220 30 60 220 30 60 220 30 60 220 30 60 220 30 60 220 30 60 220 30 60 220 30 60 220 30 60 220 30 60 220 30 60 220 30 60 220 30 60 220 30 60 220 30 60 220 30 60 220 30 60 220 30 60 220 30 60 220 30 60 220 30 60 220 30 60 220 30 60 220 30 60 220 30 60 220 30 60 220 30 60 220 30 60 220 30 60 220 30 60 220 30 60 220 30 60 220 30 60 220 30 60 220 30 60 220 30 60 220 30 60 220 30 60 220 30 60 220 30 60 220 30 60 220 30 60 220 30 60 220 30 60 220 30 60 220 30 60 220 30 60 220 30 60 220 30 60 220 30 60 220 30 60 220 30 60 220 30 60 220 30 60 220 30 60 220 30 60 220 30 60 220 30 60 220 30 60 220 30 60 220 30 60 220 30 60 220 30 60 220 30 60 220 30 60 220 30 60 220 30 60 220 30 60 220 30 60 220 30 60 220 30 60 220 30 60 220 30 60 220 30 60 220 30 60 220 30 60 220 30 60 220 30 60 220 30 60 220 30 60 220 30 60 220 30 60 220 30 60 220 30 60 220 30 60 220 30 60 220 30 60 220 30 60 220 30 60 220 30 60 220 30 60 220 30 60 220 30 60 220 30 60 220 30 60 220 30 60 220 30 60 220 30 60 220 30 60 220 30 60 220 30 60 220 30 60 220 30 60 220 30 60 220 30 60 220 30 60 220 30 60 220 30 60 220 30 60 220 30 60 220 30 60 220 30 60 220 30 60 220 30 60 220 30 60 220 30 60 220 30 60 220 30 60 220 30 60 220 30 60 220 30 60 220 30 60 220 30 60 220 30 60 220 30 60 220 199 208 51 200 208 50 201 208 50 202 208 49 203 208 49 204 208 48 205 208 48 206 208 47 207 208 47 208 208 46 209 208 46 210 208 45 211 208 45 212 208 44 213 208 44 214 208 43 215 208 43 216 208 42 217 208 42 218 208 41 219 208 41 220 208 40 221 208 40 222 208 39 223 208 39 224 208 38 225 208 38 226 208 37 227 208 37 228 208 36 229 208 36 230 208 35 231 208 35 232 208 34 233 208 34 234 208 33 235 208 33 236 208 32 237 208 32 238 208 31 239 208 31 240 208 30 241 208 30 242 208 29 243 208 29 244 208 28 245 208 28 246 208 27 247 208 27 248 208 26 249 208 26 250 208 25 251 208 25 252 208 24 253 208 24 254 208 23 
0 209 150 0 209 149 1 209 149 2 209 148 3 209 148 4 209 147 5 209 147 6 209 146 7 209 146 8 209 145 9 209 145 10 209 144 11 209 144 12 209 143 13 209 143 14 209 142 15 209 142 16 209 141 17 209 141 18 209 140 19 209 140 20 209 139 21 209 139 22 209 138 23 209 138 24 209 137 25 209 137 26 209 136 27 209 136 28 209 135 29 209 135 30 209 134 31 209 134 32 209 133 33 209 133 34 209 132 35 209 132 36 209 131 37 209 131 38 209 130 39 209 130 40 209 129 41 209 129 42 209 128 43 209 128 44 209 127 45 209 127 46 209 127 47 209 126 48 209 126 49 209 125 50 209 125 51 209 124 52 209 124 53 209 123 54 209 123 55 209 122 56 209 122 57 209 121 58 209 121 59 209 120 30 60 220 30 60 220 30 60 220 30 60 220 30 60 220 30 60 220 30 60 220 30 60 220 30 60 220 30 60 220 30 60 220 30 60 220 30 60 220 30 60 220 30 60 220 30 60 220 30 60 220 30 60 220 30 60 220 30 60 220 30 60 220 30 60 220 30 60 220 30 60 220 30 60 220 30 60 220 30 60 220 30 60 220 30 60 220 30 60 220 30 60 220 30 60 220 30 60 220 30 60 220 30 60 220 30 60 220 30 60 220 30 60 220 30 60 220 30 60 220 30 60 220 30 60 220 30 60 220 30 60 220 30 60 220 30 60 220 30 60 220 30 60 220 30 60 220 30 60 220 30 60 220 30 60 220 30 60 220 30 60 220 30 60 220 30 60 220 30 60 220 30 60 220 30 60 220 30 60 220 30 60 220 30 60 220 30 60 220 30 60 220 30 60 220 30 60 220 30 60 220 30 60 220 30 60 220 30 60 220 30 60 220 30 60 220 30 60 220 30 60 220 30 60 220 30 60 220 30 60 220 30 60 220 30 60 220 30 60 220 30 60 220 30 60 220 30 60 220 30 60 220 30 60 220 30 60 220 30 60 220 30 60 220 30 60 220 30 60 220 30 60 220 30 60 220 30 60 220 30 60 220 30 60 220 30 60 220 30 60 220 30 60 220 30 60 220 30 60 220 30 60 220 30 60 220 30 60 220 30 60 220 30 60 220 30 60 220 30 60 220 30 60 220 30 60 220 30 60 220 30 60 220 30 60 220 30 60 220 30 60 220 30 60 220 30 60 220 30 60 220 30 60 220 30 60 220 30 60 220 30 60 220 30 60 220 30 60 220 30 60 220 30 60 220 30 60 220 30 60 220 30 60 220 30 60 220 30 60 220 30 60 220 30 60 220 30 60 220 30 60 220 30 60 220 30 60 220 30 60 220 30 60 220 30 60 220 199 209 50 200 209 50 201 209 49 202 209 49 203 209 48 204 209 48 205 209 47 206 209 47 207 209 46 208 209 46 209 209 45 210 209 45 211 209 44 212 209 44 213 209 43 214 209 43 215 209 42 216 209 42 217 209 41 218 209 41 219 209 40 220 209 40 221 209 39 222 209 39 223 209 38 224 209 38 225 209 37 226 209 37 227 209 36 228 209 36 229 209 35 230 209 35 231 209 34 232 209 34 233 209 33 234 209 33 235 209 32 236 209 32 237 209 31 238 209 31 239 209 30 240 209 30 241 209 29 242 209 29 243 209 28 244 209 28 245 209 27 246 209 27 247 209 26 248 209 26 249 209 25 250 209 25 251 209 24 252 209 24 253 209 23 254 209 23 
0 210 149 0 210 149 1 210 148 2 210 148 3 210 147 4 210 147 5 210 146 6 210 146 7 210 145 8 210 145 9 210 144 10 210 144 11 210 143 12 210 143 13 210 142 14 210 142 15 210 141 16 210 141 17 210 140 18 210 140 19 210 139 20 210 139 21 210 138 22 210 138 23 210 137 24 210 137 25 210 136 26 210 136 27 210 135 28 210 135 29 210 134 30 210 134 31 210 133 32 210 133 33 210 132 34 210 132 35 210 131 36 210 131 37 210 130 38 210 130 39 210 129 40 210 129 41 210 128 42 210 128 43 210 127 44 210 127 45 210 127 46 210 126 47 210 126 48 210 125 49 210 125 50 210 124 51 210 124 52 210 123 53 210 123 54 210 122 55 210 122 56 210 121 57 210 121 58 210 120 59 210 120 30 60 220 30 60 220 30 60 220 30 60 220 30 60 220 30 60 220 30 60 220 30 60 220 30 60 220 30 60 220 30 60 220 30 60 220 30 60 220 30 60 220 30 60 220 30 60 220 30 60 220 30 60 220 30 60 220 30 60 220 30 60 220 30 60 220 30 60 220 30 60 220 30 60 220 30 60 220 30 60 220 30 60 220 30 60 220 30 60 220 30 60 220 30 60 220 30 60 220 30 60 220 30 60 220 30 60 220 30 60 220 30 60 220 30 60 220 30 60 220 30 60 220 30 60 220 30 60 220 30 60 220 30 60 220 30 60 220 30 60 220 30 60 220 30 60 220 30 60 220 30 60 220 30 60 220 30 60 220 30 60 220 30 60 220 30 60 220 30 60 220 30 60 220 30 60 220 30 60 220 30 60 220 30 60 220 30 60 220 30 60 220 30 60 220 30 60 220 30 60 220 30 60 220 30 60 220 30 60 220 30 60 220 30 60 220 30 60 220 30 60 220 30 60 220 30 60 220 30 60 220 30 60 220 30 60 220 30 60 220 30 60 220 30 60 220 30 60 220 30 60 220 30 60 220 30 60 220 30 60 220 30 60 220 30 60 220 30 60 220 30 60 220 30 60 220 30 60 220 30 60 220 30 60 220 30 60 220 30 60 220 30 60 220 30 60 220 30 60 220 30 60 220 30 60 220 30 60 220 30 60 220 30 60 220 30 60 220 30 60 220 30 60 220 30 60 220 30 60 220 30 60 220 30 60 220 30 60 220 30 60 220 30 60 220 30 60 220 30 60 220 30 60 220 30 60 220 30 60 220 30 60 220 30 60 220 30 60 220 30 60 220 30 60 220 30 60 220 30 60 220 30 60 220 30 60 220 30 60 220 30 60 220 30 60 220 30 60 220 30 60 220 30 60 220 30 60 220 30 60 220 30 60 220 30 60 220 199 210 50 200 210 49 201 210 49 202 210 48 203 210 48 204 210 47 205 210 47 206 210 46 207 210 46 208 210 45 209 210 45 210 210 44 211 210 44 212 210 43 213 210 43 214 210 42 215 210 42 216 210 41 217 210 41 218 210 40 219 210 40 220 210 39 221 210 39 222 210 38 223 210 38 224 210 37 225 210 37 226 210 36 227 210 36 228 210 35 229 210 35 230 210 34 231 210 34 232 210 33 233 210 33 234 210 32 235 210 32 236 210 31 237 210 31 238 210 30 239 210 30 240 210 29 241 210 29 242 210 28 243 210 28 244 210 27 245 210 27 246 210 26 247 210 26 248 210 25 249 210 25 250 210 24 251 210 24 252 210 23 253 210 23 254 210 22 
0 211 149 0 211 148 1 211 148 2 211 147 3 211 147 4 211 146 5 211 146 6 211 145 7 211 145 8 211 144 9 211 144 10 211 143 11 211 143 12 211 142 13 211 142 14 211 141 15 211 141 16 211 140 17 211 140 18 211 139 19 211 139 20 211 138 21 211 138 22 211 137 23 211 137 24 211 136 25 211 136 26 211 135 27 211 135 28 211 134 29 211 134 30 211 133 31 211 133 32 211 132 33 211 132 34 211 131 35 211 131 36 211 130 37 211 130 38 211 129 39 211 129 40 211 128 41 211 128 42 211 127 43 211 127 44 211 127 45 211 126 46 211 126 47 211 125 48 211 125 49 211 124 50 211 124 51 211 123 52 211 123 53 211 122 54 211 122 55 211 121 56 211 121 57 211 120 58 211 120 59 211 119 30 60 220 30 60 220 30 60 220 30 60 220 30 60 220 30 60 220 30 60 220 30 60 220 30 60 220 30 60 220 30 60 220 30 60 220 30 60 220 30 60 220 30 60 220 30 60 220 30 60 220 30 60 220 30 60 220 30 60 220 30 60 220 30 60 220 30 60 220 30 60 220 30 60 220 30 60 220 30 60 220 30 60 220 30 60 220 30 60 220 30 60 220 30 60 220 30 60 220 30 60 220 30 60 220 30 60 220 30 60 220 30 60 220 30 60 220 30 60 220 30 60 220 30 60 220 30 60 220 30 60 220 30 60 220 30 60 220 30 60 220 30 60 220 30 60 220 30 60 220 30 60 220 30 60 220 30 60 220 30 60 220 30 60 220 30 60 220 30 60 220 30 60 220 30 60 220 30 60 220 30 60 220 30 60 220 30 60 220 30 60 220 30 60 220 30 60 220 30 60 220 30 60 220 30 60 220 30 60 220 30 60 220 30 60 220 30 60 220 30 60 220 30 60 220 30 60 220 30 60 220 30 60 220 30 60 220 30 60 220 30 60 220 30 60 220 30 60 220 30 60 220 30 60 220 30 60 220 30 60 220 30 60 220 30 60 220 30 60 220 30 60 220 30 60 220 30 60 220 30 60 220 30 60 220 30 60 220 30 60 220 30 60 220 30 60 220 30 60 220 30 60 220 30 60 220 30 60 220 30 60 220 30 60 220 30 60 220 30 60 220 30 60 220 30 60 220 30 60 220 30 60 220 30 60 220 30 60 220 30 60 220 30 60 220 30 60 220 30 60 220 30 60 220 30 60 220 30 60 220 30 60 220 30 60 220 30 60 220 30 60 220 30 60 220 30 60 220 30 60 220 30 60 220 30 60 220 30 60 220 30 60 220 30 60 220 30 60 220 30 60 220 30 60 220 30 60 220 30 60 220 30 60 220 30 60 220 199 211 49 200 211 49 201 211 48 202 211 48 203 211 47 204 211 47 205 211 46 206 211 46 207 211 45 208 211 45 209 211 44 210 211 44 211 211 43 212 211 43 213 211 42 214 211 42 215 211 41 216 211 41 217 211 40 218 211 40 219 211 39 220 211 39 221 211 38 222 211 38 223 211 37 224 211 37 225 211 36 226 211 36 227 211 35 228 211 35 229 211 34 230 211 34 231 211 33 232 211 33 233 211 32 234 211 32 235 211 31 236 211 31 237 211 30 238 211 30 239 211 29 240 211 29 241 211 28 242 211 28 243 211 27 244 211 27 245 211 26 246 211 26 247 211 25 248 211 25 249 211 24 250 211 24 251 211 23 252 211 23 253 211 22 254 211 22 
0 212 148 0 212 148 1 212 147 2 212 147 3 212 146 4 212 146 5 212 145 6 212 145 7 212 144 8 212 144 9 212 143 10 212 143 11 212 142 12 212 142 13 212 141 14 212 141 15 212 140 16 212 140 17 212 139 18 212 139 19 212 138 20 212 138 21 212 137 22 212 137 23 212 136 24 212 136 25 212 135 26 212 135 27 212 134 28 212 134 29 212 133 30 212 133 31 212 132 32 212 132 33 212 131 34 212 131 35 212 130 36 212 130 37 212 129 38 212 129 39 212 128 40 212 128 41 212 127 42 212 127 43 212 127 44 212 126 45 212 126 46 212 125 47 212 125 48 212 124 49 212 124 50 212 123 51 212 123 52 212 122 53 212 122 54 212 121 55 212 121 56 212 120 57 212 120 58 212 119 59 212 119 30 60 220 30 60 220 30 60 220 30 60 220 30 60 220 30 60 220 30 60 220 30 60 220 30 60 220 30 60 220 30 60 220 30 60 220 30 60 220 30 60 220 30 60 220 30 60 220 30 60 220 30 60 220 30 60 220 30 60 220 30 60 220 30 60 220 30 60 220 30 60 220 30 60 220 30 60 220 30 60 220 30 60 220 30 60 220 30 60 220 30 60 220 30 60 220 30 60 220 30 60 220 30 60 220 30 60 220 30 60 220 30 60 220 30 60 220 30 60 220 30 60 220 30 60 220 30 60 220 30 60 220 30 60 220 30 60 220 30 60 220 30 60 220 30 60 220 30 60 220 30 60 220 30 60 220 30 60 220 30 60 220 30 60 220 30 60 220 30 60 220 30 60 220 30 60 220 30 60 220 30 60 220 30 60 220 30 60 220 30 60 220 30 60 220 30 60 220 30 60 220 30 60 220 30 60 220 30 60 220 30 60 220 30 60 220 30 60 220 30 60 220 30 60 220 30 60 220 30 60 220 30 60 220 30 60 220 30 60 220 30 60 220 30 60 220 30 60 220 30 60 220 30 60 220 30 60 220 30 60 220 30 60 220 30 60 220 30 60 220 30 60 220 30 60 220 30 60 220 30 60 220 30 60 220 30 60 220 30 60 220 30 60 220 30 60 220 30 60 220 30 60 220 30 60 220 30 60 220 30 60 220 30 60 220 30 60 220 30 60 220 30 60 220 30 60 220 30 60 220 30 60 220 30 60 220 30 60 220 30 60 220 30 60 220 30 60 220 30 60 220 30 60 220 30 60 220 30 60 220 30 60 220 30 60 220 30 60 220 30 60 220 30 60 220 30 60 220 30 60 220 30 60 220 30 60 220 30 60 220 30 60 220 30 60 220 30 60 220 30 60 220 30 60 220 30 60 220 30 60 220 30 60 220 30 60 220 199 212 49 200 212 48 201 212 48 202 212 47 203 212 47 204 212 46 205 212 46 206 212 45 207 212 45 208 212 44 209 212 44 210 212 43 211 212 43 212 212 42 213 212 42 214 212 41 215 212 41 216 212 40 217 212 40 218 212 39 219 212 39 220 212 38 221 212 38 222 212 37 223 212 37 224 212 36 225 212 36 226 212 35 227 212 35 228 212 34 229 212 34 230 212 33 231 212 33 232 212 32 233 212 32 234 212 31 235 212 31 236 212 30 237 212 30 238 212 29 239 212 29 240 212 28 241 212 28 242 212 27 243 212 27 244 212 26 245 212 26 246 212 25 247 212 25 248 212 24 249 212 24 250 212 23 251 212 23 252 212 22 253 212 22 254 212 21 
0 213 148 0 213 147 1 213 147 2 213 146 3 213 146 4 213 145 5 213 145 6 213 144 7 213 144 8 213 143 9 213 143 10 213 142 11 213 142 12 213 141 13 213 141 14 213 140 15 213 140 16 213 139 17 213 139 18 213 138 19 213 138 20 213 137 21 213 137 22 213 136 23 213 136 24 213 135 25 213 135 26 213 134 27 213 134 28 213 133 29 213 133 30 213 132 31 213 132 32 213 131 33 213 131 34 213 130 35 213 130 36 213 129 37 213 129 38 213 128 39 213 128 40 213 127 41 213 127 42 213 127 43 213 126 44 213 126 45 213 125 46 213 125 47 213 124 48 213 124 49 213 123 50 213 123 51 213 122 52 213 122 53 213 121 54 213 121 55 213 120 56 213 120 57 213 119 58 213 119 59 213 118 30 60 220 30 60 220 30 60 220 30 60 220 30 60 220 30 60 220 30 60 220 30 60 220 30 60 220 30 60 220 30 60 220 30 60 220 30 60 220 30 60 220 30 60 220 30 60 220 30 60 220 30 60 220 30 60 220 30 60 220 30 60 220 30 60 220 30 60 220 30 60 220 30 60 220 30 60 220 30 60 220 30 60 220 30 60 220 30 60 220 30 60 220 30 60 220 30 60 220 30 60 220 30 60 220 30 60 220 30 60 220 30 60 220 30 60 220 30 60 220 30 60 220 30 60 220 30 60 220 30 60 220 30 60 220 30 60 220 30 60 220 30 60 220 30 60 220 30 60 220 30 60 220 30 60 220 30 60 220 30 60 220 30 60 220 30 60 220 30 60 220 30 60 220 30 60 220 30 60 220 30 60 220 30 60 220 30 60 220 30 60 220 30 60 220 30 60 220 30 60 220 30 60 220 30 60 220 30 60 220 30 60 220 30 60 220 30 60 220 30 60 220 30 60 220 30 60 220 30 60 220 30 60 220 30 60 220 30 60 220 30 60 220 30 60 220 30 60 220 30 60 220 30 60 220 30 60 220 30 60 220 30 60 220 30 60 220 30 60 220 30 60 220 30 60 220 30 60 220 30 60 220 30 60 220 30 60 220 30 60 220 30 60 220 30 60 220 30 60 220 30 60 220 30 60 220 30 60 220 30 60 220 30 60 220 30 60 220 30 60 220 30 60 220 30 60 220 30 60 220 30 60 220 30 60 220 30 60 220 30 60 220 30 60 220 30 60 220 30 60 220 30 60 220 30 60 220 30 60 220 30 60 220 30 60 220 30 60 220 30 60 220 30 60 220 30 60 220 30 60 220 30 60 220 30 60 220 30 60 220 30 60 220 30 60 220 30 60 220 30 60 220 30 60 220 30 60 220 30 60 220 30 60 220 30 60 220 199 213 48 200 213 48 201 213 47 202 213 47 203 213 46 204 213 46 205 213 45 206 213 45 207 213 44 208 213 44 209 213 43 210 213 43 211 213 42 212 213 42 213 213 41 214 213 41 215 213 40 216 213 40 217 213 39 218 213 39 219 213 38 220 213 38 221 213 37 222 213 37 223 213 36 224 213 36 225 213 35 226 213 35 227 213 34 228 213 34 229 213 33 230 213 33 231 213 32 232 213 32 233 213 31 234 213 31 235 213 30 236 213 30 237 213 29 238 213 29 239 213 28 240 213 28 241 213 27 242 213 27 243 213 26 244 213 26 245 213 25 246 213 25 247 213 24 248 213 24 249 213 23 250 213 23 251 213 22 252 213 22 253 213 21 254 213 21 
0 214 147 0 214 147 1 214 146 2 214 146 3 214 145 4 214 145 5 214 144 6 214 144 7 214 143 8 214 143 9 214 142 10 214 142 11 214 141 12 214 141 13 214 140 14 214 140 15 214 139 16 214 139 17 214 138 18 214 138 19 214 137 20 214 137 21 214 136 22 214 136 23 214 135 24 214 135 25 214 134 26 214 134 27 214 133 28 214 133 29 214 132 30 214 132 31 214 131 32 214 131 33 214 130 34 214 130 35 214 129 36 214 129 37 214 128 38 214 128 39 214 127 40 214 127 41 214 127 42 214 126 43 214 126 44 214 125 45 214 125 46 214 124 47 214 124 48 214 123 49 214 123 50 214 122 51 214 122 52 214 121 53 214 121 54 214 120 55 214 120 56 214 119 57 214 119 58 214 118 59 214 118 30 60 220 30 60 220 30 60 220 30 60 220 30 60 220 30 60 220 30 60 220 30 60 220 30 60 220 30 60 220 30 60 220 30 60 220 30 60 220 30 60 220 30 60 220 30 60 220 30 60 220 30 60 220 30 60 220 30 60 220 30 60 220 30 60 220 30 60 220 30 60 220 30 60 220 30 60 220 30 60 220 30 60 220 30 60 220 30 60 220 30 60 220 30 60 220 30 60 220 30 60 220 30 60 220 30 60 220 30 60 220 30 60 220 30 60 220 30 60 220 30 60 220 30 60 220 30 60 220 30 60 220 30 60 220 30 60 220 30 60 220 30 60 220 30 60 220 30 60 220 30 60 220 30 60 220 30 60 220 30 60 220 30 60 220 30 60 220 30 60 220 30 60 220 30 60 220 30 60 220 30 60 220 30 60 220 30 60 220 30 60 220 30 60 220 30 60 220 30 60 220 30 60 220 30 60 220 30 60 220 30 60 220 30 60 220 30 60 220 30 60 220 30 60 220 30 60 220 30 60 220 30 60 220 30 60 220 30 60 220 30 60 220 30 60 220 30 60 220 30 60 220 30 60 220 30 60 220 30 60 220 30 60 220 30 60 220 30 60 220 30 60 220 30 60 220 30 60 220 30 60 220 30 60 220 30 60 220 30 60 220 30 60 220 30 60 220 30 60 220 30 60 220 30 60 220 30 60 220 30 60 220 30 60 220 30 60 220 30 60 220 30 60 220 30 60 220 30 60 220 30 60 220 30 60 220 30 60 220 30 60 220 30 60 220 30 60 220 30 60 220 30 60 220 30 60 220 30 60 220 30 60 220 30 60 220 30 60 220 30 60 220 30 60 220 30 60 220 30 60 220 30 60 220 30 60 220 30 60 220 30 60 220 30 60 220 30 60 220 30 60 220 30 60 220 30 60 220 30 60 220 30 60 220 30 60 220 199 214 48 200 214 47 201 214 47 202 214 46 203 214 46 204 214 45 205 214 45 206 214 44 207 214 44 208 214 43 209 214 43 210 214 42 211 214 42 212 214 41 213 214 41 214 214 40 215 214 40 216 214 39 217 214 39 218 214 38 219 214 38 220 214 37 221 214 37 222 214 36 223 214 36 224 214 35 225 214 35 226 214 34 227 214 34 228 214 33 229 214 33 230 214 32 231 214 32 232 214 31 233 214 31 234 214 30 235 214 30 236 214 29 237 214 29 238 214 28 239 214 28 240 214 27 241 214 27 242 214 26 243 214 26 244 214 25 245 214 25 246 214 24 247 214 24 248 214 23 249 214 23 250 214 22 251 214 22 252 214 21 253 214 21 254 214 20 
0 215 147 0 215 146 1 215 146 2 215 145 3 215 145 4 215 144 5 215 144 6 215 143 7 215 143 8 215 142 9 215 142 10 215 141 11 215 141 12 215 140 13 215 140 14 215 139 15 215 139 16 215 138 17 215 138 18 215 137 19 215 137 20 215 136 21 215 136 22 215 135 23 215 135 24 215 134 25 215 134 26 215 133 27 215 133 28 215 132 29 215 132 30 215 131 31 215 131 32 215 130 33 215 130 34 215 129 35 215 129 36 215 128 37 215 128 38 215 127 39 215 127 40 215 127 41 215 126 42 215 126 43 215 125 44 215 125 45 215 124 46 215 124 47 215 123 48 215 123 49 215 122 50 215 122 51 215 121 52 215 121 53 215 120 54 215 120 55 215 119 56 215 119 57 215 118 58 215 118 59 215 117 30 60 220 30 60 220 30 60 220 30 60 220 30 60 220 30 60 220 30 60 220 30 60 220 30 60 220 30 60 220 30 60 220 30 60 220 30 60 220 30 60 220 30 60 220 30 60 220 30 60 220 30 60 220 30 60 220 30 60 220 30 60 220 30 60 220 30 60 220 30 60 220 30 60 220 30 60 220 30 60 220 30 60 220 30 60 220 30 60 220 30 60 220 30 60 220 30 60 220 30 60 220 30 60 220 30 60 220 30 60 220 30 60 220 30 60 220 30 60 220 30 60 220 30 60 220 30 60 220 30 60 220 30 60 220 30 60 220 30 60 220 30 60 220 30 60 220 30 60 220 30 60 220 30 60 220 30 60 220 30 60 220 30 60 220 30 60 220 30 60 220 30 60 220 30 60 220 30 60 220 30 60 220 30 60 220 30 60 220 30 60 220 30 60 220 30 60 220 30 60 220 30 60 220 30 60 220 30 60 220 30 60 220 30 60 220 30 60 220 30 60 220 30 60 220 30 60 220 30 60 220 30 60 220 30 60 220 30 60 220 30 60 220 30 60 220 30 60 220 30 60 220 30 60 220 30 60 220 30 60 220 30 60 220 30 60 220 30 60 220 30 60 220 30 60 220 30 60 220 30 60 220 30 60 220 30 60 220 30 60 220 30 60 220 30 60 220 30 60 220 30 60 220 30 60 220 30 60 220 30 60 220 30 60 220 30 60 220 30 60 220 30 60 220 30 60 220 30 60 220 30 60 220 30 60 220 30 60 220 30 60 220 30 60 220 30 60 220 30 60 220 30 60 220 30 60 220 30 60 220 30 60 220 30 60 220 30 60 220 30 60 220 30 60 220 30 60 220 30 60 220 30 60 220 30 60 220 30 60 220 30 60 220 30 60 220 30 60 220 30 60 220 30 60 220 30 60 220 30 60 220 30 60 220 30 60 220 199 215 47 200 215 47 201 215 46 202 215 46 203 215 45 204 215 45 205 215 44 206 215 44 207 215 43 208 215 43 209 215 42 210 215 42 211 215 41 212 215 41 213 215 40 214 215 40 215 215 39 216 215 39 217 215 38 218 215 38 219 215 37 220 215 37 221 215 36 222 215 36 223 215 35 224 215 35 225 215 34 226 215 34 227 215 33 228 215 33 229 215 32 230 215 32 231 215 31 232 215 31 233 215 30 234 215 30 235 215 29 236 215 29 237 215 28 238 215 28 239 215 27 240 215 27 241 215 26 242 215 26 243 215 25 244 215 25 245 215 24 246 215 24 247 215 23 248 215 23 249 215 22 250 215 22 251 215 21 252 215 21 253 215 20 254 215 20 
0 216 146 0 216 146 1 216 145 2 216 145 3 216 144 4 216 144 5 216 143 6 216 143 7 216 142 8 216 142 9 216 141 10 216 141 11 216 140 12 216 140 13 216 139 14 216 139 15 216 138 16 216 138 17 216 137 18 216 137 19 216 136 20 216 136 21 216 135 22 216 135 23 216 134 24 216 134 25 216 133 26 216 133 27 216 132 28 216 132 29 216 131 30 216 131 31 216 130 32 216 130 33 216 129 34 216 129 35 216 128 36 216 128 37 216 127 38 216 127 39 216 127 40 216 126 41 216 126 42 216 125 43 216 125 44 216 124 45 216 124 46 216 123 47 216 123 48 216 122 49 216 122 50 216 121 51 216 121 52 216 120 53 216 120 54 216 119 55 216 119 56 216 118 57 216 118 58 216 117 59 216 117 30 60 220 30 60 220 30 60 220 30 60 220 30 60 220 30 60 220 30 60 220 30 60 220 30 60 220 30 60 220 30 60 220 30 60 220 30 60 220 30 60 220 30 60 220 30 60 220 30 60 220 30 60 220 30 60 220 30 60 220 30 60 220 30 60 220 30 60 220 30 60 220 30 60 220 30 60 220 30 60 220 30 60 220 30 60 220 30 60 220 30 60 220 30 60 220 30 60 220 30 60 220 30 60 220 30 60 220 30 60 220 30 60 220 30 60 220 30 60 220 30 60 220 30 60 220 30 60 220 30 60 220 30 60 220 30 60 220 30 60 220 30 60 220 30 60 220 30 60 220 30 60 220 30 60 220 30 60 220 30 60 220 30 60 220 30 60 220 30 60 220 30 60 220 30 60 220 30 60 220 30 60 220 30 60 220 30 60 220 30 60 220 30 60 220 30 60 220 30 60 220 30 60 220 30 60 220 30 60 220 30 60 220 30 60 220 30 60 220 30 60 220 30 60 220 30 60 220 30 60 220 30 60 220 30 60 220 30 60 220 30 60 220 30 60 220 30 60 220 30 60 220 30 60 220 30 60 220 30 60 220 30 60 220 30 60 220 30 60 220 30 60 220 30 60 220 30 60 220 30 60 220 30 60 220 30 60 220 30 60 220 30 60 220 30 60 220 30 60 220 30 60 220 30 60 220 30 60 220 30 60 220 30 60 220 30 60 220 30 60 220 30 60 220 30 60 220 30 60 220 30 60 220 30 60 220 30 60 220 30 60 220 30 60 220 30 60 220 30 60 220 30 60 220 30 60 220 30 60 220 30 60 220 30 60 220 30 60 220 30 60 220 30 60 220 30 60 220 30 60 220 30 60 220 30 60 220 30 60 220 30 60 220 30 60 220 30 60 220 30 60 220 30 60 220 30 60 220 30 60 220 30 60 220 30 60 220 199 216 47 200 216 46 201 216 46 202 216 45 203 216 45 204 216 44 205 216 44 206 216 43 207 216 43 208 216 42 209 216 42 210 216 41 211 216 41 212 216 40 213 216 40 214 216 39 215 216 39 216 216 38 217 216 38 218 216 37 219 216 37 220 216 36 221 216 36 222 216 35 223 216 35 224 216 34 225 216 34 226 216 33 227 216 33 228 216 32 229 216 32 230 216 31 231 216 31 232 216 30 233 216 30 234 216 29 235 216 29 236 216 28 237 216 28 238 216 27 239 216 27 240 216 26 241 216 26 242 216 25 243 216 25 244 216 24 245 216 24 246 216 23 247 216 23 248 216 22 249 216 22 250 216 21 251 216 21 252 216 20 253 216 20 254 216 19 
0 217 146 0 217 145 1 217 145 2 217 144 3 217 144 4 217 143 5 217 143 6 217 142 7 217 142 8 217 141 9 217 141 10 217 140 11 217 140 12 217 139 13 217 139 14 217 138 15 217 138 16 217 137 17 217 137 18 217 136 19 217 136 20 217 135 21 217 135 22 217 134 23 217 134 24 217 133 25 217 133 26 217 132 27 217 132 28 217 131 29 217 131 30 217 130 31 217 130 32 217 129 33 217 129 34 217 128 35 217 128 36 217 127 37 217 127 38 217 127 39 217 126 40 217 126 41 217 125 42 217 125 43 217 124 44 217 124 45 217 123 46 217 123 47 217 122 48 217 122 49 217 121 50 217 121 51 217 120 52 217 120 53 217 119 54 217 119 55 217 118 56 217 118 57 217 117 58 217 117 59 217 116 30 60 220 30 60 220 30 60 220 30 60 220 30 60 220 30 60 220 30 60 220 30 60 220 30 60 220 30 60 220 30 60 220 30 60 220 30 60 220 30 60 220 30 60 220 30 60 220 30 60 220 30 60 220 30 60 220 30 60 220 30 60 220 30 60 220 30 60 220 30 60 220 30 60 220 30 60 220 30 60 220 30 60 220 30 60 220 30 60 220 30 60 220 30 60 220 30 60 220 30 60 220 30 60 220 30 60 220 30 60 220 30 60 220 30 60 220 30 60 220 30 60 220 30 60 220 30 60 220 30 60 220 30 60 220 30 60 220 30 60 220 30 60 220 30 60 220 30 60 220 30 60 220 30 60 220 30 60 220 30 60 220 30 60 220 30 60 220 30 60 220 30 60 220 30 60 220 30 60 220 30 60 220 30 60 220 30 60 220 30 60 220 30 60 220 30 60 220 30 60 220 30 60 220 30 60 220 30 60 220 30 60 220 30 60 220 30 60 220 30 60 220 30 60 220 30 60 220 30 60 220 30 60 220 30 60 220 30 60 220 30 60 220 30 60 220 30 60 220 30 60 220 30 60 220 30 60 220 30 60 220 30 60 220 30 60 220 30 60 220 30 60 220 30 60 220 30 60 220 30 60 220 30 60 220 30 60 220 30 60 220 30 60 220 30 60 220 30 60 220 30 60 220 30 60 220 30 60 220 30 60 220 30 60 220 30 60 220 30 60 220 30 60 220 30 60 220 30 60 220 30 60 220 30 60 220 30 60 220 30 60 220 30 60 220 30 60 220 30 60 220 30 60 220 30 60 220 30 60 220 30 60 220 30 60 220 30 60 220 30 60 220 30 60 220 30 60 220 30 60 220 30 60 220 30 60 220 30 60 220 30 60 220 30 60 220 30 60 220 30 60 220 30 60 220 30 60 220 30 60 220 30 60 220 30 60 220 199 217 46 200 217 46 201 217 45 202 217 45 203 217 44 204 217 44 205 217 43 206 217 43 207 217 42 208 217 42 209 217 41 210 217 41 211 217 40 212 217 40 213 217 39 214 217 39 215 217 38 216 217 38 217 217 37 218 217 37 219 217 36 220 217 36 221 217 35 222 217 35 223 217 34 224 217 34 225 217 33 226 217 33 227 217 32 228 217 32 229 217 31 230 217 31 231 217 30 232 217 30 233 217 29 234 217 29 235 217 28 236 217 28 237 217 27 238 217 27 239 217 26 240 217 26 241 217 25 242 217 25 243 217 24 244 217 24 245 217 23 246 217 23 247 217 22 248 217 22 249 217 21 250 217 21 251 217 20 252 217 20 253 217 19 254 217 19 
0 218 145 0 218 145 1 218 144 2 218 144 3 218 143 4 218 143 5 218 142 6 218 142 7 218 141 8 218 141 9 218 140 10 218 140 11 218 139 12 218 139 13 218 138 14 218 138 15 218 137 16 218 137 17 218 136 18 218 136 19 218 135 20 218 135 21 218 134 22 218 134 23 218 133 24 218 133 25 218 132 26 218 132 27 218 131 28 218 131 29 218 130 30 218 130 31 218 129 32 218 129 33 218 128 34 218 128 35 218 127 36 218 127 37 218 127 38 218 126 39 218 126 40 218 125 41 218 125 42 218 124 43 218 124 44 218 123 45 218 123 46 218 122 47 218 122 48 218 121 49 218 121 50 218 120 51 218 120 52 218 119 53 218 119 54 218 118 55 218 118 56 218 117 57 218 117 58 218 116 59 218 116 30 60 220 30 60 220 30 60 220 30 60 220 30 60 220 30 60 220 30 60 220 30 60 220 30 60 220 30 60 220 30 60 220 30 60 220 30 60 220 30 60 220 30 60 220 30 60 220 30 60 220 30 60 220 30 60 220 30 60 220 30 60 220 30 60 220 30 60 220 30 60 220 30 60 220 30 60 220 30 60 220 30 60 220 30 60 220 30 60 220 30 60 220 30 60 220 30 60 220 30 60 220 30 60 220 30 60 220 30 60 220 30 60 220 30 60 220 30 60 220 30 60 220 30 60 220 30 60 220 30 60 220 30 60 220 30 60 220 30 60 220 30 60 220 30 60 220 30 60 220 30 60 220 30 60 220 30 60 220 30 60 220 30 60 220 30 60 220 30 60 220 30 60 220 30 60 220 30 60 220 30 60 220 30 60 220 30 60 220 30 60 220 30 60 220 30 60 220 30 60 220 30 60 220 30 60 220 30 60 220 30 60 220 30 60 220 30 60 220 30 60 220 30 60 220 30 60 220 30 60 220 30 60 220 30 60 220 30 60 220 30 60 220 30 60 220 30 60 220 30 60 220 30 60 220 30 60 220 30 60 220 30 60 220 30 60 220 30 60 220 30 60 220 30 60 220 30 60 220 30 60 220 30 60 220 30 60 220 30 60 220 30 60 220 30 60 220 30 60 220 30 60 220 30 60 220 30 60 220 30 60 220 30 60 220 30 60 220 30 60 220 30 60 220 30 60 220 30 60 220 30 60 220 30 60 220 30 60 220 30 60 220 30 60 220 30 60 220 30 60 220 30 60 220 30 60 220 30 60 220 30 60 220 30 60 220 30 60 220 30 60 220 30 60 220 30 60 220 30 60 220 30 60 220 30 60 220 30 60 220 30 60 220 30 60 220 30 60 220 30 60 220 30 60 220 30 60 220 30 60 220 30 60 220 30 60 220 199 218 46 200 218 45 201 218 45 202 218 44 203 218 44 204 218 43 205 218 43 206 218 42 207 218 42 208 218 41 209 218 41 210 218 40 211 218 40 212 218 39 213 218 39 214 218 38 215 218 38 216 218 37 217 218 37 218 218 36 219 218 36 220 218 35 221 218 35 222 218 34 223 218 34 224 218 33 225 218 33 226 218 32 227 218 32 228 218 31 229 218 31 230 218 30 231 218 30 232 218 29 233 218 29 234 218 28 235 218 28 236 218 27 237 218 27 238 218 26 239 218 26 240 218 25 241 218 25 242 218 24 243 218 24 244 218 23 245 218 23 246 218 22 247 218 22 248 218 21 249 218 21 250 218 20 251 218 20 252 218 19 253 218 19 254 218 18 
0 219 145 0 219 144 1 219 144 2 219 143 3 219 143 4 219 142 5 219 142 6 219 141 7 219 141 8 219 140 9 219 140 10 219 139 11 219 139 12 219 138 13 219 138 14 219 137 15 219 137 16 219 136 17 219 136 18 219 135 19 219 135 20 219 134 21 219 134 22 219 133 23 219 133 24 219 132 25 219 132 26 219 131 27 219 131 28 219 130 29 219 130 30 219 129 31 219 129 32 219 128 33 219 128 34 219 127 35 219 127 36 219 127 37 219 126 38 219 126 39 219 125 40 219 125 41 219 124 42 219 124 43 219 123 44 219 123 45 219 122 46 219 122 47 219 121 48 219 121 49 219 120 50 219 120 51 219 119 52 219 119 53 219 118 54 219 118 55 219 117 56 219 117 57 219 116 58 219 116 59 219 115 30 60 220 30 60 220 30 60 220 30 60 220 30 60 220 30 60 220 30 60 220 30 60 220 30 60 220 30 60 220 30 60 220 30 60 220 30 60 220 30 60 220 30 60 220 30 60 220 30 60 220 30 60 220 30 60 220 30 60 220 30 60 220 30 60 220 30 60 220 30 60 220 30 60 220 30 60 220 30 60 220 30 60 220 30 60 220 30 60 220 30 60 220 30 60 220 30 60 220 30 60 220 30 60 220 30 60 220 30 60 220 30 60 220 30 60 220 30 60 220 30 60 220 30 60 220 30 60 220 30 60 220 30 60 220 30 60 220 30 60 220 30 60 220 30 60 220 30 60 220 30 60 220 30 60 220 30 60 220 30 60 220 30 60 220 30 60 220 30 60 220 30 60 220 30 60 220 30 60 220 30 60 220 30 60 220 30 60 220 30 60 220 30 60 220 30 60 220 30 60 220 30 60 220 30 60 220 30 60 220 30 60 220 30 60 220 30 60 220 30 60 220 30 60 220 30 60 220 30 60 220 30 60 220 30 60 220 30 60 220 30 60 220 30 60 220 30 60 220 30 60 220 30 60 220 30 60 220 30 60 220 30 60 220 30 60 220 30 60 220 30 60 220 30 60 220 30 60 220 30 60 220 30 60 220 30 60 220 30 60 220 30 60 220 30 60 220 30 60 220 30 60 220 30 60 220 30 60 220 30 60 220 30 60 220 30 60 220 30 60 220 30 60 220 30 60 220 30 60 220 30 60 220 30 60 220 30 60 220 30 60 220 30 60 220 30 60 220 30 60 220 30 60 220 30 60 220 30 60 220 30 60 220 30 60 220 30 60 220 30 60 220 30 60 220 30 60 220 30 60 220 30 60 220 30 60 220 30 60 220 30 60 220 30 60 220 30 60 220 30 60 220 30 60 220 30 60 220 30 60 220 30 60 220 30 60 220 199 219 45 200 219 45 201 219 44 202 219 44 203 219 43 204 219 43 205 219 42 206 219 42 207 219 41 208 219 41 209 219 40 210 219 40 211 219 39 212 219 39 213 219 38 214 219 38 215 219 37 216 219 37 217 219 36 218 219 36 219 219 35 220 219 35 221 219 34 222 219 34 223 219 33 224 219 33 225 219 32 226 219 32 227 219 31 228 219 31 229 219 30 230 219 30 231 219 29 232 219 29 233 219 28 234 219 28 235 219 27 236 219 27 237 219 26 238 219 26 239 219 25 240 219 25 241 219 24 242 219 24 243 219 23 244 219 23 245 219 22 246 219 22 247 219 21 248 219 21 249 219 20 250 219 20 251 219 19 252 219 19 253 219 18 254 219 18 
0 220 144 0 220 144 1 220 143 2 220 143 3 220 142 4 220 142 5 220 141 6 220 141 7 220 140 8 220 140 9 220 139 10 220 139 11 220 138 12 220 138 13 220 137 14 220 137 15 220 136 16 220 136 17 220 135 18 220 135 19 220 134 20 220 134 21 220 133 22 220 133 23 220 132 24 220 132 25 220 131 26 220 131 27 220 130 28 220 130 29 220 129 30 220 129 31 220 128 32 220 128 33 220 127 34 220 127 35 220 127 36 220 126 37 220 126 38 220 125 39 220 125 40 220 124 41 220 124 42 220 123 43 220 123 44 220 122 45 220 122 46 220 121 47 220 121 48 220 120 49 220 120 50 220 119 51 220 119 52 220 118 53 220 118 54 220 117 55 220 117 56 220 116 57 220 116 58 220 115 59 220 115 30 60 220 30 60 220 30 60 220 30 60 220 30 60 220 30 60 220 30 60 220 30 60 220 30 60 220 30 60 220 30 60 220 30 60 220 30 60 220 30 60 220 30 60 220 30 60 220 30 60 220 30 60 220 30 60 220 30 60 220 30 60 220 30 60 220 30 60 220 30 60 220 30 60 220 30 60 220 30 60 220 30 60 220 30 60 220 30 60 220 30 60 220 30 60 220 30 60 220 30 60 220 30 60 220 30 60 220 30 60 220 30 60 220 30 60 220 30 60 220 30 60 220 30 60 220 30 60 220 30 60 220 30 60 220 30 60 220 30 60 220 30 60 220 30 60 220 30 60 220 30 60 220 30 60 220 30 60 220 30 60 220 30 60 220 30 60 220 30 60 220 30 60 220 30 60 220 30 60 220 30 60 220 30 60 220 30 60 220 30 60 220 30 60 220 30 60 220 30 60 220 30 60 220 30 60 220 30 60 220 30 60 220 30 60 220 30 60 220 30 60 220 30 60 220 30 60 220 30 60 220 30 60 220 30 60 220 30 60 220 30 60 220 30 60 220 30 60 220 30 60 220 30 60 220 30 60 220 30 60 220 30 60 220 30 60 220 30 60 220 30 60 220 30 60 220 30 60 220 30 60 220 30 60 220 30 60 220 30 60 220 30 60 220 30 60 220 30 60 220 30 60 220 30 60 220 30 60 220 30 60 220 30 60 220 30 60 220 30 60 220 30 60 220 30 60 220 30 60 220 30 60 220 30 60 220 30 60 220 30 60 220 30 60 220 30 60 220 30 60 220 30 60 220 30 60 220 30 60 220 30 60 220 30 60 220 30 60 220 30 60 220 30 60 220 30 60 220 30 60 220 30 60 220 30 60 220 30 60 220 30 60 220 30 60 220 30 60 220 30 60 220 30 60 220 30 60 220 30 60 220 30 60 220 30 60 220 199 220 45 200 220 44 201 220 44 202 220 43 203 220 43 204 220 42 205 220 42 206 220 41 207 220 41 208 220 40 209 220 40 210 220 39 211 220 39 212 220 38 213 220 38 214 220 37 215 220 37 216 220 36 217 220 36 218 220 35 219 220 35 220 220 34 221 220 34 222 220 33 223 220 33 224 220 32 225 220 32 226 220 31 227 220 31 228 220 30 229 220 30 230 220 29 231 220 29 232 220 28 233 220 28 234 220 27 235 220 27 236 220 26 237 220 26 238 220 25 239 220 25 240 220 24 241 220 24 242 220 23 243 220 23 244 220 22 245 220 22 246 220 21 247 220 21 248 220 20 249 220 20 250 220 19 251 220 19 252 220 18 253 220 18 254 220 17 
0 221 144 0 221 143 1 221 143 2 221 142 3 221 142 4 221 141 5 221 141 6 221 140 7 221 140 8 221 139 9 221 139 10 221 138 11 221 138 12 221 137 13 221 137 14 221 136 15 221 136 16 221 135 17 221 135 18 221 134 19 221 134 20 221 133 21 221 133 22 221 132 23 221 132 24 221 131 25 221 131 26 221 130 27 221 130 28 221 129 29 221 129 30 221 128 31 221 128 32 221 127 33 221 127 34 221 127 35 221 126 36 221 126 37 221 125 38 221 125 39 221 124 40 221 124 41 221 123 42 221 123 43 221 122 44 221 122 45 221 121 46 221 121 47 221 120 48 221 120 49 221 119 50 221 119 51 221 118 52 221 118 53 221 117 54 221 117 55 221 116 56 221 116 57 221 115 58 221 115 59 221 114 30 60 220 30 60 220 30 60 220 30 60 220 30 60 220 30 60 220 30 60 220 30 60 220 30 60 220 30 60 220 30 60 220 30 60 220 30 60 220 30 60 220 30 60 220 30 60 220 30 60 220 30 60 220 30 60 220 30 60 220 30 60 220 30 60 220 30 60 220 30 60 220 30 60 220 30 60 220 30 60 220 30 60 220 30 60 220 30 60 220 30 60 220 30 60 220 30 60 220 30 60 220 30 60 220 30 60 220 30 60 220 30 60 220 30 60 220 30 60 220 30 60 220 30 60 220 30 60 220 30 60 220 30 60 220 30 60 220 30 60 220 30 60 220 30 60 220 30 60 220 30 60 220 30 60 220 30 60 220 30 60 220 30 60 220 30 60 220 30 60 220 30 60 220 30 60 220 30 60 220 30 60 220 30 60 220 30 60 220 30 60 220 30 60 220 30 60 220 30 60 220 30 60 220 30 60 220 30 60 220 30 60 220 30 60 220 30 60 220 30 60 220 30 60 220 30 60 220 30 60 220 30 60 220 30 60 220 30 60 220 30 60 220 30 60 220 30 60 220 30 60 220 30 60 220 30 60 220 30 60 220 30 60 220 30 60 220 30 60 220 30 60 220 30 60 220 30 60 220 30 60 220 30 60 220 30 60 220 30 60 220 30 60 220 30 60 220 30 60 220 30 60 220 30 60 220 30 60 220 30 60 220 30 60 220 30 60 220 30 60 220 30 60 220 30 60 220 30 60 220 30 60 220 30 60 220 30 60 220 30 60 220 30 60 220 30 60 220 30 60 220 30 60 220 30 60 220 30 60 220 30 60 220 30 60 220 30 60 220 30 60 220 30 60 220 30 60 220 30 60 220 30 60 220 30 60 220 30 60 220 30 60 220 30 60 220 30 60 220 30 60 220 30 60 220 30 60 220 30 60 220 30 60 220 30 60 220 199 221 44 200 221 44 201 221 43 202 221 43 203 221 42 204 221 42 205 221 41 206 221 41 207 221 40 208 221 40 209 221 39 210 221 39 211 221 38 212 221 38 213 221 37 214 221 37 215 221 36 216 221 36 217 221 35 218 221 35 219 221 34 220 221 34 221 221 33 222 221 33 223 221 32 224 221 32 225 221 31 226 221 31 227 221 30 228 221 30 229 221 29 230 221 29 231 221 28 232 221 28 233 221 27 234 221 27 235 221 26 236 221 26 237 221 25 238 221 25 239 221 24 240 221 24 241 221 23 242 221 23 243 221 22 244 221 22 245 221 21 246 221 21 247 221 20 248 221 20 249 221 19 250 221 19 251 221 18 252 221 18 253 221 17 254 221 17 
0 222 143 0 222 143 1 222 142 2 222 142 3 222 141 4 222 141 5 222 140 6 222 140 7 222 139 8 222 139 9 222 138 10 222 138 11 222 137 12 222 137 13 222 136 14 222 136 15 222 135 16 222 135 17 222 134 18 222 134 19 222 133 20 222 133 21 222 132 22 222 132 23 222 131 24 222 131 25 222 130 26 222 130 27 222 129 28 222 129 29 222 128 30 222 128 31 222 127 32 222 127 33 222 127 34 222 126 35 222 126 36 222 125 37 222 125 38 222 124 39 222 124 40 222 123 41 222 123 42 222 122 43 222 122 44 222 121 45 222 121 46 222 120 47 222 120 48 222 119 49 222 119 50 222 118 51 222 118 52 222 117 53 222 117 54 222 116 55 222 116 56 222 115 57 222 115 58 222 114 59 222 114 30 60 220 30 60 220 30 60 220 30 60 220 30 60 220 30 60 220 30 60 220 30 60 220 30 60 220 30 60 220 30 60 220 30 60 220 30 60 220 30 60 220 30 60 220 30 60 220 30 60 220 30 60 220 30 60 220 30 60 220 30 60 220 30 60 220 30 60 220 30 60 220 30 60 220 30 60 220 30 60 220 30 60 220 30 60 220 30 60 220 30 60 220 30 60 220 30 60 220 30 60 220 30 60 220 30 60 220 30 60 220 30 60 220 30 60 220 30 60 220 30 60 220 30 60 220 30 60 220 30 60 220 30 60 220 30 60 220 30 60 220 30 60 220 30 60 220 30 60 220 30 60 220 30 60 220 30 60 220 30 60 220 30 60 220 30 60 220 30 60 220 30 60 220 30 60 220 30 60 220 30 60 220 30 60 220 30 60 220 30 60 220 30 60 220 30 60 220 30 60 220 30 60 220 30 60 220 30 60 220 30 60 220 30 60 220 30 60 220 30 60 220 30 60 220 30 60 220 30 60 220 30 60 220 30 60 220 30 60 220 30 60 220 30 60 220 30 60 220 30 60 220 30 60 220 30 60 220 30 60 220 30 60 220 30 60 220 30 60 220 30 60 220 30 60 220 30 60 220 30 60 220 30 60 220 30 60 220 30 60 220 30 60 220 30 60 220 30 60 220 30 60 220 30 60 220 30 60 220 30 60 220 30 60 220 30 60 220 30 60 220 30 60 220 30 60 220 30 60 220 30 60 220 30 60 220 30 60 220 30 60 220 30 60 220 30 60 220 30 60 220 30 60 220 30 60 220 30 60 220 30 60 220 30 60 220 30 60 220 30 60 220 30 60 220 30 60 220 30 60 220 30 60 220 30 60 220 30 60 220 30 60 220 30 60 220 30 60 220 30 60 220 30 60 220 30 60 220 30 60 220 30 60 220 30 60 220 199 222 44 200 222 43 201 222 43 202 222 42 203 222 42 204 222 41 205 222 41 206 222 40 207 222 40 208 222 39 209 222 39 210 222 38 211 222 38 212 222 37 213 222 37 214 222 36 215 222 36 216 222 35 217 222 35 218 222 34 219 222 34 220 222 33 221 222 33 222 222 32 223 222 32 224 222 31 225 222 31 226 222 30 227 222 30 228 222 29 229 222 29 230 222 28 231 222 28 232 222 27 233 222 27 234 222 26 235 222 26 236 222 25 237 222 25 238 222 24 239 222 24 240 222 23 241 222 23 242 222 22 243 222 22 244 222 21 245 222 21 246 222 20 247 222 20 248 222 19 249 222 19 250 222 18 251 222 18 252 222 17 253 222 17 254 222 16 
0 223 143 0 223 142 1 223 142 2 223 141 3 223 141 4 223 140 5 223 140 6 223 139 7 223 139 8 223 138 9 223 138 10 223 137 11 223 137 12 223 136 13 223 136 14 223 135 15 223 135 16 223 134 17 223 134 18 223 133 19 223 133 20 223 132 21 223 132 22 223 131 23 223 131 24 223 130 25 223 130 26 223 129 27 223 129 28 223 128 29 223 128 30 223 127 31 223 127 32 223 127 33 223 126 34 223 126 35 223 125 36 223 125 37 223 124 38 223 124 39 223 123 40 223 123 41 223 122 42 223 122 43 223 121 44 223 121 45 223 120 46 223 120 47 223 119 48 223 119 49 223 118 50 223 118 51 223 117 52 223 117 53 223 116 54 223 116 55 223 115 56 223 115 57 223 114 58 223 114 59 223 113 30 60 220 30 60 220 30 60 220 30 60 220 30 60 220 30 60 220 30 60 220 30 60 220 30 60 220 30 60 220 30 60 220 30 60 220 30 60 220 30 60 220 30 60 220 30 60 220 30 60 220 30 60 220 30 60 220 30 60 220 30 60 220 30 60 220 30 60 220 30 60 220 30 60 220 30 60 220 30 60 220 30 60 220 30 60 220 30 60 220 30 60 220 30 60 220 30 60 220 30 60 220 30 60 220 30 60 220 30 60 220 30 60 220 30 60 220 30 60 220 30 60 220 30 60 220 30 60 220 30 60 220 30 60 220 30 60 220 30 60 220 30 60 220 30 60 220 30 60 220 30 60 220 30 60 220 30 60 220 30 60 220 30 60 220 30 60 220 30 60 220 30 60 220 30 60 220 30 60 220 30 60 220 30 60 220 30 60 220 30 60 220 30 60 220 30 60 220 30 60 220 30 60 220 30 60 220 30 60 220 30 60 220 30 60 220 30 60 220 30 60 220 30 60 220 30 60 220 30 60 220 30 60 220 30 60 220 30 60 220 30 60 220 30 60 220 30 60 220 30 60 220 30 60 220 30 60 220 30 60 220 30 60 220 30 60 220 30 60 220 30 60 220 30 60 220 30 60 220 30 60 220 30 60 220 30 60 220 30 60 220 30 60 220 30 60 220 30 60 220 30 60 220 30 60 220 30 60 220 30 60 220 30 60 220 30 60 220 30 60 220 30 60 220 30 60 220 30 60 220 30 60 220 30 60 220 30 60 220 30 60 220 30 60 220 30 60 220 30 60 220 30 60 220 30 60 220 30 60 220 30 60 220 30 60 220 30 60 220 30 60 220 30 60 220 30 60 220 30 60 220 30 60 220 30 60 220 30 60 220 30 60 220 30 60 220 30 60 220 30 60 220 30 60 220 30 60 220 30 60 220 30 60 220 30 60 220 199 223 43 200 223 43 201 223 42 202 223 42 203 223 41 204 223 41 205 223 40 206 223 40 207 223 39 208 223 39 209 223 38 210 223 38 211 223 37 212 223 37 213 223 36 214 223 36 215 223 35 216 223 35 217 223 34 218 223 34 219 223 33 220 223 33 221 223 32 222 223 32 223 223 31 224 223 31 225 223 30 226 223 30 227 223 29 228 223 29 229 223 28 230 223 28 231 223 27 232 223 27 233 223 26 234 223 26 235 223 25 236 223 25 237 223 24 238 223 24 239 223 23 240 223 23 241 223 22 242 223 22 243 223 21 244 223 21 245 223 20 246 223 20 247 223 19 248 223 19 249 223 18 250 223 18 251 223 17 252 223 17 253 223 16 254 223 16 
0 224 142 0 224 142 1 224 141 2 224 141 3 224 140 4 224 140 5 224 139 6 224 139 7 224 138 8 224 138 9 224 137 10 224 137 11 224 136 12 224 136 13 224 135 14 224 135 15 224 134 16 224 134 17 224 133 18 224 133 19 224 132 20 224 132 21 224 131 22 224 131 23 224 130 24 224 130 25 224 129 26 224 129 27 224 128 28 224 128 29 224 127 30 224 127 31 224 127 32 224 126 33 224 126 34 224 125 35 224 125 36 224 124 37 224 124 38 224 123 39 224 123 40 224 122 41 224 122 42 224 121 43 224 121 44 224 120 45 224 120 46 224 119 47 224 119 48 224 118 49 224 118 50 224 117 51 224 117 52 224 116 53 224 116 54 224 115 55 224 115 56 224 114 57 224 114 58 224 113 59 224 113 30 60 220 30 60 220 30 60 220 30 60 220 30 60 220 30 60 220 30 60 220 30 60 220 30 60 220 30 60 220 30 60 220 30 60 220 30 60 220 30 60 220 30 60 220 30 60 220 30 60 220 30 60 220 30 60 220 30 60 220 30 60 220 30 60 220 30 60 220 30 60 220 30 60 220 30 60 220 30 60 220 30 60 220 30 60 220 30 60 220 30 60 220 30 60 220 30 60 220 30 60 220 30 60 220 30 60 220 30 60 220 30 60 220 30 60 220 30 60 220 30 60 220 30 60 220 30 60 220 30 60 220 30 60 220 30 60 220 30 60 220 30 60 220 30 60 220 30 60 220 30 60 220 30 60 220 30 60 220 30 60 220 30 60 220 30 60 220 30 60 220 30 60 220 30 60 220 30 60 220 30 60 220 30 60 220 30 60 220 30 60 220 30 60 220 30 60 220 30 60 220 30 60 220 30 60 220 30 60 220 30 60 220 30 60 220 30 60 220 30 60 220 30 60 220 30 60 220 30 60 220 30 60 220 30 60 220 30 60 220 30 60 220 30 60 220 30 60 220 30 60 220 30 60 220 30 60 220 30 60 220 30 60 220 30 60 220 30 60 220 30 60 220 30 60 220 30 60 220 30 60 220 30 60 220 30 60 220 30 60 220 30 60 220 30 60 220 30 60 220 30 60 220 30 60 220 30 60 220 30 60 220 30 60 220 30 60 220 30 60 220 30 60 220 30 60 220 30 60 220 30 60 220 30 60 220 30 60 220 30 60 220 30 60 220 30 60 220 30 60 220 30 60 220 30 60 220 30 60 220 30 60 220 30 60 220 30 60 220 30 60 220 30 60 220 30 60 220 30 60 220 30 60 220 30 60 220 30 60 220 30 60 220 30 60 220 30 60 220 30 60 220 30 60 220 30 60 220 30 60 220 30 60 220 30 60 220 199 224 43 200 224 42 201 224 42 202 224 41 203 224 41 204 224 40 205 224 40 206 224 39 207 224 39 208 224 38 209 224 38 210 224 37 211 224 37 212 224 36 213 224 36 214 224 35 215 224 35 216 224 34 217 224 34 218 224 33 219 224 33 220 224 32 221 224 32 222 224 31 223 224 31 224 224 30 225 224 30 226 224 29 227 224 29 228 224 28 229 224 28 230 224 27 231 224 27 232 224 26 233 224 26 234 224 25 235 224 25 236 224 24 237 224 24 238 224 23 239 224 23 240 224 22 241 224 22 242 224 21 243 224 21 244 224 20 245 224 20 246 224 19 247 224 19 248 224 18 249 224 18 250 224 17 251 224 17 252 224 16 253 224 16 254 224 15 
0 225 142 0 225 141 1 225 141 2 225 140 3 225 140 4 225 139 5 225 139 6 225 138 7 225 138 8 225 137 9 225 137 10 225 136 11 225 136 12 225 135 13 225 135 14 225 134 15 225 134 16 225 133 17 225 133 18 225 132 19 225 132 20 225 131 21 225 131 22 225 130 23 225 130 24 225 129 25 225 129 26 225 128 27 225 128 28 225 127 29 225 127 30 225 127 31 225 126 32 225 126 33 225 125 34 225 125 35 225 124 36 225 124 37 225 123 38 225 123 39 225 122 40 225 122 41 225 121 42 225 121 43 225 120 44 225 120 45 225 119 46 225 119 47 225 118 48 225 118 49 225 117 50 225 117 51 225 116 52 225 116 53 225 115 54 225 115 55 225 114 56 225 114 57 225 113 58 225 113 59 225 112 30 60 220 30 60 220 30 60 220 30 60 220 30 60 220 30 60 220 30 60 220 30 60 220 30 60 220 30 60 220 30 60 220 30 60 220 30 60 220 30 60 220 30 60 220 30 60 220 30 60 220 30 60 220 30 60 220 30 60 220 30 60 220 30 60 220 30 60 220 30 60 220 30 60 220 30 60 220 30 60 220 30 60 220 30 60 220 30 60 220 30 60 220 30 60 220 30 60 220 30 60 220 30 60 220 30 60 220 30 60 220 30 60 220 30 60 220 30 60 220 30 60 220 30 60 220 30 60 220 30 60 220 30 60 220 30 60 220 30 60 220 30 60 220 30 60 220 30 60 220 30 60 220 30 60 220 30 60 220 30 60 220 30 60 220 30 60 220 30 60 220 30 60 220 30 60 220 30 60 220 30 60 220 30 60 220 30 60 220 30 60 220 30 60 220 30 60 220 30 60 220 30 60 220 30 60 220 30 60 220 30 60 220 30 60 220 30 60 220 30 60 220 30 60 220 30 60 220 30 60 220 30 60 220 30 60 220 30 60 220 30 60 220 30 60 220 30 60 220 30 60 220 30 60 220 30 60 220 30 60 220 30 60 220 30 60 220 30 60 220 30 60 220 30 60 220 30 60 220 30 60 220 30 60 220 30 60 220 30 60 220 30 60 220 30 60 220 30 60 220 30 60 220 30 60 220 30 60 220 30 60 220 30 60 220 30 60 220 30 60 220 30 60 220 30 60 220 30 60 220 30 60 220 30 60 220 30 60 220 30 60 220 30 60 220 30 60 220 30 60 220 30 60 220 30 60 220 30 60 220 30 60 220 30 60 220 30 60 220 30 60 220 30 60 220 30 60 220 30 60 220 30 60 220 30 60 220 30 60 220 30 60 220 30 60 220 30 60 220 30 60 220 30 60 220 30 60 220 30 60 220 30 60 220 30 60 220 199 225 42 200 225 42 201 225 41 202 225 41 203 225 40 204 225 40 205 225 39 206 225 39 207 225 38 208 225 38 209 225 37 210 225 37 211 225 36 212 225 36 213 225 35 214 225 35 215 225 34 216 225 34 217 225 33 218 225 33 219 225 32 220 225 32 221 225 31 222 225 31 223 225 30 224 225 30 225 225 29 226 225 29 227 225 28 228 225 28 229 225 27 230 225 27 231 225 26 232 225 26 233 225 25 234 225 25 235 225 24 236 225 24 237 225 23 238 225 23 239 225 22 240 225 22 241 225 21 242 225 21 243 225 20 244 225 20 245 225 19 246 225 19 247 225 18 248 225 18 249 225 17 250 225 17 251 225 16 252 225 16 253 225 15 254 225 15 
0 226 141 0 226 141 1 226 140 2 226 140 3 226 139 4 226 139 5 226 138 6 226 138 7 226 137 8 226 137 9 226 136 10 226 136 11 226 135 12 226 135 13 226 134 14 226 134 15 226 133 16 226 133 17 226 132 18 226 132 19 226 131 20 226 131 21 226 130 22 226 130 23 226 129 24 226 129 25 226 128 26 226 128 27 226 127 28 226 127 29 226 127 30 226 126 31 226 126 32 226 125 33 226 125 34 226 124 35 226 124 36 226 123 37 226 123 38 226 122 39 226 122 40 226 121 41 226 121 42 226 120 43 226 120 44 226 119 45 226 119 46 226 118 47 226 118 48 226 117 49 226 117 50 226 116 51 226 116 52 226 115 53 226 115 54 226 114 55 226 114 56 226 113 57 226 113 58 226 112 59 226 112 30 60 220 30 60 220 30 60 220 30 60 220 30 60 220 30 60 220 30 60 220 30 60 220 30 60 220 30 60 220 30 60 220 30 60 220 30 60 220 30 60 220 30 60 220 30 60 220 30 60 220 30 60 220 30 60 220 30 60 220 30 60 220 30 60 220 30 60 220 30 60 220 30 60 220 30 60 220 30 60 220 30 60 220 30 60 220 30 60 220 30 60 220 30 60 220 30 60 220 30 60 220 30 60 220 30 60 220 30 60 220 30 60 220 30 60 220 30 60 220 30 60 220 30 60 220 30 60 220 30 60 220 30 60 220 30 60 220 30 60 220 30 60 220 30 60 220 30 60 220 30 60 220 30 60 220 30 60 220 30 60 220 30 60 220 30 60 220 30 60 220 30 60 220 30 60 220 30 60 220 30 60 220 30 60 220 30 60 220 30 60 220 30 60 220 30 60 220 30 60 220 30 60 220 30 60 220 30 60 220 30 60 220 30 60 220 30 60 220 30 60 220 30 60 220 30 60 220 30 60 220 30 60 220 30 60 220 30 60 220 30 60 220 30 60 220 30 60 220 30 60 220 30 60 220 30 60 220 30 60 220 30 60 220 30 60 220 30 60 220 30 60 220 30 60 220 30 60 220 30 60 220 30 60 220 30 60 220 30 60 220 30 60 220 30 60 220 30 60 220 30 60 220 30 60 220 30 60 220 30 60 220 30 60 220 30 60 220 30 60 220 30 60 220 30 60 220 30 60 220 30 60 220 30 60 220 30 60 220 30 60 220 30 60 220 30 60 220 30 60 220 30 60 220 30 60 220 30 60 220 30 60 220 30 60 220 30 60 220 30 60 220 30 60 220 30 60 220 30 60 220 30 60 220 30 60 220 30 60 220 30 60 220 30 60 220 30 60 220 30 60 220 30 60 220 30 60 220 30 60 220 30 60 220 30 60 220 199 226 42 200 226 41 201 226 41 202 226 40 203 226 40 204 226 39 205 226 39 206 226 38 207 226 38 208 226 37 209 226 37 210 226 36 211 226 36 212 226 35 213 226 35 214 226 34 215 226 34 216 226 33 217 226 33 218 226 32 219 226 32 220 226 31 221 226 31 222 226 30 223 226 30 224 226 29 225 226 29 226 226 28 227 226 28 228 226 27 229 226 27 230 226 26 231 226 26 232 226 25 233 226 25 234 226 24 235 226 24 236 226 23 237 226 23 238 226 22 239 226 22 240 226 21 241 226 21 242 226 20 243 226 20 244 226 19 245 226 19 246 226 18 247 226 18 248 226 17 249 226 17 250 226 16 251 226 16 252 226 15 253 226 15 254 226 14 
0 227 141 0 227 140 1 227 140 2 227 139 3 227 139 4 227 138 5 227 138 6 227 137 7 227 137 8 227 136 9 227 136 10 227 135 11 227 135 12 227 134 13 227 134 14 227 133 15 227 133 16 227 132 17 227 132 18 227 131 19 227 131 20 227 130 21 227 130 22 227 129 23 227 129 24 227 128 25 227 128 26 227 127 27 227 127 28 227 127 29 227 126 30 227 126 31 227 125 32 227 125 33 227 124 34 227 124 35 227 123 36 227 123 37 227 122 38 227 122 39 227 121 40 227 121 41 227 120 42 227 120 43 227 119 44 227 119 45 227 118 46 227 118 47 227 117 48 227 117 49 227 116 50 227 116 51 227 115 52 227 115 53 227 114 54 227 114 55 227 113 56 227 113 57 227 112 58 227 112 59 227 111 30 60 220 30 60 220 30 60 220 30 60 220 30 60 220 30 60 220 30 60 220 30 60 220 30 60 220 30 60 220 30 60 220 30 60 220 30 60 220 30 60 220 30 60 220 30 60 220 30 60 220 30 60 220 30 60 220 30 60 220 30 60 220 30 60 220 30 60 220 30 60 220 30 60 220 30 60 220 30 60 220 30 60 220 30 60 220 30 60 220 30 60 220 30 60 220 30 60 220 30 60 220 30 60 220 30 60 220 30 60 220 30 60 220 30 60 220 30 60 220 30 60 220 30 60 220 30 60 220 30 60 220 30 60 220 30 60 220 30 60 220 30 60 220 30 60 220 30 60 220 30 60 220 30 60 220 30 60 220 30 60 220 30 60 220 30 60 220 30 60 220 30 60 220 30 60 220 30 60 220 30 60 220 30 60 220 30 60 220 30 60 220 30 60 220 30 60 220 30 60 220 30 60 220 30 60 220 30 60 220 30 60 220 30 60 220 30 60 220 30 60 220 30 60 220 30 60 220 30 60 220 30 60 220 30 60 220 30 60 220 30 60 220 30 60 220 30 60 220 30 60 220 30 60 220 30 60 220 30 60 220 30 60 220 30 60 220 30 60 220 30 60 220 30 60 220 30 60 220 30 60 220 30 60 220 30 60 220 30 60 220 30 60 220 30 60 220 30 60 220 30 60 220 30 60 220 30 60 220 30 60 220 30 60 220 30 60 220 30 60 220 30 60 220 30 60 220 30 60 220 30 60 220 30 60 220 30 60 220 30 60 220 30 60 220 30 60 220 30 60 220 30 60 220 30 60 220 30 60 220 30 60 220 30 60 220 30 60 220 30 60 220 30 60 220 30 60 220 30 60 220 30 60 220 30 60 220 30 60 220 30 60 220 30 60 220 30 60 220 30 60 220 30 60 220 30 60 220 30 60 220 30 60 220 30 60 220 199 227 41 200 227 41 201 227 40 202 227 40 203 227 39 204 227 39 205 227 38 206 227 38 207 227 37 208 227 37 209 227 36 210 227 36 211 227 35 212 227 35 213 227 34 214 227 34 215 227 33 216 227 33 217 227 32 218 227 32 219 227 31 220 227 31 221 227 30 222 227 30 223 227 29 224 227 29 225 227 28 226 227 28 227 227 27 228 227 27 229 227 26 230 227 26 231 227 25 232 227 25 233 227 24 234 227 24 235 227 23 236 227 23 237 227 22 238 227 22 239 227 21 240 227 21 241 227 20 242 227 20 243 227 19 244 227 19 245 227 18 246 227 18 247 227 17 248 227 17 249 227 16 250 227 16 251 227 15 252 227 15 253 227 14 254 227 14 
0 228 140 0 228 140 1 228 139 2 228 139 3 228 138 4 228 138 5 228 137 6 228 137 7 228 136 8 228 136 9 228 135 10 228 135 11 228 134 12 228 134 13 228 133 14 228 133 15 228 132 16 228 132 17 228 131 18 228 131 19 228 130 20 228 130 21 228 129 22 228 129 23 228 128 24 228 128 25 228 127 26 228 127 27 228 127 28 228 126 29 228 126 30 228 125 31 228 125 32 228 124 33 228 124 34 228 123 35 228 123 36 228 122 37 228 122 38 228 121 39 228 121 40 228 120 41 228 120 42 228 119 43 228 119 44 228 118 45 228 118 46 228 117 47 228 117 48 228 116 49 228 116 50 228 115 51 228 115 52 228 114 53 228 114 54 228 113 55 228 113 56 228 112 57 228 112 58 228 111 59 228 111 30 60 220 30 60 220 30 60 220 30 60 220 30 60 220 30 60 220 30 60 220 30 60 220 30 60 220 30 60 220 30 60 220 30 60 220 30 60 220 30 60 220 30 60 220 30 60 220 30 60 220 30 60 220 30 60 220 30 60 220 30 60 220 30 60 220 30 60 220 30 60 220 30 60 220 30 60 220 30 60 220 30 60 220 30 60 220 30 60 220 30 60 220 30 60 220 30 60 220 30 60 220 30 60 220 30 60 220 30 60 220 30 60 220 30 60 220 30 60 220 30 60 220 30 60 220 30 60 220 30 60 220 30 60 220 30 60 220 30 60 220 30 60 220 30 60 220 30 60 220 30 60 220 30 60 220 30 60 220 30 60 220 30 60 220 30 60 220 30 60 220 30 60 220 30 60 220 30 60 220 30 60 220 30 60 220 30 60 220 30 60 220 30 60 220 30 60 220 30 60 220 30 60 220 30 60 220 30 60 220 30 60 220 30 60 220 30 60 220 30 60 220 30 60 220 30 60 220 30 60 220 30 60 220 30 60 220 30 60 220 30 60 220 30 60 220 30 60 220 30 60 220 30 60 220 30 60 220 30 60 220 30 60 220 30 60 220 30 60 220 30 60 220 30 60 220 30 60 220 30 60 220 30 60 220 30 60 220 30 60 220 30 60 220 30 60 220 30 60 220 30 60 220 30 60 220 30 60 220 30 60 220 30 60 220 30 60 220 30 60 220 30 60 220 30 60 220 30 60 220 30 60 220 30 60 220 30 60 220 30 60 220 30 60 220 30 60 220 30 60 220 30 60 220 30 60 220 30 60 220 30 60 220 30 60 220 30 60 220 30 60 220 30 60 220 30 60 220 30 60 220 30 60 220 30 60 220 30 60 220 30 60 220 30 60 220 30 60 220 30 60 220 30 60 220 30 60 220 30 60 220 30 60 220 30 60 220 199 228 41 200 228 40 201 228 40 202 228 39 203 228 39 204 228 38 205 228 38 206 228 37 207 228 37 208 228 36 209 228 36 210 228 35 211 228 35 212 228 34 213 228 34 214 228 33 215 228 33 216 228 32 217 228 32 218 228 31 219 228 31 220 228 30 221 228 30 222 228 29 223 228 29 224 228 28 225 228 28 226 228 27 227 228 27 228 228 26 229 228 26 230 228 25 231 228 25 232 228 24 233 228 24 234 228 23 235 228 23 236 228 22 237 228 22 238 228 21 239 228 21 240 228 20 241 228 20 242 228 19 243 228 19 244 228 18 245 228 18 246 228 17 247 228 17 248 228 16 249 228 16 250 228 15 251 228 15 252 228 14 253 228 14 254 228 13 
0 229 140 0 229 139 1 229 139 2 229 138 3 229 138 4 229 137 5 229 137 6 229 136 7 229 136 8 229 135 9 229 135 10 229 134 11 229 134 12 229 133 13 229 133 14 229 132 15 229 132 16 229 131 17 229 131 18 229 130 19 229 130 20 229 129 21 229 129 22 229 128 23 229 128 24 229 127 25 229 127 26 229 127 27 229 126 28 229 126 29 229 125 30 229 125 31 229 124 32 229 124 33 229 123 34 229 123 35 229 122 36 229 122 37 229 121 38 229 121 39 229 120 40 229 120 41 229 119 42 229 119 43 229 118 44 229 118 45 229 117 46 229 117 47 229 116 48 229 116 49 229 115 50 229 115 51 229 114 52 229 114 53 229 113 54 229 113 55 229 112 56 229 112 57 229 111 58 229 111 59 229 110 30 60 220 30 60 220 30 60 220 30 60 220 30 60 220 30 60 220 30 60 220 30 60 220 30 60 220 30 60 220 30 60 220 30 60 220 30 60 220 30 60 220 30 60 220 30 60 220 30 60 220 30 60 220 30 60 220 30 60 220 30 60 220 30 60 220 30 60 220 30 60 220 30 60 220 30 60 220 30 60 220 30 60 220 30 60 220 30 60 220 30 60 220 30 60 220 30 60 220 30 60 220 30 60 220 30 60 220 30 60 220 30 60 220 30 60 220 30 60 220 30 60 220 30 60 220 30 60 220 30 60 220 30 60 220 30 60 220 30 60 220 30 60 220 30 60 220 30 60 220 30 60 220 30 60 220 30 60 220 30 60 220 30 60 220 30 60 220 30 60 220 30 60 220 30 60 220 30 60 220 30 60 220 30 60 220 30 60 220 30 60 220 30 60 220 30 60 220 30 60 220 30 60 220 30 60 220 30 60 220 30 60 220 30 60 220 30 60 220 30 60 220 30 60 220 30 60 220 30 60 220 30 60 220 30 60 220 30 60 220 30 60 220 30 60 220 30 60 220 30 60 220 30 60 220 30 60 220 30 60 220 30 60 220 30 60 220 30 60 220 30 60 220 30 60 220 30 60 220 30 60 220 30 60 220 30 60 220 30 60 220 30 60 220 30 60 220 30 60 220 30 60 220 30 60 220 30 60 220 30 60 220 30 60 220 30 60 220 30 60 220 30 60 220 30 60 220 30 60 220 30 60 220 30 60 220 30 60 220 30 60 220 30 60 220 30 60 220 30 60 220 30 60 220 30 60 220 30 60 220 30 60 220 30 60 220 30 60 220 30 60 220 30 60 220 30 60 220 30 60 220 30 60 220 30 60 220 30 60 220 30 60 220 30 60 220 30 60 220 30 60 220 30 60 220 30 60 220 30 60 220 30 60 220 30 60 220 199 229 40 200 229 40 201 229 39 202 229 39 203 229 38 204 229 38 205 229 37 206 229 37 207 229 36 208 229 36 209 229 35 210 229 35 211 229 34 212 229 34 213 229 33 214 229 33 215 229 32 216 229 32 217 229 31 218 229 31 219 229 30 220 229 30 221 229 29 222 229 29 223 229 28 224 229 28 225 229 27 226 229 27 227 229 26 228 229 26 229 229 25 230 229 25 231 229 24 232 229 24 233 229 23 234 229 23 235 229 22 236 229 22 237 229 21 238 229 21 239 229 20 240 229 20 241 229 19 242 229 19 243 229 18 244 229 18 245 229 17 246 229 17 247 229 16 248 229 16 249 229 15 250 229 15 251 229 14 252 229 14 253 229 13 254 229 13 
0 230 139 0 230 139 1 230 138 2 230 138 3 230 137 4 230 137 5 230 136 6 230 136 7 230 135 8 230 135 9 230 134 10 230 134 11 230 133 12 230 133 13 230 132 14 230 132 15 230 131 16 230 131 17 230 130 18 230 130 19 230 129 20 230 129 21 230 128 22 230 128 23 230 127 24 230 127 25 230 127 26 230 126 27 230 126 28 230 125 29 230 125 30 230 124 31 230 124 32 230 123 33 230 123 34 230 122 35 230 122 36 230 121 37 230 121 38 230 120 39 230 120 40 230 119 41 230 119 42 230 118 43 230 118 44 230 117 45 230 117 46 230 116 47 230 116 48 230 115 49 230 115 50 230 114 51 230 114 52 230 113 53 230 113 54 230 112 55 230 112 56 230 111 57 230 111 58 230 110 59 230 110 30 60 220 30 60 220 30 60 220 30 60 220 30 60 220 30 60 220 30 60 220 30 60 220 30 60 220 30 60 220 30 60 220 30 60 220 30 60 220 30 60 220 30 60 220 30 60 220 30 60 220 30 60 220 30 60 220 30 60 220 30 60 220 30 60 220 30 60 220 30 60 220 30 60 220 30 60 220 30 60 220 30 60 220 30 60 220 30 60 220 30 60 220 30 60 220 30 60 220 30 60 220 30 60 220 30 60 220 30 60 220 30 60 220 30 60 220 30 60 220 30 60 220 30 60 220 30 60 220 30 60 220 30 60 220 30 60 220 30 60 220 30 60 220 30 60 220 30 60 220 30 60 220 30 60 220 30 60 220 30 60 220 30 60 220 30 60 220 30 60 220 30 60 220 30 60 220 30 60 220 30 60 220 30 60 220 30 60 220 30 60 220 30 60 220 30 60 220 30 60 220 30 60 220 30 60 220 30 60 220 30 60 220 30 60 220 30 60 220 30 60 220 30 60 220 30 60 220 30 60 220 30 60 220 30 60 220 30 60 220 30 60 220 30 60 220 30 60 220 30 60 220 30 60 220 30 60 220 30 60 220 30 60 220 30 60 220 30 60 220 30 60 220 30 60 220 30 60 220 30 60 220 30 60 220 30 60 220 30 60 220 30 60 220 30 60 220 30 60 220 30 60 220 30 60 220 30 60 220 30 60 220 30 60 220 30 60 220 30 60 220 30 60 220 30 60 220 30 60 220 30 60 220 30 60 220 30 60 220 30 60 220 30 60 220 30 60 220 30 60 220 30 60 220 30 60 220 30 60 220 30 60 220 30 60 220 30 60 220 30 60 220 30 60 220 30 60 220 30 60 220 30 60 220 30 60 220 30 60 220 30 60 220 30 60 220 30 60 220 30 60 220 30 60 220 30 60 220 30 60 220 30 60 220 30 60 220 199 230 40 200 230 39 201 230 39 202 230 38 203 230 38 204 230 37 205 230 37 206 230 36 207 230 36 208 230 35 209 230 35 210 230 34 211 230 34 212 230 33 213 230 33 214 230 32 215 230 32 216 230 31 217 230 31 218 230 30 219 230 30 220 230 29 221 230 29 222 230 28 223 230 28 224 230 27 225 230 27 226 230 26 227 230 26 228 230 25 229 230 25 230 230 24 231 230 24 232 230 23 233 230 23 234 230 22 235 230 22 236 230 21 237 230 21 238 230 20 239 230 20 240 230 19 241 230 19 242 230 18 243 230 18 244 230 17 245 230 17 246 230 16 247 230 16 248 230 15 249 230 15 250 230 14 251 230 14 252 230 13 253 230 13 254 230 12 
0 231 139 0 231 138 1 231 138 2 231 137 3 231 137 4 231 136 5 231 136 6 231 135 7 231 135 8 231 134 9 231 134 10 231 133 11 231 133 12 231 132 13 231 132 14 231 131 15 231 131 16 231 130 17 231 130 18 231 129 19 231 129 20 231 128 21 231 128 22 231 127 23 231 127 24 231 127 25 231 126 26 231 126 27 231 125 28 231 125 29 231 124 30 231 124 31 231 123 32 231 123 33 231 122 34 231 122 35 231 121 36 231 121 37 231 120 38 231 120 39 231 119 40 231 119 41 231 118 42 231 118 43 231 117 44 231 117 45 231 116 46 231 116 47 231 115 48 231 115 49 231 114 50 231 114 51 231 113 52 231 113 53 231 112 54 231 112 55 231 111 56 231 111 57 231 110 58 231 110 59 231 109 30 60 220 30 60 220 30 60 220 30 60 220 30 60 220 30 60 220 30 60 220 30 60 220 30 60 220 30 60 220 30 60 220 30 60 220 30 60 220 30 60 220 30 60 220 30 60 220 30 60 220 30 60 220 30 60 220 30 60 220 30 60 220 30 60 220 30 60 220 30 60 220 30 60 220 30 60 220 30 60 220 30 60 220 30 60 220 30 60 220 30 60 220 30 60 220 30 60 220 30 60 220 30 60 220 30 60 220 30 60 220 30 60 220 30 60 220 30 60 220 30 60 220 30 60 220 30 60 220 30 60 220 30 60 220 30 60 220 30 60 220 30 60 220 30 60 220 30 60 220 30 60 220 30 60 220 30 60 220 30 60 220 30 60 220 30 60 220 30 60 220 30 60 220 30 60 220 30 60 220 30 60 220 30 60 220 30 60 220 30 60 220 30 60 220 30 60 220 30 60 220 30 60 220 30 60 220 30 60 220 30 60 220 30 60 220 30 60 220 30 60 220 30 60 220 30 60 220 30 60 220 30 60 220 30 60 220 30 60 220 30 60 220 30 60 220 30 60 220 30 60 220 30 60 220 30 60 220 30 60 220 30 60 220 30 60 220 30 60 220 30 60 220 30 60 220 30 60 220 30 60 220 30 60 220 30 60 220 30 60 220 30 60 220 30 60 220 30 60 220 30 60 220 30 60 220 30 60 220 30 60 220 30 60 220 30 60 220 30 60 220 30 60 220 30 60 220 30 60 220 30 60 220 30 60 220 30 60 220 30 60 220 30 60 220 30 60 220 30 60 220 30 60 220 30 60 220 30 60 220 30 60 220 30 60 220 30 60 220 30 60 220 30 60 220 30 60 220 30 60 220 30 60 220 30 60 220 30 60 220 30 60 220 30 60 220 30 60 220 30 60 220 30 60 220 30 60 220 30 60 220 30 60 220 30 60 220 199 231 39 200 231 39 201 231 38 202 231 38 203 231 37 204 231 37 205 231 36 206 231 36 207 231 35 208 231 35 209 231 34 210 231 34 211 231 33 212 231 33 213 231 32 214 231 32 215 231 31 216 231 31 217 231 30 218 231 30 219 231 29 220 231 29 221 231 28 222 231 28 223 231 27 224 231 27 225 231 26 226 231 26 227 231 25 228 231 25 229 231 24 230 231 24 231 231 23 232 231 23 233 231 22 234 231 22 235 231 21 236 231 21 237 231 20 238 231 20 239 231 19 240 231 19 241 231 18 242 231 18 243 231 17 244 231 17 245 231 16 246 231 16 247 231 15 248 231 15 249 231 14 250 231 14 251 231 13 252 231 13 253 231 12 254 231 12 
0 232 138 0 232 138 1 232 137 2 232 137 3 232 136 4 232 136 5 232 135 6 232 135 7 232 134 8 232 134 9 232 133 10 232 133 11 232 132 12 232 132 13 232 131 14 232 131 15 232 130 16 232 130 17 232 129 18 232 129 19 232 128 20 232 128 21 232 127 22 232 127 23 232 127 24 232 126 25 232 126 26 232 125 27 232 125 28 232 124 29 232 124 30 232 123 31 232 123 32 232 122 33 232 122 34 232 121 35 232 121 36 232 120 37 232 120 38 232 119 39 232 119 40 232 118 41 232 118 42 232 117 43 232 117 44 232 116 45 232 116 46 232 115 47 232 115 48 232 114 49 232 114 50 232 113 51 232 113 52 232 112 53 232 112 54 232 111 55 232 111 56 232 110 57 232 110 58 232 109 59 232 109 30 60 220 30 60 220 30 60 220 30 60 220 30 60 220 30 60 220 30 60 220 30 60 220 30 60 220 30 60 220 30 60 220 30 60 220 30 60 220 30 60 220 30 60 220 30 60 220 30 60 220 30 60 220 30 60 220 30 60 220 30 60 220 30 60 220 30 60 220 30 60 220 30 60 220 30 60 220 30 60 220 30 60 220 30 60 220 30 60 220 30 60 220 30 60 220 30 60 220 30 60 220 30 60 220 30 60 220 30 60 220 30 60 220 30 60 220 30 60 220 30 60 220 30 60 220 30 60 220 30 60 220 30 60 220 30 60 220 30 60 220 30 60 220 30 60 220 30 60 220 30 60 220 30 60 220 30 60 220 30 60 220 30 60 220 30 60 220 30 60 220 30 60 220 30 60 220 30 60 220 30 60 220 30 60 220 30 60 220 30 60 220 30 60 220 30 60 220 30 60 220 30 60 220 30 60 220 30 60 220 30 60 220 30 60 220 30 60 220 30 60 220 30 60 220 30 60 220 30 60 220 30 60 220 30 60 220 30 60 220 30 60 220 30 60 220 30 60 220 30 60 220 30 60 220 30 60 220 30 60 220 30 60 220 30 60 220 30 60 220 30 60 220 30 60 220 30 60 220 30 60 220 30 60 220 30 60 220 30 60 220 30 60 220 30 60 220 30 60 220 30 60 220 30 60 220 30 60 220 30 60 220 30 60 220 30 60 220 30 60 220 30 60 220 30 60 220 30 60 220 30 60 220 30 60 220 30 60 220 30 60 220 30 60 220 30 60 220 30 60 220 30 60 220 30 60 220 30 60 220 30 60 220 30 60 220 30 60 220 30 60 220 30 60 220 30 60 220 30 60 220 30 60 220 30 60 220 30 60 220 30 60 220 30 60 220 30 60 220 30 60 220 30 60 220 30 60 220 30 60 220 30 60 220 30 60 220 199 232 39 200 232 38 201 232 38 202 232 37 203 232 37 204 232 36 205 232 36 206 232 35 207 232 35 208 232 34 209 232 34 210 232 33 211 232 33 212 232 32 213 232 32 214 232 31 215 232 31 216 232 30 217 232 30 218 232 29 219 232 29 220 232 28 221 232 28 222 232 27 223 232 27 224 232 26 225 232 26 226 232 25 227 232 25 228 232 24 229 232 24 230 232 23 231 232 23 232 232 22 233 232 22 234 232 21 235 232 21 236 232 20 237 232 20 238 232 19 239 232 19 240 232 18 241 232 18 242 232 17 243 232 17 244 232 16 245 232 16 246 232 15 247 232 15 248 232 14 249 232 14 250 232 13 251 232 13 252 232 12 253 232 12 254 232 11 
0 233 138 0 233 137 1 233 137 2 233 136 3 233 136 4 233 135 5 233 135 6 233 134 7 233 134 8 233 133 9 233 133 10 233 132 11 233 132 12 233 131 13 233 131 14 233 130 15 233 130 16 233 129 17 233 129 18 233 128 19 233 128 20 233 127 21 233 127 22 233 127 23 233 126 24 233 126 25 233 125 26 233 125 27 233 124 28 233 124 29 233 123 30 233 123 31 233 122 32 233 122 33 233 121 34 233 121 35 233 120 36 233 120 37 233 119 38 233 119 39 233 118 40 233 118 41 233 117 42 233 117 43 233 116 44 233 116 45 233 115 46 233 115 47 233 114 48 233 114 49 233 113 50 233 113 51 233 112 52 233 112 53 233 111 54 233 111 55 233 110 56 233 110 57 233 109 58 233 109 59 233 108 30 60 220 30 60 220 30 60 220 30 60 220 30 60 220 30 60 220 30 60 220 30 60 220 30 60 220 30 60 220 30 60 220 30 60 220 30 60 220 30 60 220 30 60 220 30 60 220 30 60 220 30 60 220 30 60 220 30 60 220 30 60 220 30 60 220 30 60 220 30 60 220 30 60 220 30 60 220 30 60 220 30 60 220 30 60 220 30 60 220 30 60 220 30 60 220 30 60 220 30 60 220 30 60 220 30 60 220 30 60 220 30 60 220 30 60 220 30 60 220 30 60 220 30 60 220 30 60 220 30 60 220 30 60 220 30 60 220 30 60 220 30 60 220 30 60 220 30 60 220 30 60 220 30 60 220 30 60 220 30 60 220 30 60 220 30 60 220 30 60 220 30 60 220 30 60 220 30 60 220 30 60 220 30 60 220 30 60 220 30 60 220 30 60 220 30 60 220 30 60 220 30 60 220 30 60 220 30 60 220 30 60 220 30 60 220 30 60 220 30 60 220 30 60 220 30 60 220 30 60 220 30 60 220 30 60 220 30 60 220 30 60 220 30 60 220 30 60 220 30 60 220 30 60 220 30 60 220 30 60 220 30 60 220 30 60 220 30 60 220 30 60 220 30 60 220 30 60 220 30 60 220 30 60 220 30 60 220 30 60 220 30 60 220 30 60 220 30 60 220 30 60 220 30 60 220 30 60 220 30 60 220 30 60 220 30 60 220 30 60 220 30 60 220 30 60 220 30 60 220 30 60 220 30 60 220 30 60 220 30 60 220 30 60 220 30 60 220 30 60 220 30 60 220 30 60 220 30 60 220 30 60 220 30 60 220 30 60 220 30 60 220 30 60 220 30 60 220 30 60 220 30 60 220 30 60 220 30 60 220 30 60 220 30 60 220 30 60 220 30 60 220 30 60 220 30 60 220 30 60 220 30 60 220 30 60 220 199 233 38 200 233 38 201 233 37 202 233 37 203 233 36 204 233 36 205 233 35 206 233 35 207 233 34 208 233 34 209 233 33 210 233 33 211 233 32 212 233 32 213 233 31 214 233 31 215 233 30 216 233 30 217 233 29 218 233 29 219 233 28 220 233 28 221 233 27 222 233 27 223 233 26 224 233 26 225 233 25 226 233 25 227 233 24 228 233 24 229 233 23 230 233 23 231 233 22 232 233 22 233 233 21 234 233 21 235 233 20 236 233 20 237 233 19 238 233 19 239 233 18 240 233 18 241 233 17 242 233 17 243 233 16 244 233 16 245 233 15 246 233 15 247 233 14 248 233 14 249 233 13 250 233 13 251 233 12 252 233 12 253 233 11 254 233 11 
0 234 137 0 234 137 1 234 136 2 234 136 3 234 135 4 234 135 5 234 134 6 234 134 7 234 133 8 234 133 9 234 132 10 234 132 11 234 131 12 234 131 13 234 130 14 234 130 15 234 129 16 234 129 17 234 128 18 234 128 19 234 127 20 234 127 21 234 127 22 234 126 23 234 126 24 234 125 25 234 125 26 234 124 27 234 124 28 234 123 29 234 123 30 234 122 31 234 122 32 234 121 33 234 121 34 234 120 35 234 120 36 234 119 37 234 119 38 234 118 39 234 118 40 234 117 41 234 117 42 234 116 43 234 116 44 234 115 45 234 115 46 234 114 47 234 114 48 234 113 49 234 113 50 234 112 51 234 112 52 234 111 53 234 111 54 234 110 55 234 110 56 234 109 57 234 109 58 234 108 59 234 108 30 60 220 30 60 220 30 60 220 30 60 220 30 60 220 30 60 220 30 60 220 30 60 220 30 60 220 30 60 220 30 60 220 30 60 220 30 60 220 30 60 220 30 60 220 30 60 220 30 60 220 30 60 220 30 60 220 30 60 220 30 60 220 30 60 220 30 60 220 30 60 220 30 60 220 30 60 220 30 60 220 30 60 220 30 60 220 30 60 220 30 60 220 30 60 220 30 60 220 30 60 220 30 60 220 30 60 220 30 60 220 30 60 220 30 60 220 30 60 220 30 60 220 30 60 220 30 60 220 30 60 220 30 60 220 30 60 220 30 60 220 30 60 220 30 60 220 30 60 220 30 60 220 30 60 220 30 60 220 30 60 220 30 60 220 30 60 220 30 60 220 30 60 220 30 60 220 30 60 220 30 60 220 30 60 220 30 60 220 30 60 220 30 60 220 30 60 220 30 60 220 30 60 220 30 60 220 30 60 220 30 60 220 30 60 220 30 60 220 30 60 220 30 60 220 30 60 220 30 60 220 30 60 220 30 60 220 30 60 220 30 60 220 30 60 220 30 60 220 30 60 220 30 60 220 30 60 220 30 60 220 30 60 220 30 60 220 30 60 220 30 60 220 30 60 220 30 60 220 30 60 220 30 60 220 30 60 220 30 60 220 30 60 220 30 60 220 30 60 220 30 60 220 30 60 220 30 60 220 30 60 220 30 60 220 30 60 220 30 60 220 30 60 220 30 60 220 30 60 220 30 60 220 30 60 220 30 60 220 30 60 220 30 60 220 30 60 220 30 60 220 30 60 220 30 60 220 30 60 220 30 60 220 30 60 220 30 60 220 30 60 220 30 60 220 30 60 220 30 60 220 30 60 220 30 60 220 30 60 220 30 60 220 30 60 220 30 60 220 30 60 220 30 60 220 30 60 220 30 60 220 30 60 220 30 60 220 199 234 38 200 234 37 201 234 37 202 234 36 203 234 36 204 234 35 205 234 35 206 234 34 207 234 34 208 234 33 209 234 33 210 234 32 211 234 32 212 234 31 213 234 31 214 234 30 215 234 30 216 234 29 217 234 29 218 234 28 219 234 28 220 234 27 221 234 27 222 234 26 223 234 26 224 234 25 225 234 25 226 234 24 227 234 24 228 234 23 229 234 23 230 234 22 231 234 22 232 234 21 233 234 21 234 234 20 235 234 20 236 234 19 237 234 19 238 234 18 239 234 18 240 234 17 241 234 17 242 234 16 243 234 16 244 234 15 245 234 15 246 234 14 247 234 14 248 234 13 249 234 13 250 234 12 251 234 12 252 234 11 253 234 11 254 234 10 
0 235 137 0 235 136 1 235 136 2 235 135 3 235 135 4 235 134 5 235 134 6 235 133 7 235 133 8 235 132 9 235 132 10 235 131 11 235 131 12 235 130 13 235 130 14 235 129 15 235 129 16 235 128 17 235 128 18 235 127 19 235 127 20 235 127 21 235 126 22 235 126 23 235 125 24 235 125 25 235 124 26 235 124 27 235 123 28 235 123 29 235 122 30 235 122 31 235 121 32 235 121 33 235 120 34 235 120 35 235 119 36 235 119 37 235 118 38 235 118 39 235 117 40 235 117 41 235 116 42 235 116 43 235 115 44 235 115 45 235 114 46 235 114 47 235 113 48 235 113 49 235 112 50 235 112 51 235 111 52 235 111 53 235 110 54 235 110 55 235 109 56 235 109 57 235 108 58 235 108 59 235 107 30 60 220 30 60 220 30 60 220 30 60 220 30 60 220 30 60 220 30 60 220 30 60 220 30 60 220 30 60 220 30 60 220 30 60 220 30 60 220 30 60 220 30 60 220 30 60 220 30 60 220 30 60 220 30 60 220 30 60 220 30 60 220 30 60 220 30 60 220 30 60 220 30 60 220 30 60 220 30 60 220 30 60 220 30 60 220 30 60 220 30 60 220 30 60 220 30 60 220 30 60 220 30 60 220 30 60 220 30 60 220 30 60 220 30 60 220 30 60 220 30 60 220 30 60 220 30 60 220 30 60 220 30 60 220 30 60 220 30 60 220 30 60 220 30 60 220 30 60 220 30 60 220 30 60 220 30 60 220 30 60 220 30 60 220 30 60 220 30 60 220 30 60 220 30 60 220 30 60 220 30 60 220 30 60 220 30 60 220 30 60 220 30 60 220 30 60 220 30 60 220 30 60 220 30 60 220 30 60 220 30 60 220 30 60 220 30 60 220 30 60 220 30 60 220 30 60 220 30 60 220 30 60 220 30 60 220 30 60 220 30 60 220 30 60 220 30 60 220 30 60 220 30 60 220 30 60 220 30 60 220 30 60 220 30 60 220 30 60 220 30 60 220 30 60 220 30 60 220 30 60 220 30 60 220 30 60 220 30 60 220 30 60 220 30 60 220 30 60 220 30 60 220 30 60 220 30 60 220 30 60 220 30 60 220 30 60 220 30 60 220 30 60 220 30 60 220 30 60 220 30 60 220 30 60 220 30 60 220 30 60 220 30 60 220 30 60 220 30 60 220 30 60 220 30 60 220 30 60 220 30 60 220 30 60 220 30 60 220 30 60 220 30 60 220 30 60 220 30 60 220 30 60 220 30 60 220 30 60 220 30 60 220 30 60 220 30 60 220 30 60 220 30 60 220 30 60 220 30 60 220 30 60 220 30 60 220 199 235 37 200 235 37 201 235 36 202 235 36 203 235 35 204 235 35 205 235 34 206 235 34 207 235 33 208 235 33 209 235 32 210 235 32 211 235 31 212 235 31 213 235 30 214 235 30 215 235 29 216 235 29 217 235 28 218 235 28 219 235 27 220 235 27 221 235 26 222 235 26 223 235 25 224 235 25 225 235 24 226 235 24 227 235 23 228 235 23 229 235 22 230 235 22 231 235 21 232 235 21 233 235 20 234 235 20 235 235 19 236 235 19 237 235 18 238 235 18 239 235 17 240 235 17 241 235 16 242 235 16 243 235 15 244 235 15 245 235 14 246 235 14 247 235 13 248 235 13 249 235 12 250 235 12 251 235 11 252 235 11 253 235 10 254 235 10 
0 236 136 0 236 136 1 236 135 2 236 135 3 236 134 4 236 134 5 236 133 6 236 133 7 236 132 8 236 132 9 236 131 10 236 131 11 236 130 12 236 130 13 236 129 14 236 129 15 236 128 16 236 128 17 236 127 18 236 127 19 236 127 20 236 126 21 236 126 22 236 125 23 236 125 24 236 124 25 236 124 26 236 123 27 236 123 28 236 122 29 236 122 30 236 121 31 236 121 32 236 120 33 236 120 34 236 119 35 236 119 36 236 118 37 236 118 38 236 117 39 236 117 40 236 116 41 236 116 42 236 115 43 236 115 44 236 114 45 236 114 46 236 113 47 236 113 48 236 112 49 236 112 50 236 111 51 236 111 52 236 110 53 236 110 54 236 109 55 236 109 56 236 108 57 236 108 58 236 107 59 236 107 30 60 220 30 60 220 30 60 220 30 60 220 30 60 220 30 60 220 30 60 220 30 60 220 30 60 220 30 60 220 30 60 220 30 60 220 30 60 220 30 60 220 30 60 220 30 60 220 30 60 220 30 60 220 30 60 220 30 60 220 30 60 220 30 60 220 30 60 220 30 60 220 30 60 220 30 60 220 30 60 220 30 60 220 30 60 220 30 60 220 30 60 220 30 60 220 30 60 220 30 60 220 30 60 220 30 60 220 30 60 220 30 60 220 30 60 220 30 60 220 30 60 220 30 60 220 30 60 220 30 60 220 30 60 220 30 60 220 30 60 220 30 60 220 30 60 220 30 60 220 30 60 220 30 60 220 30 60 220 30 60 220 30 60 220 30 60 220 30 60 220 30 60 220 30 60 220 30 60 220 30 60 220 30 60 220 30 60 220 30 60 220 30 60 220 30 60 220 30 60 220 30 60 220 30 60 220 30 60 220 30 60 220 30 60 220 30 60 220 30 60 220 30 60 220 30 60 220 30 60 220 30 60 220 30 60 220 30 60 220 30 60 220 30 60 220 30 60 220 30 60 220 30 60 220 30 60 220 30 60 220 30 60 220 30 60 220 30 60 220 30 60 220 30 60 220 30 60 220 30 60 220 30 60 220 30 60 220 30 60 220 30 60 220 30 60 220 30 60 220 30 60 220 30 60 220 30 60 220 30 60 220 30 60 220 30 60 220 30 60 220 30 60 220 30 60 220 30 60 220 30 60 220 30 60 220 30 60 220 30 60 220 30 60 220 30 60 220 30 60 220 30 60 220 30 60 220 30 60 220 30 60 220 30 60 220 30 60 220 30 60 220 30 60 220 30 60 220 30 60 220 30 60 220 30 60 220 30 60 220 30 60 220 30 60 220 30 60 220 30 60 220 30 60 220 30 60 220 30 60 220 30 60 220 30 60 220 199 236 37 200 236 36 201 236 36 202 236 35 203 236 35 204 236 34 205 236 34 206 236 33 207 236 33 208 236 32 209 236 32 210 236 31 211 236 31 212 236 30 213 236 30 214 236 29 215 236 29 216 236 28 217 236 28 218 236 27 219 236 27 220 236 26 221 236 26 222 236 25 223 236 25 224 236 24 225 236 24 226 236 23 227 236 23 228 236 22 229 236 22 230 236 21 231 236 21 232 236 20 233 236 20 234 236 19 235 236 19 236 236 18 237 236 18 238 236 17 239 236 17 240 236 16 241 236 16 242 236 15 243 236 15 244 236 14 245 236 14 246 236 13 247 236 13 248 236 12 249 236 12 250 236 11 251 236 11 252 236 10 253 236 10 254 236 9 
0 237 136 0 237 135 1 237 135 2 237 134 3 237 134 4 237 133 5 237 133 6 237 132 7 237 132 8 237 131 9 237 131 10 237 130 11 237 130 12 237 129 13 237 129 14 237 128 15 237 128 16 237 127 17 237 127 18 237 127 19 237 126 20 237 126 21 237 125 22 237 125 23 237 124 24 237 124 25 237 123 26 237 123 27 237 122 28 237 122 29 237 121 30 237 121 31 237 120 32 237 120 33 237 119 34 237 119 35 237 118 36 237 118 37 237 117 38 237 117 39 237 116 40 237 116 41 237 115 42 237 115 43 237 114 44 237 114 45 237 113 46 237 113 47 237 112 48 237 112 49 237 111 50 237 111 51 237 110 52 237 110 53 237 109 54 237 109 55 237 108 56 237 108 57 237 107 58 237 107 59 237 106 30 60 220 30 60 220 30 60 220 30 60 220 30 60 220 30 60 220 30 60 220 30 60 220 30 60 220 30 60 220 30 60 220 30 60 220 30 60 220 30 60 220 30 60 220 30 60 220 30 60 220 30 60 220 30 60 220 30 60 220 30 60 220 30 60 220 30 60 220 30 60 220 30 60 220 30 60 220 30 60 220 30 60 220 30 60 220 30 60 220 30 60 220 30 60 220 30 60 220 30 60 220 30 60 220 30 60 220 30 60 220 30 60 220 30 60 220 30 60 220 30 60 220 30 60 220 30 60 220 30 60 220 30 60 220 30 60 220 30 60 220 30 60 220 30 60 220 30 60 220 30 60 220 30 60 220 30 60 220 30 60 220 30 60 220 30 60 220 30 60 220 30 60 220 30 60 220 30 60 220 30 60 220 30 60 220 30 60 220 30 60 220 30 60 220 30 60 220 30 60 220 30 60 220 30 60 220 30 60 220 30 60 220 30 60 220 30 60 220 30 60 220 30 60 220 30 60 220 30 60 220 30 60 220 30 60 220 30 60 220 30 60 220 30 60 220 30 60 220 30 60 220 30 60 220 30 60 220 30 60 220 30 60 220 30 60 220 30 60 220 30 60 220 30 60 220 30 60 220 30 60 220 30 60 220 30 60 220 30 60 220 30 60 220 30 60 220 30 60 220 30 60 220 30 60 220 30 60 220 30 60 220 30 60 220 30 60 220 30 60 220 30 60 220 30 60 220 30 60 220 30 60 220 30 60 220 30 60 220 30 60 220 30 60 220 30 60 220 30 60 220 30 60 220 30 60 220 30 60 220 30 60 220 30 60 220 30 60 220 30 60 220 30 60 220 30 60 220 30 60 220 30 60 220 30 60 220 30 60 220 30 60 220 30 60 220 30 60 220 30 60 220 30 60 220 30 60 220 30 60 220 30 60 220 30 60 220 199 237 36 200 237 36 201 237 35 202 237 35 203 237 34 204 237 34 205 237 33 206 237 33 207 237 32 208 237 32 209 237 31 210 237 31 211 237 30 212 237 30 213 237 29 214 237 29 215 237 28 216 237 28 217 237 27 218 237 27 219 237 26 220 237 26 221 237 25 222 237 25 223 237 24 224 237 24 225 237 23 226 237 23 227 237 22 228 237 22 229 237 21 230 237 21 231 237 20 232 237 20 233 237 19 234 237 19 235 237 18 236 237 18 237 237 17 238 237 17 239 237 16 240 237 16 241 237 15 242 237 15 243 237 14 244 237 14 245 237 13 246 237 13 247 237 12 248 237 12 249 237 11 250 237 11 251 237 10 252 237 10 253 237 9 254 237 9 
0 238 135 0 238 135 1 238 134 2 238 134 3 238 133 4 238 133 5 238 132 6 238 132 7 238 131 8 238 131 9 238 130 10 238 130 11 238 129 12 238 129 13 238 128 14 238 128 15 238 127 16 238 127 17 238 127 18 238 126 19 238 126 20 238 125 21 238 125 22 238 124 23 238 124 24 238 123 25 238 123 26 238 122 27 238 122 28 238 121 29 238 121 30 238 120 31 238 120 32 238 119 33 238 119 34 238 118 35 238 118 36 238 117 37 238 117 38 238 116 39 238 116 40 238 115 41 238 115 42 238 114 43 238 114 44 238 113 45 238 113 46 238 112 47 238 112 48 238 111 49 238 111 50 238 110 51 238 110 52 238 109 53 238 109 54 238 108 55 238 108 56 238 107 57 238 107 58 238 106 59 238 106 30 60 220 30 60 220 30 60 220 30 60 220 30 60 220 30 60 220 30 60 220 30 60 220 30 60 220 30 60 220 30 60 220 30 60 220 30 60 220 30 60 220 30 60 220 30 60 220 30 60 220 30 60 220 30 60 220 30 60 220 30 60 220 30 60 220 30 60 220 30 60 220 30 60 220 30 60 220 30 60 220 30 60 220 30 60 220 30 60 220 30 60 220 30 60 220 30 60 220 30 60 220 30 60 220 30 60 220 30 60 220 30 60 220 30 60 220 30 60 220 30 60 220 30 60 220 30 60 220 30 60 220 30 60 220 30 60 220 30 60 220 30 60 220 30 60 220 30 60 220 30 60 220 30 60 220 30 60 220 30 60 220 30 60 220 30 60 220 30 60 220 30 60 220 30 60 220 30 60 220 30 60 220 30 60 220 30 60 220 30 60 220 30 60 220 30 60 220 30 60 220 30 60 220 30 60 220 30 60 220 30 60 220 30 60 220 30 60 220 30 60 220 30 60 220 30 60 220 30 60 220 30 60 220 30 60 220 30 60 220 30 60 220 30 60 220 30 60 220 30 60 220 30 60 220 30 60 220 30 60 220 30 60 220 30 60 220 30 60 220 30 60 220 30 60 220 30 60 220 30 60 220 30 60 220 30 60 220 30 60 220 30 60 220 30 60 220 30 60 220 30 60 220 30 60 220 30 60 220 30 60 220 30 60 220 30 60 220 30 60 220 30 60 220 30 60 220 30 60 220 30 60 220 30 60 220 30 60 220 30 60 220 30 60 220 30 60 220 30 60 220 30 60 220 30 60 220 30 60 220 30 60 220 30 60 220 30 60 220 30 60 220 30 60 220 30 60 220 30 60 220 30 60 220 30 60 220 30 60 220 30 60 220 30 60 220 30 60 220 30 60 220 30 60 220 30 60 220 30 60 220 30 60 220 30 60 220 199 238 36 200 238 35 201 238 35 202 238 34 203 238 34 204 238 33 205 238 33 206 238 32 207 238 32 208 238 31 209 238 31 210 238 30 211 238 30 212 238 29 213 238 29 214 238 28 215 238 28 216 238 27 217 238 27 218 238 26 219 238 26 220 238 25 221 238 25 222 238 24 223 238 24 224 238 23 225 238 23 226 238 22 227 238 22 228 238 21 229 238 21 230 238 20 231 238 20 232 238 19 233 238 19 234 238 18 235 238 18 236 238 17 237 238 17 238 238 16 239 238 16 240 238 15 241 238 15 242 238 14 243 238 14 244 238 13 245 238 13 246 238 12 247 238 12 248 238 11 249 238 11 250 238 10 251 238 10 252 238 9 253 238 9 254 238 8 
0 239 135 0 239 134 1 239 134 2 239 133 3 239 133 4 239 132 5 239 132 6 239 131 7 239 131 8 239 130 9 239 130 10 239 129 11 239 129 12 239 128 13 239 128 14 239 127 15 239 127 16 239 127 17 239 126 18 239 126 19 239 125 20 239 125 21 239 124 22 239 124 23 239 123 24 239 123 25 239 122 26 239 122 27 239 121 28 239 121 29 239 120 30 239 120 31 239 119 32 239 119 33 239 118 34 239 118 35 239 117 36 239 117 37 239 116 38 239 116 39 239 115 40 239 115 41 239 114 42 239 114 43 239 113 44 239 113 45 239 112 46 239 112 47 239 111 48 239 111 49 239 110 50 239 110 51 239 109 52 239 109 53 239 108 54 239 108 55 239 107 56 239 107 57 239 106 58 239 106 59 239 105 30 60 220 30 60 220 30 60 220 30 60 220 30 60 220 30 60 220 30 60 220 30 60 220 30 60 220 30 60 220 30 60 220 30 60 220 30 60 220 30 60 220 30 60 220 30 60 220 30 60 220 30 60 220 30 60 220 30 60 220 30 60 220 30 60 220 30 60 220 30 60 220 30 60 220 30 60 220 30 60 220 30 60 220 30 60 220 30 60 220 30 60 220 30 60 220 30 60 220 30 60 220 30 60 220 30 60 220 30 60 220 30 60 220 30 60 220 30 60 220 30 60 220 30 60 220 30 60 220 30 60 220 30 60 220 30 60 220 30 60 220 30 60 220 30 60 220 30 60 220 30 60 220 30 60 220 30 60 220 30 60 220 30 60 220 30 60 220 30 60 220 30 60 220 30 60 220 30 60 220 30 60 220 30 60 220 30 60 220 30 60 220 30 60 220 30 60 220 30 60 220 30 60 220 30 60 220 30 60 220 30 60 220 30 60 220 30 60 220 30 60 220 30 60 220 30 60 220 30 60 220 30 60 220 30 60 220 30 60 220 30 60 220 30 60 220 30 60 220 30 60 220 30 60 220 30 60 220 30 60 220 30 60 220 30 60 220 30 60 220 30 60 220 30 60 220 30 60 220 30 60 220 30 60 220 30 60 220 30 60 220 30 60 220 30 60 220 30 60 220 30 60 220 30 60 220 30 60 220 30 60 220 30 60 220 30 60 220 30 60 220 30 60 220 30 60 220 30 60 220 30 60 220 30 60 220 30 60 220 30 60 220 30 60 220 30 60 220 30 60 220 30 60 220 30 60 220 30 60 220 30 60 220 30 60 220 30 60 220 30 60 220 30 60 220 30 60 220 30 60 220 30 60 220 30 60 220 30 60 220 30 60 220 30 60 220 30 60 220 30 60 220 30 60 220 30 60 220 30 60 220 30 60 220 30 60 220 199 239 35 200 239 35 201 239 34 202 239 34 203 239 33 204 239 33 205 239 32 206 239 32 207 239 31 208 239 31 209 239 30 210 239 30 211 239 29 212 239 29 213 239 28 214 239 28 215 239 27 216 239 27 217 239 26 218 239 26 219 239 25 220 239 25 221 239 24 222 239 24 223 239 23 224 239 23 225 239 22 226 239 22 227 239 21 228 239 21 229 239 20 230 239 20 231 239 19 232 239 19 233 239 18 234 239 18 235 239 17 236 239 17 237 239 16 238 239 16 239 239 15 240 239 15 241 239 14 242 239 14 243 239 13 244 239 13 245 239 12 246 239 12 247 239 11 248 239 11 249 239 10 250 239 10 251 239 9 252 239 9 253 239 8 254 239 8 
0 240 134 0 240 134 1 240 133 2 240 133 3 240 132 4 240 132 5 240 131 6 240 131 7 240 130 8 240 130 9 240 129 10 240 129 11 240 128 12 240 128 13 240 127 14 240 127 15 240 127 16 240 126 17 240 126 18 240 125 19 240 125 20 240 124 21 240 124 22 240 123 23 240 123 24 240 122 25 240 122 26 240 121 27 240 121 28 240 120 29 240 120 30 240 119 31 240 119 32 240 118 33 240 118 34 240 117 35 240 117 36 240 116 37 240 116 38 240 115 39 240 115 40 240 114 41 240 114 42 240 113 43 240 113 44 240 112 45 240 112 46 240 111 47 240 111 48 240 110 49 240 110 50 240 109 51 240 109 52 240 108 53 240 108 54 240 107 55 240 107 56 240 106 57 240 106 58 240 105 59 240 105 30 60 220 30 60 220 30 60 220 30 60 220 30 60 220 30 60 220 30 60 220 30 60 220 30 60 220 30 60 220 30 60 220 30 60 220 30 60 220 30 60 220 30 60 220 30 60 220 30 60 220 30 60 220 30 60 220 30 60 220 30 60 220 30 60 220 30 60 220 30 60 220 30 60 220 30 60 220 30 60 220 30 60 220 30 60 220 30 60 220 30 60 220 30 60 220 30 60 220 30 60 220 30 60 220 30 60 220 30 60 220 30 60 220 30 60 220 30 60 220 30 60 220 30 60 220 30 60 220 30 60 220 30 60 220 30 60 220 30 60 220 30 60 220 30 60 220 30 60 220 30 60 220 30 60 220 30 60 220 30 60 220 30 60 220 30 60 220 30 60 220 30 60 220 30 60 220 30 60 220 30 60 220 30 60 220 30 60 220 30 60 220 30 60 220 30 60 220 30 60 220 30 60 220 30 60 220 30 60 220 30 60 220 30 60 220 30 60 220 30 60 220 30 60 220 30 60 220 30 60 220 30 60 220 30 60 220 30 60 220 30 60 220 30 60 220 30 60 220 30 60 220 30 60 220 30 60 220 30 60 220 30 60 220 30 60 220 30 60 220 30 60 220 30 60 220 30 60 220 30 60 220 30 60 220 30 60 220 30 60 220 30 60 220 30 60 220 30 60 220 30 60 220 30 60 220 30 60 220 30 60 220 30 60 220 30 60 220 30 60 220 30 60 220 30 60 220 30 60 220 30 60 220 30 60 220 30 60 220 30 60 220 30 60 220 30 60 220 30 60 220 30 60 220 30 60 220 30 60 220 30 60 220 30 60 220 30 60 220 30 60 220 30 60 220 30 60 220 30 60 220 30 60 220 30 60 220 30 60 220 30 60 220 30 60 220 30 60 220 30 60 220 30 60 220 30 60 220 30 60 220 30 60 220 30 60 220 199 240 35 200 240 34 201 240 34 202 240 33 203 240 33 204 240 32 205 240 32 206 240 31 207 240 31 208 240 30 209 240 30 210 240 29 211 240 29 212 240 28 213 240 28 214 240 27 215 240 27 216 240 26 217 240 26 218 240 25 219 240 25 220 240 24 221 240 24 222 240 23 223 240 23 224 240 22 225 240 22 226 240 21 227 240 21 228 240 20 229 240 20 230 240 19 231 240 19 232 240 18 233 240 18 234 240 17 235 240 17 236 240 16 237 240 16 238 240 15 239 240 15 240 240 14 241 240 14 242 240 13 243 240 13 244 240 12 245 240 12 246 240 11 247 240 11 248 240 10 249 240 10 250 240 9 251 240 9 252 240 8 253 240 8 254 240 7 
0 241 134 0 241 133 1 241 133 2 241 132 3 241 132 4 241 131 5 241 131 6 241 130 7 241 130 8 241 129 9 241 129 10 241 128 11 241 128 12 241 127 13 241 127 14 241 127 15 241 126 16 241 126 17 241 125 18 241 125 19 241 124 20 241 124 21 241 123 22 241 123 23 241 122 24 241 122 25 241 121 26 241 121 27 241 120 28 241 120 29 241 119 30 241 119 31 241 118 32 241 118 33 241 117 34 241 117 35 241 116 36 241 116 37 241 115 38 241 115 39 241 114 40 241 114 41 241 113 42 241 113 43 241 112 44 241 112 45 241 111 46 241 111 47 241 110 48 241 110 49 241 109 50 241 109 51 241 108 52 241 108 53 241 107 54 241 107 55 241 106 56 241 106 57 241 105 58 241 105 59 241 104 30 60 220 30 60 220 30 60 220 30 60 220 30 60 220 30 60 220 30 60 220 30 60 220 30 60 220 30 60 220 30 60 220 30 60 220 30 60 220 30 60 220 30 60 220 30 60 220 30 60 220 30 60 220 30 60 220 30 60 220 30 60 220 30 60 220 30 60 220 30 60 220 30 60 220 30 60 220 30 60 220 30 60 220 30 60 220 30 60 220 30 60 220 30 60 220 30 60 220 30 60 220 30 60 220 30 60 220 30 60 220 30 60 220 30 60 220 30 60 220 30 60 220 30 60 220 30 60 220 30 60 220 30 60 220 30 60 220 30 60 220 30 60 220 30 60 220 30 60 220 30 60 220 30 60 220 30 60 220 30 60 220 30 60 220 30 60 220 30 60 220 30 60 220 30 60 220 30 60 220 30 60 220 30 60 220 30 60 220 30 60 220 30 60 220 30 60 220 30 60 220 30 60 220 30 60 220 30 60 220 30 60 220 30 60 220 30 60 220 30 60 220 30 60 220 30 60 220 30 60 220 30 60 220 30 60 220 30 60 220 30 60 220 30 60 220 30 60 220 30 60 220 30 60 220 30 60 220 30 60 220 30 60 220 30 60 220 30 60 220 30 60 220 30 60 220 30 60 220 30 60 220 30 60 220 30 60 220 30 60 220 30 60 220 30 60 220 30 60 220 30 60 220 30 60 220 30 60 220 30 60 220 30 60 220 30 60 220 30 60 220 30 60 220 30 60 220 30 60 220 30 60 220 30 60 220 30 60 220 30 60 220 30 60 220 30 60 220 30 60 220 30 60 220 30 60 220 30 60 220 30 60 220 30 60 220 30 60 220 30 60 220 30 60 220 30 60 220 30 60 220 30 60 220 30 60 220 30 60 220 30 60 220 30 60 220 30 60 220 30 60 220 30 60 220 30 60 220 30 60 220 30 60 220 30 60 220 199 241 34 200 241 34 201 241 33 202 241 33 203 241 32 204 241 32 205 241 31 206 241 31 207 241 30 208 241 30 209 241 29 210 241 29 211 241 28 212 241 28 213 241 27 214 241 27 215 241 26 216 241 26 217 241 25 218 241 25 219 241 24 220 241 24 221 241 23 222 241 23 223 241 22 224 241 22 225 241 21 226 241 21 227 241 20 228 241 20 229 241 19 230 241 19 231 241 18 232 241 18 233 241 17 234 241 17 235 241 16 236 241 16 237 241 15 238 241 15 239 241 14 240 241 14 241 241 13 242 241 13 243 241 12 244 241 12 245 241 11 246 241 11 247 241 10 248 241 10 249 241 9 250 241 9 251 241 8 252 241 8 253 241 7 254 241 7 
0 242 133 0 242 133 1 242 132 2 242 132 3 242 131 4 242 131 5 242 130 6 242 130 7 242 129 8 242 129 9 242 128 10 242 128 11 242 127 12 242 127 13 242 127 14 242 126 15 242 126 16 242 125 17 242 125 18 242 124 19 242 124 20 242 123 21 242 123 22 242 122 23 242 122 24 242 121 25 242 121 26 242 120 27 242 120 28 242 119 29 242 119 30 242 118 31 242 118 32 242 117 33 242 117 34 242 116 35 242 116 36 242 115 37 242 115 38 242 114 39 242 114 40 242 113 41 242 113 42 242 112 43 242 112 44 242 111 45 242 111 46 242 110 47 242 110 48 242 109 49 242 109 50 242 108 51 242 108 52 242 107 53 242 107 54 242 106 55 242 106 56 242 105 57 242 105 58 242 104 59 242 104 30 60 220 30 60 220 30 60 220 30 60 220 30 60 220 30 60 220 30 60 220 30 60 220 30 60 220 30 60 220 30 60 220 30 60 220 30 60 220 30 60 220 30 60 220 30 60 220 30 60 220 30 60 220 30 60 220 30 60 220 30 60 220 30 60 220 30 60 220 30 60 220 30 60 220 30 60 220 30 60 220 30 60 220 30 60 220 30 60 220 30 60 220 30 60 220 30 60 220 30 60 220 30 60 220 30 60 220 30 60 220 30 60 220 30 60 220 30 60 220 30 60 220 30 60 220 30 60 220 30 60 220 30 60 220 30 60 220 30 60 220 30 60 220 30 60 220 30 60 220 30 60 220 30 60 220 30 60 220 30 60 220 30 60 220 30 60 220 30 60 220 30 60 220 30 60 220 30 60 220 30 60 220 30 60 220 30 60 220 30 60 220 30 60 220 30 60 220 30 60 220 30 60 220 30 60 220 30 60 220 30 60 220 30 60 220 30 60 220 30 60 220 30 60 220 30 60 220 30 60 220 30 60 220 30 60 220 30 60 220 30 60 220 30 60 220 30 60 220 30 60 220 30 60 220 30 60 220 30 60 220 30 60 220 30 60 220 30 60 220 30 60 220 30 60 220 30 60 220 30 60 220 30 60 220 30 60 220 30 60 220 30 60 220 30 60 220 30 60 220 30 60 220 30 60 220 30 60 220 30 60 220 30 60 220 30 60 220 30 60 220 30 60 220 30 60 220 30 60 220 30 60 220 30 60 220 30 60 220 30 60 220 30 60 220 30 60 220 30 60 220 30 60 220 30 60 220 30 60 220 30 60 220 30 60 220 30 60 220 30 60 220 30 60 220 30 60 220 30 60 220 30 60 220 30 60 220 30 60 220 30 60 220 30 60 220 30 60 220 30 60 220 30 60 220 30 60 220 30 60 220 30 60 220 30 60 220 199 242 34 200 242 33 201 242 33 202 242 32 203 242 32 204 242 31 205 242 31 206 242 30 207 242 30 208 242 29 209 242 29 210 242 28 211 242 28 212 242 27 213 242 27 214 242 26 215 242 26 216 242 25 217 242 25 218 242 24 219 242 24 220 242 23 221 242 23 222 242 22 223 242 22 224 242 21 225 242 21 226 242 20 227 242 20 228 242 19 229 242 19 230 242 18 231 242 18 232 242 17 233 242 17 234 242 16 235 242 16 236 242 15 237 242 15 238 242 14 239 242 14 240 242 13 241 242 13 242 242 12 243 242 12 244 242 11 245 242 11 246 242 10 247 242 10 248 242 9 249 242 9 250 242 8 251 242 8 252 242 7 253 242 7 254 242 6 
0 243 133 0 243 132 1 243 132 2 243 131 3 243 131 4 243 130 5 243 130 6 243 129 7 243 129 8 243 128 9 243 128 10 243 127 11 243 127 12 243 127 13 243 126 14 243 126 15 243 125 16 243 125 17 243 124 18 243 124 19 243 123 20 243 123 21 243 122 22 243 122 23 243 121 24 243 121 25 243 120 26 243 120 27 243 119 28 243 119 29 243 118 30 243 118 31 243 117 32 243 117 33 243 116 34 243 116 35 243 115 36 243 115 37 243 114 38 243 114 39 243 113 40 243 113 41 243 112 42 243 112 43 243 111 44 243 111 45 243 110 46 243 110 47 243 109 48 243 109 49 243 108 50 243 108 51 243 107 52 243 107 53 243 106 54 243 106 55 243 105 56 243 105 57 243 104 58 243 104 59 243 103 30 60 220 30 60 220 30 60 220 30 60 220 30 60 220 30 60 220 30 60 220 30 60 220 30 60 220 30 60 220 30 60 220 30 60 220 30 60 220 30 60 220 30 60 220 30 60 220 30 60 220 30 60 220 30 60 220 30 60 220 30 60 220 30 60 220 30 60 220 30 60 220 30 60 220 30 60 220 30 60 220 30 60 220 30 60 220 30 60 220 30 60 220 30 60 220 30 60 220 30 60 220 30 60 220 30 60 220 30 60 220 30 60 220 30 60 220 30 60 220 30 60 220 30 60 220 30 60 220 30 60 220 30 60 220 30 60 220 30 60 220 30 60 220 30 60 220 30 60 220 30 60 220 30 60 220 30 60 220 30 60 220 30 60 220 30 60 220 30 60 220 30 60 220 30 60 220 30 60 220 30 60 220 30 60 220 30 60 220 30 60 220 30 60 220 30 60 220 30 60 220 30 60 220 30 60 220 30 60 220 30 60 220 30 60 220 30 60 220 30 60 220 30 60 220 30 60 220 30 60 220 30 60 220 30 60 220 30 60 220 30 60 220 30 60 220 30 60 220 30 60 220 30 60 220 30 60 220 30 60 220 30 60 220 30 60 220 30 60 220 30 60 220 30 60 220 30 60 220 30 60 220 30 60 220 30 60 220 30 60 220 30 60 220 30 60 220 30 60 220 30 60 220 30 60 220 30 60 220 30 60 220 30 60 220 30 60 220 30 60 220 30 60 220 30 60 220 30 60 220 30 60 220 30 60 220 30 60 220 30 60 220 30 60 220 30 60 220 30 60 220 30 60 220 30 60 220 30 60 220 30 60 220 30 60 220 30 60 220 30 60 220 30 60 220 30 60 220 30 60 220 30 60 220 30 60 220 30 60 220 30 60 220 30 60 220 30 60 220 30 60 220 30 60 220 30 60 220 30 60 220 30 60 220 30 60 220 199 243 33 200 243 33 201 243 32 202 243 32 203 243 31 204 243 31 205 243 30 206 243 30 207 243 29 208 243 29 209 243 28 210 243 28 211 243 27 212 243 27 213 243 26 214 243 26 215 243 25 216 243 25 217 243 24 218 243 24 219 243 23 220 243 23 221 243 22 222 243 22 223 243 21 224 243 21 225 243 20 226 243 20 227 243 19 228 243 19 229 243 18 230 243 18 231 243 17 232 243 17 233 243 16 234 243 16 235 243 15 236 243 15 237 243 14 238 243 14 239 243 13 240 243 13 241 243 12 242 243 12 243 243 11 244 243 11 245 243 10 246 243 10 247 243 9 248 243 9 249 243 8 250 243 8 251 243 7 252 243 7 253 243 6 254 243 6 
0 244 132 0 244 132 1 244 131 2 244 131 3 244 130 4 244 130 5 244 129 6 244 129 7 244 128 8 244 128 9 244 127 10 244 127 11 244 127 12 244 126 13 244 126 14 244 125 15 244 125 16 244 124 17 244 124 18 244 123 19 244 123 20 244 122 21 244 122 22 244 121 23 244 121 24 244 120 25 244 120 26 244 119 27 244 119 28 244 118 29 244 118 30 244 117 31 244 117 32 244 116 33 244 116 34 244 115 35 244 115 36 244 114 37 244 114 38 244 113 39 244 113 40 244 112 41 244 112 42 244 111 43 244 111 44 244 110 45 244 110 46 244 109 47 244 109 48 244 108 49 244 108 50 244 107 51 244 107 52 244 106 53 244 106 54 244 105 55 244 105 56 244 104 57 244 104 58 244 103 59 244 103 30 60 220 30 60 220 30 60 220 30 60 220 30 60 220 30 60 220 30 60 220 30 60 220 30 60 220 30 60 220 30 60 220 30 60 220 30 60 220 30 60 220 30 60 220 30 60 220 30 60 220 30 60 220 30 60 220 30 60 220 30 60 220 30 60 220 30 60 220 30 60 220 30 60 220 30 60 220 30 60 220 30 60 220 30 60 220 30 60 220 30 60 220 30 60 220 30 60 220 30 60 220 30 60 220 30 60 220 30 60 220 30 60 220 30 60 220 30 60 220 30 60 220 30 60 220 30 60 220 30 60 220 30 60 220 30 60 220 30 60 220 30 60 220 30 60 220 30 60 220 30 60 220 30 60 220 30 60 220 30 60 220 30 60 220 30 60 220 30 60 220 30 60 220 30 60 220 30 60 220 30 60 220 30 60 220 30 60 220 30 60 220 30 60 220 30 60 220 30 60 220 30 60 220 30 60 220 30 60 220 30 60 220 30 60 220 30 60 220 30 60 220 30 60 220 30 60 220 30 60 220 30 60 220 30 60 220 30 60 220 30 60 220 30 60 220 30 60 220 30 60 220 30 60 220 30 60 220 30 60 220 30 60 220 30 60 220 30 60 220 30 60 220 30 60 220 30 60 220 30 60 220 30 60 220 30 60 220 30 60 220 30 60 220 30 60 220 30 60 220 30 60 220 30 60 220 30 60 220 30 60 220 30 60 220 30 60 220 30 60 220 30 60 220 30 60 220 30 60 220 30 60 220 30 60 220 30 60 220 30 60 220 30 60 220 30 60 220 30 60 220 30 60 220 30 60 220 30 60 220 30 60 220 30 60 220 30 60 220 30 60 220 30 60 220 30 60 220 30 60 220 30 60 220 30 60 220 30 60 220 30 60 220 30 60 220 30 60 220 30 60 220 30 60 220 30 60 220 30 60 220 30 60 220 30 60 220 199 244 33 200 244 32 201 244 32 202 244 31 203 244 31 204 244 30 205 244 30 206 244 29 207 244 29 208 244 28 209 244 28 210 244 27 211 244 27 212 244 26 213 244 26 214 244 25 215 244 25 216 244 24 217 244 24 218 244 23 219 244 23 220 244 22 221 244 22 222 244 21 223 244 21 224 244 20 225 244 20 226 244 19 227 244 19 228 244 18 229 244 18 230 244 17 231 244 17 232 244 16 233 244 16 234 244 15 235 244 15 236 244 14 237 244 14 238 244 13 239 244 13 240 244 12 241 244 12 242 244 11 243 244 11 244 244 10 245 244 10 246 244 9 247 244 9 248 244 8 249 244 8 250 244 7 251 244 7 252 244 6 253 244 6 254 244 5 
0 245 132 0 245 131 1 245 131 2 245 130 3 245 130 4 245 129 5 245 129 6 245 128 7 245 128 8 245 127 9 245 127 10 245 127 11 245 126 12 245 126 13 245 125 14 245 125 15 245 124 16 245 124 17 245 123 18 245 123 19 245 122 20 245 122 21 245 121 22 245 121 23 245 120 24 245 120 25 245 119 26 245 119 27 245 118 28 245 118 29 245 117 30 245 117 31 245 116 32 245 116 33 245 115 34 245 115 35 245 114 36 245 114 37 245 113 38 245 113 39 245 112 40 245 112 41 245 111 42 245 111 43 245 110 44 245 110 45 245 109 46 245 109 47 245 108 48 245 108 49 245 107 50 245 107 51 245 106 52 245 106 53 245 105 54 245 105 55 245 104 56 245 104 57 245 103 58 245 103 59 245 102 30 60 220 30 60 220 30 60 220 30 60 220 30 60 220 30 60 220 30 60 220 30 60 220 30 60 220 30 60 220 30 60 220 30 60 220 30 60 220 30 60 220 30 60 220 30 60 220 30 60 220 30 60 220 30 60 220 30 60 220 30 60 220 30 60 220 30 60 220 30 60 220 30 60 220 30 60 220 30 60 220 30 60 220 30 60 220 30 60 220 30 60 220 30 60 220 30 60 220 30 60 220 30 60 220 30 60 220 30 60 220 30 60 220 30 60 220 30 60 220 30 60 220 30 60 220 30 60 220 30 60 220 30 60 220 30 60 220 30 60 220 30 60 220 30 60 220 30 60 220 30 60 220 30 60 220 30 60 220 30 60 220 30 60 220 30 60 220 30 60 220 30 60 220 30 60 220 30 60 220 30 60 220 30 60 220 30 60 220 30 60 220 30 60 220 30 60 220 30 60 220 30 60 220 30 60 220 30 60 220 30 60 220 30 60 220 30 60 220 30 60 220 30 60 220 30 60 220 30 60 220 30 60 220 30 60 220 30 60 220 30 60 220 30 60 220 30 60 220 30 60 220 30 60 220 30 60 220 30 60 220 30 60 220 30 60 220 30 60 220 30 60 220 30 60 220 30 60 220 30 60 220 30 60 220 30 60 220 30 60 220 30 60 220 30 60 220 30 60 220 30 60 220 30 60 220 30 60 220 30 60 220 30 60 220 30 60 220 30 60 220 30 60 220 30 60 220 30 60 220 30 60 220 30 60 220 30 60 220 30 60 220 30 60 220 30 60 220 30 60 220 30 60 220 30 60 220 30 60 220 30 60 220 30 60 220 30 60 220 30 60 220 30 60 220 30 60 220 30 60 220 30 60 220 30 60 220 30 60 220 30 60 220 30 60 220 30 60 220 30 60 220 30 60 220 30 60 220 30 60 220 30 60 220 30 60 220 199 245 32 200 245 32 201 245 31 202 245 31 203 245 30 204 245 30 205 245 29 206 245 29 207 245 28 208 245 28 209 245 27 210 245 27 211 245 26 212 245 26 213 245 25 214 245 25 215 245 24 216 245 24 217 245 23 218 245 23 219 245 22 220 245 22 221 245 21 222 245 21 223 245 20 224 245 20 225 245 19 226 245 19 227 245 18 228 245 18 229 245 17 230 245 17 231 245 16 232 245 16 233 245 15 234 245 15 235 245 14 236 245 14 237 245 13 238 245 13 239 245 12 240 245 12 241 245 11 242 245 11 243 245 10 244 245 10 245 245 9 246 245 9 247 245 8 248 245 8 249 245 7 250 245 7 251 245 6 252 245 6 253 245 5 254 245 5 
0 246 131 0 246 131 1 246 130 2 246 130 3 246 129 4 246 129 5 246 128 6 246 128 7 246 127 8 246 127 9 246 127 10 246 126 11 246 126 12 246 125 13 246 125 14 246 124 15 246 124 16 246 123 17 246 123 18 246 122 19 246 122 20 246 121 21 246 121 22 246 120 23 246 120 24 246 119 25 246 119 26 246 118 27 246 118 28 246 117 29 246 117 30 246 116 31 246 116 32 246 115 33 246 115 34 246 114 35 246 114 36 246 113 37 246 113 38 246 112 39 246 112 40 246 111 41 246 111 42 246 110 43 246 110 44 246 109 45 246 109 46 246 108 47 246 108 48 246 107 49 246 107 50 246 106 51 246 106 52 246 105 53 246 105 54 246 104 55 246 104 56 246 103 57 246 103 58 246 102 59 246 102 30 60 220 30 60 220 30 60 220 30 60 220 30 60 220 30 60 220 30 60 220 30 60 220 30 60 220 30 60 220 30 60 220 30 60 220 30 60 220 30 60 220 30 60 220 30 60 220 30 60 220 30 60 220 30 60 220 30 60 220 30 60 220 30 60 220 30 60 220 30 60 220 30 60 220 30 60 220 30 60 220 30 60 220 30 60 220 30 60 220 30 60 220 30 60 220 30 60 220 30 60 220 30 60 220 30 60 220 30 60 220 30 60 220 30 60 220 30 60 220 30 60 220 30 60 220 30 60 220 30 60 220 30 60 220 30 60 220 30 60 220 30 60 220 30 60 220 30 60 220 30 60 220 30 60 220 30 60 220 30 60 220 30 60 220 30 60 220 30 60 220 30 60 220 30 60 220 30 60 220 30 60 220 30 60 220 30 60 220 30 60 220 30 60 220 30 60 220 30 60 220 30 60 220 30 60 220 30 60 220 30 60 220 30 60 220 30 60 220 30 60 220 30 60 220 30 60 220 30 60 220 30 60 220 30 60 220 30 60 220 30 60 220 30 60 220 30 60 220 30 60 220 30 60 220 30 60 220 30 60 220 30 60 220 30 60 220 30 60 220 30 60 220 30 60 220 30 60 220 30 60 220 30 60 220 30 60 220 30 60 220 30 60 220 30 60 220 30 60 220 30 60 220 30 60 220 30 60 220 30 60 220 30 60 220 30 60 220 30 60 220 30 60 220 30 60 220 30 60 220 30 60 220 30 60 220 30 60 220 30 60 220 30 60 220 30 60 220 30 60 220 30 60 220 30 60 220 30 60 220 30 60 220 30 60 220 30 60 220 30 60 220 30 60 220 30 60 220 30 60 220 30 60 220 30 60 220 30 60 220 30 60 220 30 60 220 30 60 220 30 60 220 30 60 220 30 60 220 30 60 220 30 60 220 30 60 220 199 246 32 200 246 31 201 246 31 202 246 30 203 246 30 204 246 29 205 246 29 206 246 28 207 246 28 208 246 27 209 246 27 210 246 26 211 246 26 212 246 25 213 246 25 214 246 24 215 246 24 216 246 23 217 246 23 218 246 22 219 246 22 220 246 21 221 246 21 222 246 20 223 246 20 224 246 19 225 246 19 226 246 18 227 246 18 228 246 17 229 246 17 230 246 16 231 246 16 232 246 15 233 246 15 234 246 14 235 246 14 236 246 13 237 246 13 238 246 12 239 246 12 240 246 11 241 246 11 242 246 10 243 246 10 244 246 9 245 246 9 246 246 8 247 246 8 248 246 7 249 246 7 250 246 6 251 246 6 252 246 5 253 246 5 254 246 4 
0 247 131 0 247 130 1 247 130 2 247 129 3 247 129 4 247 128 5 247 128 6 247 127 7 247 127 8 247 127 9 247 126 10 247 126 11 247 125 12 247 125 13 247 124 14 247 124 15 247 123 16 247 123 17 247 122 18 247 122 19 247 121 20 247 121 21 247 120 22 247 120 23 247 119 24 247 119 25 247 118 26 247 118 27 247 117 28 247 117 29 247 116 30 247 116 31 247 115 32 247 115 33 247 114 34 247 114 35 247 113 36 247 113 37 247 112 38 247 112 39 247 111 40 247 111 41 247 110 42 247 110 43 247 109 44 247 109 45 247 108 46 247 108 47 247 107 48 247 107 49 247 106 50 247 106 51 247 105 52 247 105 53 247 104 54 247 104 55 247 103 56 247 103 57 247 102 58 247 102 59 247 101 30 60 220 30 60 220 30 60 220 30 60 220 30 60 220 30 60 220 30 60 220 30 60 220 30 60 220 30 60 220 30 60 220 30 60 220 30 60 220 30 60 220 30 60 220 30 60 220 30 60 220 30 60 220 30 60 220 30 60 220 30 60 220 30 60 220 30 60 220 30 60 220 30 60 220 30 60 220 30 60 220 30 60 220 30 60 220 30 60 220 30 60 220 30 60 220 30 60 220 30 60 220 30 60 220 30 60 220 30 60 220 30 60 220 30 60 220 30 60 220 30 60 220 30 60 220 30 60 220 30 60 220 30 60 220 30 60 220 30 60 220 30 60 220 30 60 220 30 60 220 30 60 220 30 60 220 30 60 220 30 60 220 30 60 220 30 60 220 30 60 220 30 60 220 30 60 220 30 60 220 30 60 220 30 60 220 30 60 220 30 60 220 30 60 220 30 60 220 30 60 220 30 60 220 30 60 220 30 60 220 30 60 220 30 60 220 30 60 220 30 60 220 30 60 220 30 60 220 30 60 220 30 60 220 30 60 220 30 60 220 30 60 220 30 60 220 30 60 220 30 60 220 30 60 220 30 60 220 30 60 220 30 60 220 30 60 220 30 60 220 30 60 220 30 60 220 30 60 220 30 60 220 30 60 220 30 60 220 30 60 220 30 60 220 30 60 220 30 60 220 30 60 220 30 60 220 30 60 220 30 60 220 30 60 220 30 60 220 30 60 220 30 60 220 30 60 220 30 60 220 30 60 220 30 60 220 30 60 220 30 60 220 30 60 220 30 60 220 30 60 220 30 60 220 30 60 220 30 60 220 30 60 220 30 60 220 30 60 220 30 60 220 30 60 220 30 60 220 30 60 220 30 60 220 30 60 220 30 60 220 30 60 220 30 60 220 30 60 220 30 60 220 30 60 220 30 60 220 30 60 220 30 60 220 30 60 220 199 247 31 200 247 31 201 247 30 202 247 30 203 247 29 204 247 29 205 247 28 206 247 28 207 247 27 208 247 27 209 247 26 210 247 26 211 247 25 212 247 25 213 247 24 214 247 24 215 247 23 216 247 23 217 247 22 218 247 22 219 247 21 220 247 21 221 247 20 222 247 20 223 247 19 224 247 19 225 247 18 226 247 18 227 247 17 228 247 17 229 247 16 230 247 16 231 247 15 232 247 15 233 247 14 234 247 14 235 247 13 236 247 13 237 247 12 238 247 12 239 247 11 240 247 11 241 247 10 242 247 10 243 247 9 244 247 9 245 247 8 246 247 8 247 247 7 248 247 7 249 247 6 250 247 6 251 247 5 252 247 5 253 247 4 254 247 4 
0 248 130 0 248 130 1 248 129 2 248 129 3 248 128 4 248 128 5 248 127 6 248 127 7 248 127 8 248 126 9 248 126 10 248 125 11 248 125 12 248 124 13 248 124 14 248 123 15 248 123 16 248 122 17 248 122 18 248 121 19 248 121 20 248 120 21 248 120 22 248 119 23 248 119 24 248 118 25 248 118 26 248 117 27 248 117 28 248 116 29 248 116 30 248 115 31 248 115 32 248 114 33 248 114 34 248 113 35 248 113 36 248 112 37 248 112 38 248 111 39 248 111 40 248 110 41 248 110 42 248 109 43 248 109 44 248 108 45 248 108 46 248 107 47 248 107 48 248 106 49 248 106 50 248 105 51 248 105 52 248 104 53 248 104 54 248 103 55 248 103 56 248 102 57 248 102 58 248 101 59 248 101 30 60 220 30 60 220 30 60 220 30 60 220 30 60 220 30 60 220 30 60 220 30 60 220 30 60 220 30 60 220 30 60 220 30 60 220 30 60 220 30 60 220 30 60 220 30 60 220 30 60 220 30 60 220 30 60 220 30 60 220 30 60 220 30 60 220 30 60 220 30 60 220 30 60 220 30 60 220 30 60 220 30 60 220 30 60 220 30 60 220 30 60 220 30 60 220 30 60 220 30 60 220 30 60 220 30 60 220 30 60 220 30 60 220 30 60 220 30 60 220 30 60 220 30 60 220 30 60 220 30 60 220 30 60 220 30 60 220 30 60 220 30 60 220 30 60 220 30 60 220 30 60 220 30 60 220 30 60 220 30 60 220 30 60 220 30 60 220 30 60 220 30 60 220 30 60 220 30 60 220 30 60 220 30 60 220 30 60 220 30 60 220 30 60 220 30 60 220 30 60 220 30 60 220 30 60 220 30 60 220 30 60 220 30 60 220 30 60 220 30 60 220 30 60 220 30 60 220 30 60 220 30 60 220 30 60 220 30 60 220 30 60 220 30 60 220 30 60 220 30 60 220 30 60 220 30 60 220 30 60 220 30 60 220 30 60 220 30 60 220 30 60 220 30 60 220 30 60 220 30 60 220 30 60 220 30 60 220 30 60 220 30 60 220 30 60 220 30 60 220 30 60 220 30 60 220 30 60 220 30 60 220 30 60 220 30 60 220 30 60 220 30 60 220 30 60 220 30 60 220 30 60 220 30 60 220 30 60 220 30 60 220 30 60 220 30 60 220 30 60 220 30 60 220 30 60 220 30 60 220 30 60 220 30 60 220 30 60 220 30 60 220 30 60 220 30 60 220 30 60 220 30 60 220 30 60 220 30 60 220 30 60 220 30 60 220 30 60 220 30 60 220 30 60 220 30 60 220 30 60 220 30 60 220 30 60 220 199 248 31 200 248 30 201 248 30 202 248 29 203 248 29 204 248 28 205 248 28 206 248 27 207 248 27 208 248 26 209 248 26 210 248 25 211 248 25 212 248 24 213 248 24 214 248 23 215 248 23 216 248 22 217 248 22 218 248 21 219 248 21 220 248 20 221 248 20 222 248 19 223 248 19 224 248 18 225 248 18 226 248 17 227 248 17 228 248 16 229 248 16 230 248 15 231 248 15 232 248 14 233 248 14 234 248 13 235 248 13 236 248 12 237 248 12 238 248 11 239 248 11 240 248 10 241 248 10 242 248 9 243 248 9 244 248 8 245 248 8 246 248 7 247 248 7 248 248 6 249 248 6 250 248 5 251 248 5 252 248 4 253 248 4 254 248 3 
0 249 130 0 249 129 1 249 129 2 249 128 3 249 128 4 249 127 5 249 127 6 249 127 7 249 126 8 249 126 9 249 125 10 249 125 11 249 124 12 249 124 13 249 123 14 249 123 15 249 122 16 249 122 17 249 121 18 249 121 19 249 120 20 249 120 21 249 119 22 249 119 23 249 118 24 249 118 25 249 117 26 249 117 27 249 116 28 249 116 29 249 115 30 249 115 31 249 114 32 249 114 33 249 113 34 249 113 35 249 112 36 249 112 37 249 111 38 249 111 39 249 110 40 249 110 41 249 109 42 249 109 43 249 108 44 249 108 45 249 107 46 249 107 47 249 106 48 249 106 49 249 105 50 249 105 51 249 104 52 249 104 53 249 103 54 249 103 55 249 102 56 249 102 57 249 101 58 249 101 59 249 100 30 60 220 30 60 220 30 60 220 30 60 220 30 60 220 30 60 220 30 60 220 30 60 220 30 60 220 30 60 220 30 60 220 30 60 220 30 60 220 30 60 220 30 60 220 30 60 220 30 60 220 30 60 220 30 60 220 30 60 220 30 60 220 30 60 220 30 60 220 30 60 220 30 60 220 30 60 220 30 60 220 30 60 220 30 60 220 30 60 220 30 60 220 30 60 220 30 60 220 30 60 220 30 60 220 30 60 220 30 60 220 30 60 220 30 60 220 30 60 220 30 60 220 30 60 220 30 60 220 30 60 220 30 60 220 30 60 220 30 60 220 30 60 220 30 60 220 30 60 220 30 60 220 30 60 220 30 60 220 30 60 220 30 60 220 30 60 220 30 60 220 30 60 220 30 60 220 30 60 220 30 60 220 30 60 220 30 60 220 30 60 220 30 60 220 30 60 220 30 60 220 30 60 220 30 60 220 30 60 220 30 60 220 30 60 220 30 60 220 30 60 220 30 60 220 30 60 220 30 60 220 30 60 220 30 60 220 30 60 220 30 60 220 30 60 220 30 60 220 30 60 220 30 60 220 30 60 220 30 60 220 30 60 220 30 60 220 30 60 220 30 60 220 30 60 220 30 60 220 30 60 220 30 60 220 30 60 220 30 60 220 30 60 220 30 60 220 30 60 220 30 60 220 30 60 220 30 60 220 30 60 220 30 60 220 30 60 220 30 60 220 30 60 220 30 60 220 30 60 220 30 60 220 30 60 220 30 60 220 30 60 220 30 60 220 30 60 220 30 60 220 30 60 220 30 60 220 30 60 220 30 60 220 30 60 220 30 60 220 30 60 220 30 60 220 30 60 220 30 60 220 30 60 220 30 60 220 30 60 220 30 60 220 30 60 220 30 60 220 30 60 220 30 60 220 30 60 220 30 60 220 30 60 220 30 60 220 199 249 30 200 249 30 201 249 29 202 249 29 203 249 28 204 249 28 205 249 27 206 249 27 207 249 26 208 249 26 209 249 25 210 249 25 211 249 24 212 249 24 213 249 23 214 249 23 215 249 22 216 249 22 217 249 21 218 249 21 219 249 20 220 249 20 221 249 19 222 249 19 223 249 18 224 249 18 225 249 17 226 249 17 227 249 16 228 249 16 229 249 15 230 249 15 231 249 14 232 249 14 233 249 13 234 249 13 235 249 12 236 249 12 237 249 11 238 249 11 239 249 10 240 249 10 241 249 9 242 249 9 243 249 8 244 249 8 245 249 7 246 249 7 247 249 6 248 249 6 249 249 5 250 249 5 251 249 4 252 249 4 253 249 3 254 249 3 
0 250 129 0 250 129 1 250 128 2 250 128 3 250 127 4 250 127 5 250 127 6 250 126 7 250 126 8 250 125 9 250 125 10 250 124 11 250 124 12 250 123 13 250 123 14 250 122 15 250 122 16 250 121 17 250 121 18 250 120 19 250 120 20 250 119 21 250 119 22 250 118 23 250 118 24 250 117 25 250 117 26 250 116 27 250 116 28 250 115 29 250 115 30 250 114 31 250 114 32 250 113 33 250 113 34 250 112 35 250 112 36 250 111 37 250 111 38 250 110 39 250 110 40 250 109 41 250 109 42 250 108 43 250 108 44 250 107 45 250 107 46 250 106 47 250 106 48 250 105 49 250 105 50 250 104 51 250 104 52 250 103 53 250 103 54 250 102 55 250 102 56 250 101 57 250 101 58 250 100 59 250 100 60 250 99 61 250 99 62 250 98 63 250 98 64 250 97 65 250 97 66 250 96 67 250 96 68 250 95 69 250 95 70 250 94 71 250 94 72 250 93 73 250 93 74 250 92 75 250 92 76 250 91 77 250 91 78 250 90 79 250 90 80 250 89 81 250 89 82 250 88 83 250 88 84 250 87 85 250 87 86 250 86 87 250 86 88 250 85 89 250 85 90 250 84 91 250 84 92 250 83 93 250 83 94 250 82 95 250 82 96 250 81 97 250 81 98 250 80 99 250 80 100 250 79 101 250 79 102 250 78 103 250 78 104 250 77 105 250 77 106 250 76 107 250 76 108 250 75 109 250 75 110 250 74 111 250 74 112 250 73 113 250 73 114 250 72 115 250 72 116 250 71 117 250 71 118 250 70 119 250 70 120 250 69 121 250 69 122 250 68 123 250 68 124 250 67 125 250 67 126 250 66 127 250 66 128 250 65 129 250 65 130 250 64 131 250 64 132 250 63 133 250 63 134 250 62 135 250 62 136 250 61 137 250 61 138 250 60 139 250 60 140 250 59 141 250 59 142 250 58 143 250 58 144 250 57 145 250 57 146 250 56 147 250 56 148 250 55 149 250 55 150 250 54 151 250 54 152 250 53 153 250 53 154 250 52 155 250 52 156 250 51 157 250 51 158 250 50 159 250 50 160 250 49 161 250 49 162 250 48 163 250 48 164 250 47 165 250 47 166 250 46 167 250 46 168 250 45 169 250 45 170 250 44 171 250 44 172 250 43 173 250 43 174 250 42 175 250 42 176 250 41 177 250 41 178 250 40 179 250 40 180 250 39 181 250 39 182 250 38 183 250 38 184 250 37 185 250 37 186 250 36 187 250 36 188 250 35 189 250 35 190 250 34 191 250 34 192 250 33 193 250 33 194 250 32 195 250 32 196 250 31 197 250 31 198 250 30 199 250 30 200 250 29 201 250 29 202 250 28 203 250 28 204 250 27 205 250 27 206 250 26 207 250 26 208 250 25 209 250 25 210 250 24 211 250 24 212 250 23 213 250 23 214 250 22 215 250 22 216 250 21 217 250 21 218 250 20 219 250 20 220 250 19 221 250 19 222 250 18 223 250 18 224 250 17 225 250 17 226 250 16 227 250 16 228 250 15 229 250 15 230 250 14 231 250 14 232 250 13 233 250 13 234 250 12 235 250 12 236 250 11 237 250 11 238 250 10 239 250 10 240 250 9 241 250 9 242 250 8 243 250 8 244 250 7 245 250 7 246 250 6 247 250 6 248 250 5 249 250 5 250 250 4 251 250 4 252 250 3 253 250 3 254 250 2 
0 251 129 0 251 128 1 251 128 2 251 127 3 251 127 4 251 127 5 251 126 6 251 126 7 251 125 8 251 125 9 251 124 10 251 124 11 251 123 12 251 123 13 251 122 14 251 122 15 251 121 16 251 121 17 251 120 18 251 120 19 251 119 20 251 119 21 251 118 22 251 118 23 251 117 24 251 117 25 251 116 26 251 116 27 251 115 28 251 115 29 251 114 30 251 114 31 251 113 32 251 113 33 251 112 34 251 112 35 251 111 36 251 111 37 251 110 38 251 110 39 251 109 40 251 109 41 251 108 42 251 108 43 251 107 44 251 107 45 251 106 46 251 106 47 251 105 48 251 105 49 251 104 50 251 104 51 251 103 52 251 103 53 251 102 54 251 102 55 251 101 56 251 101 57 251 100 58 251 100 59 251 99 60 251 99 61 251 98 62 251 98 63 251 97 64 251 97 65 251 96 66 251 96 67 251 95 68 251 95 69 251 94 70 251 94 71 251 93 72 251 93 73 251 92 74 251 92 75 251 91 76 251 91 77 251 90 78 251 90 79 251 89 80 251 89 81 251 88 82 251 88 83 251 87 84 251 87 85 251 86 86 251 86 87 251 85 88 251 85 89 251 84 90 251 84 91 251 83 92 251 83 93 251 82 94 251 82 95 251 81 96 251 81 97 251 80 98 251 80 99 251 79 100 251 79 101 251 78 102 251 78 103 251 77 104 251 77 105 251 76 106 251 76 107 251 75 108 251 75 109 251 74 110 251 74 111 251 73 112 251 73 113 251 72 114 251 72 115 251 71 116 251 71 117 251 70 118 251 70 119 251 69 120 251 69 121 251 68 122 251 68 123 251 67 124 251 67 125 251 66 126 251 66 127 251 65 128 251 65 129 251 64 130 251 64 131 251 63 132 251 63 133 251 62 134 251 62 135 251 61 136 251 61 137 251 60 138 251 60 139 251 59 140 251 59 141 251 58 142 251 58 143 251 57 144 251 57 145 251 56 146 251 56 147 251 55 148 251 55 149 251 54 150 251 54 151 251 53 152 251 53 153 251 52 154 251 52 155 251 51 156 251 51 157 251 50 158 251 50 159 251 49 160 251 49 161 251 48 162 251 48 163 251 47 164 251 47 165 251 46 166 251 46 167 251 45 168 251 45 169 251 44 170 251 44 171 251 43 172 251 43 173 251 42 174 251 42 175 251 41 176 251 41 177 251 40 178 251 40 179 251 39 180 251 39 181 251 38 182 251 38 183 251 37 184 251 37 185 251 36 186 251 36 187 251 35 188 251 35 189 251 34 190 251 34 191 251 33 192 251 33 193 251 32 194 251 32 195 251 31 196 251 31 197 251 30 198 251 30 199 251 29 200 251 29 201 251 28 202 251 28 203 251 27 204 251 27 205 251 26 206 251 26 207 251 25 208 251 25 209 251 24 210 251 24 211 251 23 212 251 23 213 251 22 214 251 22 215 251 21 216 251 21 217 251 20 218 251 20 219 251 19 220 251 19 221 251 18 222 251 18 223 251 17 224 251 17 225 251 16 226 251 16 227 251 15 228 251 15 229 251 14 230 251 14 231 251 13 232 251 13 233 251 12 234 251 12 235 251 11 236 251 11 237 251 10 238 251 10 239 251 9 240 251 9 241 251 8 242 251 8 243 251 7 244 251 7 245 251 6 246 251 6 247 251 5 248 251 5 249 251 4 250 251 4 251 251 3 252 251 3 253 251 2 254 251 2 
0 252 128 0 252 128 1 252 127 2 252 127 3 252 127 4 252 126 5 252 126 6 252 125 7 252 125 8 252 124 9 252 124 10 252 123 11 252 123 12 252 122 13 252 122 14 252 121 15 252 121 16 252 120 17 252 120 18 252 119 19 252 119 20 252 118 21 252 118 22 252 117 23 252 117 24 252 116 25 252 116 26 252 115 27 252 115 28 252 114 29 252 114 30 252 113 31 252 113 32 252 112 33 252 112 34 252 111 35 252 111 36 252 110 37 252 110 38 252 109 39 252 109 40 252 108 41 252 108 42 252 107 43 252 107 44 252 106 45 252 106 46 252 105 47 252 105 48 252 104 49 252 104 50 252 103 51 252 103 52 252 102 53 252 102 54 252 101 55 252 101 56 252 100 57 252 100 58 252 99 59 252 99 60 252 98 61 252 98 62 252 97 63 252 97 64 252 96 65 252 96 66 252 95 67 252 95 68 252 94 69 252 94 70 252 93 71 252 93 72 252 92 73 252 92 74 252 91 75 252 91 76 252 90 77 252 90 78 252 89 79 252 89 80 252 88 81 252 88 82 252 87 83 252 87 84 252 86 85 252 86 86 252 85 87 252 85 88 252 84 89 252 84 90 252 83 91 252 83 92 252 82 93 252 82 94 252 81 95 252 81 96 252 80 97 252 80 98 252 79 99 252 79 100 252 78 101 252 78 102 252 77 103 252 77 104 252 76 105 252 76 106 252 75 107 252 75 108 252 74 109 252 74 110 252 73 111 252 73 112 252 72 113 252 72 114 252 71 115 252 71 116 252 70 117 252 70 118 252 69 119 252 69 120 252 68 121 252 68 122 252 67 123 252 67 124 252 66 125 252 66 126 252 65 127 252 65 128 252 64 129 252 64 130 252 63 131 252 63 132 252 62 133 252 62 134 252 61 135 252 61 136 252 60 137 252 60 138 252 59 139 252 59 140 252 58 141 252 58 142 252 57 143 252 57 144 252 56 145 252 56 146 252 55 147 252 55 148 252 54 149 252 54 150 252 53 151 252 53 152 252 52 153 252 52 154 252 51 155 252 51 156 252 50 157 252 50 158 252 49 159 252 49 160 252 48 161 252 48 162 252 47 163 252 47 164 252 46 165 252 46 166 252 45 167 252 45 168 252 44 169 252 44 170 252 43 171 252 43 172 252 42 173 252 42 174 252 41 175 252 41 176 252 40 177 252 40 178 252 39 179 252 39 180 252 38 181 252 38 182 252 37 183 252 37 184 252 36 185 252 36 186 252 35 187 252 35 188 252 34 189 252 34 190 252 33 191 252 33 192 252 32 193 252 32 194 252 31 195 252 31 196 252 30 197 252 30 198 252 29 199 252 29 200 252 28 201 252 28 202 252 27 203 252 27 204 252 26 205 252 26 206 252 25 207 252 25 208 252 24 209 252 24 210 252 23 211 252 23 212 252 22 213 252 22 214 252 21 215 252 21 216 252 20 217 252 20 218 252 19 219 252 19 220 252 18 221 252 18 222 252 17 223 252 17 224 252 16 225 252 16 226 252 15 227 252 15 228 252 14 229 252 14 230 252 13 231 252 13 232 252 12 233 252 12 234 252 11 235 252 11 236 252 10 237 252 10 238 252 9 239 252 9 240 252 8 241 252 8 242 252 7 243 252 7 244 252 6 245 252 6 246 252 5 247 252 5 248 252 4 249 252 4 250 252 3 251 252 3 252 252 2 253 252 2 254 252 1 
0 253 128 0 253 127 1 253 127 2 253 127 3 253 126 4 253 126 5 253 125 6 253 125 7 253 124 8 253 124 9 253 123 10 253 123 11 253 122 12 253 122 13 253 121 14 253 121 15 253 120 16 253 120 17 253 119 18 253 119 19 253 118 20 253 118 21 253 117 22 253 117 23 253 116 24 253 116 25 253 115 26 253 115 27 253 114 28 253 114 29 253 113 30 253 113 31 253 112 32 253 112 33 253 111 34 253 111 35 253 110 36 253 110 37 253 109 38 253 109 39 253 108 40 253 108 41 253 107 42 253 107 43 253 106 44 253 106 45 253 105 46 253 105 47 253 104 48 253 104 49 253 103 50 253 103 51 253 102 52 253 102 53 253 101 54 253 101 55 253 100 56 253 100 57 253 99 58 253 99 59 253 98 60 253 98 61 253 97 62 253 97 63 253 96 64 253 96 65 253 95 66 253 95 67 253 94 68 253 94 69 253 93 70 253 93 71 253 92 72 253 92 73 253 91 74 253 91 75 253 90 76 253 90 77 253 89 78 253 89 79 253 88 80 253 88 81 253 87 82 253 87 83 253 86 84 253 86 85 253 85 86 253 85 87 253 84 88 253 84 89 253 83 90 253 83 91 253 82 92 253 82 93 253 81 94 253 81 95 253 80 96 253 80 97 253 79 98 253 79 99 253 78 100 253 78 101 253 77 102 253 77 103 253 76 104 253 76 105 253 75 106 253 75 107 253 74 108 253 74 109 253 73 110 253 73 111 253 72 112 253 72 113 253 71 114 253 71 115 253 70 116 253 70 117 253 69 118 253 69 119 253 68 120 253 68 121 253 67 122 253 67 123 253 66 124 253 66 125 253 65 126 253 65 127 253 64 128 253 64 129 253 63 130 253 63 131 253 62 132 253 62 133 253 61 134 253 61 135 253 60 136 253 60 137 253 59 138 253 59 139 253 58 140 253 58 141 253 57 142 253 57 143 253 56 144 253 56 145 253 55 146 253 55 147 253 54 148 253 54 149 253 53 150 253 53 151 253 52 152 253 52 153 253 51 154 253 51 155 253 50 156 253 50 157 253 49 158 253 49 159 253 48 160 253 48 161 253 47 162 253 47 163 253 46 164 253 46 165 253 45 166 253 45 167 253 44 168 253 44 169 253 43 170 253 43 171 253 42 172 253 42 173 253 41 174 253 41 175 253 40 176 253 40 177 253 39 178 253 39 179 253 38 180 253 38 181 253 37 182 253 37 183 253 36 184 253 36 185 253 35 186 253 35 187 253 34 188 253 34 189 253 33 190 253 33 191 253 32 192 253 32 193 253 31 194 253 31 195 253 30 196 253 30 197 253 29 198 253 29 199 253 28 200 253 28 201 253 27 202 253 27 203 253 26 204 253 26 205 253 25 206 253 25 207 253 24 208 253 24 209 253 23 210 253 23 211 253 22 212 253 22 213 253 21 214 253 21 215 253 20 216 253 20 217 253 19 218 253 19 219 253 18 220 253 18 221 253 17 222 253 17 223 253 16 224 253 16 225 253 15 226 253 15 227 253 14 228 253 14 229 253 13 230 253 13 231 253 12 232 253 12 233 253 11 234 253 11 235 253 10 236 253 10 237 253 9 238 253 9 239 253 8 240 253 8 241 253 7 242 253 7 243 253 6 244 253 6 245 253 5 246 253 5 247 253 4 248 253 4 249 253 3 250 253 3 251 253 2 252 253 2 253 253 1 254 253 1 
0 254 127 0 254 127 1 254 127 2 254 126 3 254 126 4 254 125 5 254 125 6 254 124 7 254 124 8 254 123 9 254 123 10 254 122 11 254 122 12 254 121 13 254 121 14 254 120 15 254 120 16 254 119 17 254 119 18 254 118 19 254 118 20 254 117 21 254 117 22 254 116 23 254 116 24 254 115 25 254 115 26 254 114 27 254 114 28 254 113 29 254 113 30 254 112 31 254 112 32 254 111 33 254 111 34 254 110 35 254 110 36 254 109 37 254 109 38 254 108 39 254 108 40 254 107 41 254 107 42 254 106 43 254 106 44 254 105 45 254 105 46 254 104 47 254 104 48 254 103 49 254 103 50 254 102 51 254 102 52 254 101 53 254 101 54 254 100 55 254 100 56 254 99 57 254 99 58 254 98 59 254 98 60 254 97 61 254 97 62 254 96 63 254 96 64 254 95 65 254 95 66 254 94 67 254 94 68 254 93 69 254 93 70 254 92 71 254 92 72 254 91 73 254 91 74 254 90 75 254 90 76 254 89 77 254 89 78 254 88 79 254 88 80 254 87 81 254 87 82 254 86 83 254 86 84 254 85 85 254 85 86 254 84 87 254 84 88 254 83 89 254 83 90 254 82 91 254 82 92 254 81 93 254 81 94 254 80 95 254 80 96 254 79 97 254 79 98 254 78 99 254 78 100 254 77 101 254 77 102 254 76 103 254 76 104 254 75 105 254 75 106 254 74 107 254 74 108 254 73 109 254 73 110 254 72 111 254 72 112 254 71 113 254 71 114 254 70 115 254 70 116 254 69 117 254 69 118 254 68 119 254 68 120 254 67 121 254 67 122 254 66 123 254 66 124 254 65 125 254 65 126 254 64 127 254 64 128 254 63 129 254 63 130 254 62 131 254 62 132 254 61 133 254 61 134 254 60 135 254 60 136 254 59 137 254 59 138 254 58 139 254 58 140 254 57 141 254 57 142 254 56 143 254 56 144 254 55 145 254 55 146 254 54 147 254 54 148 254 53 149 254 53 150 254 52 151 254 52 152 254 51 153 254 51 154 254 50 155 254 50 156 254 49 157 254 49 158 254 48 159 254 48 160 254 47 161 254 47 162 254 46 163 254 46 164 254 45 165 254 45 166 254 44 167 254 44 168 254 43 169 254 43 170 254 42 171 254 42 172 254 41 173 254 41 174 254 40 175 254 40 176 254 39 177 254 39 178 254 38 179 254 38 180 254 37 181 254 37 182 254 36 183 254 36 184 254 35 185 254 35 186 254 34 187 254 34 188 254 33 189 254 33 190 254 32 191 254 32 192 254 31 193 254 31 194 254 30 195 254 30 196 254 29 197 254 29 198 254 28 199 254 28 200 254 27 201 254 27 202 254 26 203 254 26 204 254 25 205 254 25 206 254 24 207 254 24 208 254 23 209 254 23 210 254 22 211 254 22 212 254 21 213 254 21 214 254 20 215 254 20 216 254 19 217 254 19 218 254 18 219 254 18 220 254 17 221 254 17 222 254 16 223 254 16 224 254 15 225 254 15 226 254 14 227 254 14 228 254 13 229 254 13 230 254 12 231 254 12 232 254 11 233 254 11 234 254 10 235 254 10 236 254 9 237 254 9 238 254 8 239 254 8 240 254 7 241 254 7 242 254 6 243 254 6 244 254 5 245 254 5 246 254 4 247 254 4 248 254 3 249 254 3 250 254 2 251 254 2 252 254 1 253 254 1 254 254 0 
